; generated by Slic3r 0.9.7 on 2013-02-09 at 14:58:01

; layer_height = 0.25
; perimeters = 3
; top_solid_layers = 4
; bottom_solid_layers = 3
; fill_density = 0.15
; perimeter_speed = 70
; infill_speed = 90
; travel_speed = 100
; scale = 1
; nozzle_diameter = 0.35
; filament_diameter = 2.9
; extrusion_multiplier = 1
; perimeters extrusion width = 0.39mm
; infill extrusion width = 0.39mm
; first layer extrusion width = 0.39mm

M107
G28 ; home all axes
G90 ; use absolute coordinates
G21 ; set units to millimeters
G92 E0
M82 ; use absolute distances for extrusion
G1 F420.000 E-0.50000
G92 E0
G1 Z0.250 F6000.000
G1 X74.170 Y81.953
G1 F420.000 E0.50000
G1 X74.570 Y81.613 F2100.000 E0.50765
G1 X75.000 Y81.303 E0.51537
G1 X75.450 Y81.033 E0.52301
G1 X76.170 Y80.703 E0.53455
G1 X76.670 Y80.533 E0.54224
G1 X77.180 Y80.403 E0.54991
G1 X77.700 Y80.313 E0.55759
G1 X78.230 Y80.273 E0.56534
G1 X121.760 Y80.273 E1.19939
G1 X122.290 Y80.313 E1.20714
G1 X122.810 Y80.403 E1.21482
G1 X123.320 Y80.533 E1.22249
G1 X123.820 Y80.703 E1.23018
G1 X124.540 Y81.033 E1.24172
G1 X125.210 Y81.453 E1.25324
G1 X125.630 Y81.783 E1.26102
G1 X125.820 Y81.953 E1.26473
G1 X126.370 Y82.523 E1.27627
G1 X126.700 Y82.943 E1.28405
G1 X127.120 Y83.613 E1.29557
G1 X127.350 Y84.093 E1.30332
G1 X127.540 Y84.583 E1.31097
G1 X127.690 Y85.083 E1.31858
G1 X127.800 Y85.603 E1.32632
G1 X127.840 Y85.863 E1.33015
G1 X127.880 Y86.393 E1.33789
G1 X127.880 Y91.533 E1.41276
G1 X127.830 Y92.073 E1.42066
G1 X127.740 Y92.613 E1.42864
G1 X127.680 Y92.883 E1.43266
G1 X127.520 Y93.403 E1.44059
G1 X127.200 Y94.153 E1.45247
G1 X126.930 Y94.623 E1.46036
G1 X114.930 Y114.003 E1.79238
G1 X114.460 Y114.663 E1.80419
G1 X114.100 Y115.073 E1.81213
G1 X113.710 Y115.443 E1.81996
G1 X113.070 Y115.943 E1.83179
G1 X112.610 Y116.223 E1.83964
G1 X111.880 Y116.573 E1.85143
G1 X111.370 Y116.753 E1.85931
G1 X110.840 Y116.883 E1.86726
G1 X110.310 Y116.973 E1.87509
G1 X109.770 Y117.023 E1.88299
G1 X90.220 Y117.023 E2.16775
G1 X89.680 Y116.973 E2.17565
G1 X89.150 Y116.883 E2.18348
G1 X88.620 Y116.753 E2.19143
G1 X88.110 Y116.573 E2.19931
G1 X87.380 Y116.223 E2.21110
G1 X86.920 Y115.943 E2.21895
G1 X86.280 Y115.443 E2.23077
G1 X85.890 Y115.073 E2.23861
G1 X85.530 Y114.663 E2.24655
G1 X85.060 Y114.003 E2.25835
G1 X73.060 Y94.623 E2.59038
G1 X72.790 Y94.153 E2.59827
G1 X72.470 Y93.403 E2.61015
G1 X72.310 Y92.883 E2.61808
G1 X72.250 Y92.613 E2.62210
G1 X72.160 Y92.073 E2.63008
G1 X72.110 Y91.533 E2.63798
G1 X72.110 Y86.393 E2.71285
G1 X72.150 Y85.863 E2.72059
G1 X72.240 Y85.343 E2.72828
G1 X72.370 Y84.833 E2.73594
G1 X72.540 Y84.333 E2.74363
G1 X72.870 Y83.613 E2.75517
G1 X73.140 Y83.163 E2.76281
G1 X73.450 Y82.733 E2.77054
G1 X73.790 Y82.333 E2.77818
G1 X74.129 Y81.994 E2.78517
G1 X74.170 Y81.953 E2.78601
G1 F420.000 E2.28601
G92 E0
G1 X108.733 Y98.277 F6000.000
G1 F420.000 E0.50000
G1 X108.733 Y109.876 F1500.000 E0.66895
G1 X105.967 Y109.876 E0.70924
G1 X105.967 Y103.516 E0.80188
G1 X107.150 Y102.138 E0.82834
G1 X108.006 Y100.596 E0.85402
G1 X108.716 Y98.333 E0.88858
G1 X108.733 Y98.277 E0.88942
G1 F420.000 E0.38942
G92 E0
G1 X94.033 Y103.447 F6000.000
G1 F420.000 E0.50000
G1 X94.033 Y109.876 F1500.000 E0.59365
G1 X91.267 Y109.876 E0.63394
G1 X91.267 Y97.720 E0.81101
G1 X91.688 Y99.769 E0.84148
G1 X92.383 Y101.389 E0.86716
G1 X93.390 Y102.835 E0.89283
G1 X93.991 Y103.407 E0.90492
G1 X94.033 Y103.447 E0.90576
G1 F420.000 E0.40576
G92 E0
G1 X79.267 Y87.428 F6000.000
G1 F420.000 E0.50000
G1 X120.733 Y87.428 F2100.000 E1.10400
G1 X120.733 Y90.494 E1.14866
G1 X106.174 Y90.494 E1.36073
G1 X106.681 Y91.372 E1.37550
G1 X104.608 Y89.768 E1.41368
G1 X103.026 Y88.992 E1.43935
G1 X101.319 Y88.550 E1.46503
G1 X99.559 Y88.461 E1.49070
G1 X97.816 Y88.727 E1.51638
G1 X96.163 Y89.340 E1.54205
G1 X94.668 Y90.272 E1.56773
G1 X93.087 Y91.774 E1.59949
G1 X93.826 Y90.494 E1.62103
G1 X79.267 Y90.494 E1.83310
G1 X79.267 Y87.485 E1.87692
G1 X79.267 Y87.428 E1.87776
G1 X78.882 Y87.043 F6000.000
G1 X121.118 Y87.043 F2100.000 E2.49297
G1 X121.118 Y90.879 E2.54884
G1 X106.840 Y90.879 E2.75681
G1 X108.327 Y93.454 E2.80012
G1 X108.916 Y95.266 E2.82787
G1 X109.118 Y97.191 E2.85608
G1 X109.118 Y110.261 E3.04645
G1 X105.582 Y110.261 E3.09795
G1 X105.582 Y103.313 E3.19915
G1 X105.735 Y103.195 E3.20198
G1 X106.833 Y101.917 E3.22651
G1 X107.650 Y100.444 E3.25105
G1 X108.154 Y98.837 E3.27558
G1 X108.325 Y97.161 E3.30012
G1 X108.154 Y95.485 E3.32465
G1 X107.650 Y93.878 E3.34919
G1 X106.833 Y92.405 E3.37372
G1 X105.735 Y91.127 E3.39826
G1 X104.403 Y90.096 E3.42279
G1 X102.891 Y89.354 E3.44733
G1 X101.261 Y88.932 E3.47186
G1 X99.578 Y88.847 E3.49640
G1 X97.913 Y89.102 E3.52093
G1 X96.334 Y89.687 E3.54547
G1 X94.904 Y90.578 E3.57000
G1 X93.684 Y91.738 E3.59454
G1 X92.721 Y93.121 E3.61907
G1 X92.057 Y94.669 E3.64361
G1 X91.718 Y96.319 E3.66814
G1 X91.718 Y98.003 E3.69268
G1 X92.057 Y99.653 E3.71721
G1 X92.721 Y101.201 E3.74175
G1 X93.684 Y102.583 E3.76628
G1 X94.418 Y103.282 E3.78104
G1 X94.418 Y110.261 E3.88270
G1 X90.882 Y110.261 E3.93421
G1 X90.882 Y97.191 E4.12458
G1 X91.084 Y95.266 E4.15278
G1 X91.673 Y93.454 E4.18054
G1 X93.160 Y90.879 E4.22384
G1 X78.882 Y90.879 E4.43181
G1 X78.882 Y87.101 E4.48684
G1 X78.882 Y87.043 E4.48769
G1 X78.497 Y86.658 F6000.000
G1 X121.503 Y86.658 F1050.000 E5.11411
G1 X121.503 Y91.264 E5.18119
G1 X107.507 Y91.264 E5.38506
G1 X108.680 Y93.296 E5.41924
G1 X109.294 Y95.185 E5.44818
G1 X109.503 Y97.171 E5.47726
G1 X109.503 Y110.646 E5.67353
G1 X105.197 Y110.646 E5.73625
G1 X105.197 Y103.125 E5.84580
G1 X105.469 Y102.914 E5.85081
G1 X106.515 Y101.696 E5.87420
G1 X107.295 Y100.291 E5.89760
G1 X107.775 Y98.759 E5.92099
G1 X107.938 Y97.161 E5.94439
G1 X107.775 Y95.563 E5.96778
G1 X107.295 Y94.031 E5.99118
G1 X106.515 Y92.626 E6.01457
G1 X105.469 Y91.408 E6.03797
G1 X104.199 Y90.424 E6.06136
G1 X102.757 Y89.717 E6.08476
G1 X101.202 Y89.315 E6.10815
G1 X99.598 Y89.233 E6.13155
G1 X98.010 Y89.476 E6.15494
G1 X96.504 Y90.034 E6.17834
G1 X95.141 Y90.884 E6.20173
G1 X93.977 Y91.990 E6.22513
G1 X93.060 Y93.309 E6.24852
G1 X92.426 Y94.785 E6.27192
G1 X92.103 Y96.358 E6.29531
G1 X92.103 Y97.964 E6.31870
G1 X92.426 Y99.537 E6.34210
G1 X93.060 Y101.013 E6.36549
G1 X93.977 Y102.331 E6.38889
G1 X94.803 Y103.116 E6.40548
G1 X94.803 Y110.646 E6.51516
G1 X90.497 Y110.646 E6.57787
G1 X90.497 Y97.171 E6.77415
G1 X90.706 Y95.185 E6.80323
G1 X91.320 Y93.296 E6.83216
G1 X92.493 Y91.264 E6.86635
G1 X78.497 Y91.264 E7.07021
G1 X78.497 Y86.716 E7.13646
G1 X78.497 Y86.658 E7.13730
G1 X78.697 Y86.313 F6000.000
G1 F420.000 E6.63730
G92 E0
G1 X106.474 Y109.614 F6000.000
G1 F420.000 E0.50000
G1 X106.229 Y109.369 F2700.000 E0.50523
G1 X106.229 Y108.805 E0.51375
G1 X107.038 Y109.614 E0.53102
G1 X107.602 Y109.614 E0.53953
G1 X106.229 Y108.241 E0.56884
G1 X106.229 Y107.677 E0.57736
G1 X108.166 Y109.614 E0.61871
G1 X108.471 Y109.354 E0.62475
G1 X106.229 Y107.113 E0.67260
G1 X106.229 Y106.549 E0.68111
G1 X108.471 Y108.790 E0.72896
G1 X108.471 Y108.226 E0.73748
G1 X106.229 Y105.985 E0.78533
G1 X106.229 Y105.421 E0.79384
G1 X108.471 Y107.662 E0.84170
G1 X108.471 Y107.098 E0.85021
G1 X106.229 Y104.857 E0.89806
G1 X106.229 Y104.293 E0.90658
G1 X108.471 Y106.534 E0.95443
G1 X108.471 Y105.970 E0.96294
G1 X106.229 Y103.729 E1.01080
G1 X106.401 Y103.336 E1.01726
G1 X108.471 Y105.406 E1.06146
G1 X108.471 Y104.842 E1.06997
G1 X106.661 Y103.033 E1.10860
G1 X106.922 Y102.729 E1.11464
G1 X108.471 Y104.278 E1.14771
G1 X108.471 Y103.714 E1.15622
G1 X107.182 Y102.426 E1.18373
G1 X107.421 Y102.100 E1.18982
G1 X108.471 Y103.150 E1.21224
G1 X108.471 Y102.586 E1.22076
G1 X107.622 Y101.737 E1.23888
G1 X107.823 Y101.375 E1.24514
G1 X108.471 Y102.022 E1.25897
G1 X108.471 Y101.458 E1.26748
G1 X108.024 Y101.012 E1.27701
G1 X108.226 Y100.649 E1.28327
G1 X108.471 Y100.894 E1.28850
G1 F420.000 E0.78850
G92 E0
G1 X108.829 Y97.184 F6000.000
G1 F420.000 E0.50000
G1 X108.584 Y96.939 F600.000 E0.50539
G1 X108.768 Y96.542 E0.51220
G1 X108.518 Y96.292 E0.51770
G1 X108.699 Y95.892 E0.52453
G1 X108.452 Y95.645 E0.52997
G1 X108.557 Y95.169 E0.53756
G1 X108.032 Y94.062 E0.55661
G1 X108.120 Y93.824 F6000.000
G1 X107.875 Y93.578 F600.000 E0.56166
G1 F420.000 E0.06166
G92 E0
G1 X91.982 Y94.264 F6000.000
G1 F420.000 E0.50000
G1 X91.737 Y94.019 F600.000 E0.50596
G1 X92.175 Y93.814 E0.51428
G1 X91.895 Y93.533 E0.52110
G1 X92.123 Y93.119 E0.52924
G1 X92.368 Y93.364 E0.53520
G1 F420.000 E0.03520
G92 E0
G1 X91.535 Y95.990 F6000.000
G1 F420.000 E0.50000
G1 X91.290 Y95.745 F600.000 E0.50535
G1 X91.634 Y95.511 E0.51178
G1 X91.346 Y95.223 E0.51808
G1 X91.732 Y95.032 E0.52474
G1 X91.487 Y94.787 E0.53010
G1 F420.000 E0.03010
G92 E0
G1 X79.774 Y90.232 F6000.000
G1 F420.000 E0.50000
G1 X79.529 Y89.987 F2700.000 E0.50511
G1 X79.529 Y89.435 E0.51325
G1 X80.325 Y90.232 E0.52986
G1 X80.877 Y90.232 E0.53799
G1 X79.529 Y88.884 E0.56610
G1 X79.529 Y88.333 E0.57423
G1 X81.428 Y90.232 E0.61384
G1 X81.979 Y90.232 E0.62197
G1 X79.529 Y87.782 E0.67308
G1 X79.989 Y87.690 E0.67999
G1 X82.530 Y90.232 E0.73302
G1 X83.081 Y90.232 E0.74115
G1 X80.540 Y87.690 E0.79417
G1 X81.091 Y87.690 E0.80231
G1 X83.633 Y90.232 E0.85533
G1 X84.184 Y90.232 E0.86346
G1 X81.642 Y87.690 E0.91649
G1 X82.193 Y87.690 E0.92462
G1 X84.735 Y90.232 E0.97764
G1 X85.286 Y90.232 E0.98577
G1 X82.744 Y87.690 E1.03880
G1 X83.296 Y87.690 E1.04693
G1 X85.837 Y90.232 E1.09996
G1 X86.389 Y90.232 E1.10809
G1 X83.847 Y87.690 E1.16111
G1 X84.398 Y87.690 E1.16924
G1 X86.940 Y90.232 E1.22227
G1 X87.491 Y90.232 E1.23040
G1 X84.949 Y87.690 E1.28342
G1 X85.500 Y87.690 E1.29156
G1 X88.042 Y90.232 E1.34458
G1 X88.593 Y90.232 E1.35271
G1 X86.052 Y87.690 E1.40574
G1 X86.603 Y87.690 E1.41387
G1 X89.145 Y90.232 E1.46689
G1 X89.696 Y90.232 E1.47503
G1 X87.154 Y87.690 E1.52805
G1 X87.705 Y87.690 E1.53618
G1 X90.247 Y90.232 E1.58921
G1 X90.798 Y90.232 E1.59734
G1 X88.256 Y87.690 E1.65036
G1 X88.808 Y87.690 E1.65849
G1 X91.349 Y90.232 E1.71152
G1 X91.901 Y90.232 E1.71965
G1 X89.359 Y87.690 E1.77268
G1 X89.910 Y87.690 E1.78081
G1 X92.452 Y90.232 E1.83383
G1 X93.003 Y90.232 E1.84196
G1 X90.461 Y87.690 E1.89499
G1 X91.012 Y87.690 E1.90312
G1 X93.554 Y90.232 E1.95614
G1 X94.105 Y90.232 E1.96428
G1 X91.564 Y87.690 E2.01730
G1 X92.115 Y87.690 E2.02543
G1 X94.533 Y90.108 E2.07588
G1 X94.868 Y89.892 E2.08176
G1 X92.666 Y87.690 E2.12771
G1 X93.217 Y87.690 E2.13584
G1 X95.208 Y89.681 E2.17736
G1 X95.547 Y89.469 E2.18327
G1 X93.768 Y87.690 E2.22038
G1 X94.320 Y87.690 E2.22851
G1 X95.887 Y89.257 E2.26121
G1 X96.247 Y89.066 E2.26722
G1 X94.871 Y87.690 E2.29593
G1 X95.422 Y87.690 E2.30406
G1 X96.649 Y88.917 E2.32967
G1 X97.051 Y88.768 E2.33599
G1 X95.973 Y87.690 E2.35849
G1 X96.524 Y87.690 E2.36662
G1 X97.454 Y88.619 E2.38601
G1 X97.858 Y88.473 E2.39236
G1 X97.076 Y87.690 E2.40869
G1 X97.627 Y87.690 E2.41682
G1 X98.336 Y88.400 E2.43163
G1 X98.814 Y88.327 E2.43876
G1 X98.178 Y87.690 E2.45204
G1 X98.729 Y87.690 E2.46017
G1 X99.292 Y88.253 E2.47192
G1 X99.770 Y88.180 E2.47905
G1 X99.280 Y87.690 E2.48927
G1 X99.832 Y87.690 E2.49741
G1 X100.248 Y88.107 E2.50610
G1 X100.383 Y87.690 E2.51256
G1 X100.802 Y88.109 E2.52131
G1 X100.934 Y87.690 E2.52779
G1 X101.546 Y88.302 E2.54055
G1 X101.485 Y87.690 E2.54962
G1 X102.289 Y88.494 E2.56640
G1 X103.033 Y88.687 E2.57773
G1 X102.036 Y87.690 E2.59853
G1 X102.588 Y87.690 E2.60666
G1 X104.002 Y89.104 E2.63616
G1 X104.241 Y87.690 F6000.000
G1 X106.783 Y90.232 F2700.000 E2.68919
G1 X106.232 Y90.232 E2.69732
G1 X103.690 Y87.690 E2.75034
G1 X103.139 Y87.690 E2.75848
G1 X105.270 Y89.821 E2.80294
G1 F420.000 E2.30294
G92 E0
G1 X107.334 Y90.232 F6000.000
G1 F420.000 E0.50000
G1 X104.792 Y87.690 F2700.000 E0.55302
G1 X105.343 Y87.690 E0.56116
G1 X107.885 Y90.232 E0.61418
G1 X108.436 Y90.232 E0.62231
G1 X105.895 Y87.690 E0.67534
G1 X106.446 Y87.690 E0.68347
G1 X108.988 Y90.232 E0.73649
G1 X109.539 Y90.232 E0.74462
G1 X106.997 Y87.690 E0.79765
G1 X107.548 Y87.690 E0.80578
G1 X110.090 Y90.232 E0.85881
G1 X110.641 Y90.232 E0.86694
G1 X108.099 Y87.690 E0.91996
G1 X108.651 Y87.690 E0.92809
G1 X111.192 Y90.232 E0.98112
G1 X111.744 Y90.232 E0.98925
G1 X109.202 Y87.690 E1.04228
G1 X109.753 Y87.690 E1.05041
G1 X112.295 Y90.232 E1.10343
G1 X112.846 Y90.232 E1.11156
G1 X110.304 Y87.690 E1.16459
G1 X110.855 Y87.690 E1.17272
G1 X113.397 Y90.232 E1.22575
G1 X113.948 Y90.232 E1.23388
G1 X111.407 Y87.690 E1.28690
G1 X111.958 Y87.690 E1.29504
G1 X114.500 Y90.232 E1.34806
G1 X115.051 Y90.232 E1.35619
G1 X112.509 Y87.690 E1.40922
G1 X113.060 Y87.690 E1.41735
G1 X115.602 Y90.232 E1.47037
G1 X116.153 Y90.232 E1.47850
G1 X113.611 Y87.690 E1.53153
G1 X114.163 Y87.690 E1.53966
G1 X116.704 Y90.232 E1.59268
G1 X117.255 Y90.232 E1.60081
G1 X114.714 Y87.690 E1.65384
G1 X115.265 Y87.690 E1.66197
G1 X117.807 Y90.232 E1.71500
G1 X118.358 Y90.232 E1.72313
G1 X115.816 Y87.690 E1.77615
G1 X116.367 Y87.690 E1.78428
G1 X118.909 Y90.232 E1.83731
G1 X119.460 Y90.232 E1.84544
G1 X116.919 Y87.690 E1.89846
G1 X117.470 Y87.690 E1.90659
G1 X120.011 Y90.232 E1.95962
G1 X120.471 Y90.140 E1.96653
G1 X118.021 Y87.690 E2.01764
G1 X118.572 Y87.690 E2.02577
G1 X120.471 Y89.589 E2.06538
G1 X120.471 Y89.038 E2.07351
G1 X119.123 Y87.690 E2.10162
G1 X119.675 Y87.690 E2.10975
G1 X120.471 Y88.486 E2.12637
G1 X120.471 Y87.935 E2.13450
G1 X120.226 Y87.690 E2.13961
G1 F420.000 E1.63961
G92 E0
G1 X91.774 Y109.614 F6000.000
G1 F420.000 E0.50000
G1 X91.529 Y109.369 F2700.000 E0.50512
G1 X91.529 Y108.817 E0.51327
G1 X92.326 Y109.614 E0.52992
G1 X92.878 Y109.614 E0.53808
G1 X91.529 Y108.265 E0.56626
G1 X91.529 Y107.713 E0.57441
G1 X93.430 Y109.614 E0.61412
G1 X93.771 Y109.403 E0.62005
G1 X91.529 Y107.161 E0.66688
G1 X91.529 Y106.609 E0.67503
G1 X93.771 Y108.851 E0.72186
G1 X93.771 Y108.299 E0.73001
G1 X91.529 Y106.057 E0.77684
G1 X91.529 Y105.505 E0.78499
G1 X93.771 Y107.747 E0.83182
G1 X93.771 Y107.195 E0.83998
G1 X91.529 Y104.953 E0.88681
G1 X91.529 Y104.401 E0.89496
G1 X93.771 Y106.643 E0.94179
G1 X93.771 Y106.091 E0.94994
G1 X91.529 Y103.849 E0.99677
G1 X91.529 Y103.297 E1.00492
G1 X93.771 Y105.539 E1.05175
G1 X93.771 Y104.987 E1.05991
G1 X91.529 Y102.745 E1.10674
G1 X91.529 Y102.193 E1.11489
G1 X93.771 Y104.435 E1.16172
G1 X93.771 Y103.883 E1.16987
G1 X91.529 Y101.642 E1.21670
G1 X91.529 Y101.090 E1.22486
G1 X92.234 Y101.795 E1.23958
G1 X91.774 Y100.783 E1.25600
G1 X91.529 Y100.538 E1.26112
G1 F420.000 E0.76112
G92 E0
G1 Z0.500 F6000.000
G1 X108.733 Y98.277
G1 F420.000 E0.50000
G1 X108.733 Y109.876 F3000.000 E0.66895
G1 X105.967 Y109.876 E0.70924
G1 X105.967 Y103.516 E0.80188
G1 X107.150 Y102.138 E0.82834
G1 X108.006 Y100.596 E0.85402
G1 X108.716 Y98.333 E0.88858
G1 X108.733 Y98.277 E0.88942
G1 F420.000 E0.38942
G92 E0
G1 X94.033 Y103.447 F6000.000
G1 F420.000 E0.50000
G1 X94.033 Y109.876 F3000.000 E0.59365
G1 X91.267 Y109.876 E0.63394
G1 X91.267 Y97.720 E0.81101
G1 X91.688 Y99.769 E0.84148
G1 X92.383 Y101.389 E0.86716
G1 X93.390 Y102.835 E0.89283
G1 X93.991 Y103.407 E0.90492
G1 X94.033 Y103.447 E0.90576
G1 F420.000 E0.40576
G92 E0
G1 X79.267 Y87.428 F6000.000
G1 F420.000 E0.50000
G1 X120.733 Y87.428 F4200.000 E1.10400
G1 X120.733 Y90.494 E1.14866
G1 X106.174 Y90.494 E1.36073
G1 X106.681 Y91.372 E1.37550
G1 X104.608 Y89.768 E1.41368
G1 X103.026 Y88.992 E1.43935
G1 X101.319 Y88.550 E1.46503
G1 X99.559 Y88.460 E1.49070
G1 X97.816 Y88.727 E1.51638
G1 X96.163 Y89.340 E1.54205
G1 X94.668 Y90.272 E1.56773
G1 X93.087 Y91.774 E1.59949
G1 X93.826 Y90.494 E1.62102
G1 X79.267 Y90.494 E1.83310
G1 X79.267 Y87.485 E1.87692
G1 X79.267 Y87.428 E1.87776
G1 X78.882 Y87.043 F6000.000
G1 X121.118 Y87.043 F4200.000 E2.49297
G1 X121.118 Y90.879 E2.54884
G1 X106.840 Y90.879 E2.75681
G1 X108.327 Y93.454 E2.80012
G1 X108.916 Y95.266 E2.82787
G1 X109.118 Y97.191 E2.85607
G1 X109.118 Y110.261 E3.04645
G1 X105.582 Y110.261 E3.09795
G1 X105.582 Y103.313 E3.19915
G1 X105.735 Y103.195 E3.20198
G1 X106.833 Y101.917 E3.22651
G1 X107.650 Y100.444 E3.25105
G1 X108.154 Y98.837 E3.27558
G1 X108.325 Y97.161 E3.30012
G1 X108.154 Y95.485 E3.32465
G1 X107.650 Y93.878 E3.34919
G1 X106.833 Y92.405 E3.37372
G1 X105.735 Y91.127 E3.39826
