; generated by Slic3r 0.9.7 on 2013-02-24 at 09:05:45

; layer_height = 0.25
; perimeters = 3
; top_solid_layers = 4
; bottom_solid_layers = 3
; fill_density = 0.15
; perimeter_speed = 70
; infill_speed = 90
; travel_speed = 100
; scale = 1
; nozzle_diameter = 0.35
; filament_diameter = 2.9
; extrusion_multiplier = 1
; perimeters extrusion width = 0.39mm
; infill extrusion width = 0.39mm
; first layer extrusion width = 0.39mm

M107
G28 ; home all axes
G90 ; use absolute coordinates
G21 ; set units to millimeters
G92 E0
M82 ; use absolute distances for extrusion
G1 F420.000 E-0.50000
G92 E0
G1 Z0.250 F6000.000
G1 X50.210 Y65.710
G1 F420.000 E0.50000
G1 X50.630 Y65.410 F2100.000 E0.50752
G1 X51.080 Y65.150 E0.51509
G1 X51.550 Y64.920 E0.52271
G1 X52.040 Y64.730 E0.53037
G1 X52.290 Y64.650 E0.53419
G1 X53.050 Y64.480 E0.54553
G1 X53.310 Y64.440 E0.54936
G1 X53.830 Y64.400 E0.55696
G1 X146.760 Y64.400 E1.91058
G1 X147.290 Y64.440 E1.91832
G1 X147.550 Y64.480 E1.92215
G1 X148.070 Y64.590 E1.92989
G1 X148.570 Y64.740 E1.93750
G1 X149.060 Y64.930 E1.94515
G1 X149.540 Y65.160 E1.95291
G1 X150.210 Y65.580 E1.96442
G1 X150.820 Y66.080 E1.97591
G1 X151.370 Y66.650 E1.98745
G1 X151.700 Y67.070 E1.99523
G1 X152.120 Y67.740 E2.00675
G1 X152.450 Y68.460 E2.01829
G1 X152.690 Y69.210 E2.02976
G1 X152.840 Y69.990 E2.04132
G1 X152.880 Y70.520 E2.04907
G1 X152.880 Y75.520 E2.12190
G1 X152.210 Y107.260 E2.58432
G1 X152.180 Y107.830 E2.59264
G1 X152.090 Y108.390 E2.60090
G1 X152.030 Y108.670 E2.60507
G1 X151.870 Y109.210 E2.61327
G1 X151.770 Y109.480 E2.61747
G1 X151.540 Y110.000 E2.62575
G1 X151.260 Y110.490 E2.63397
G1 X139.260 Y129.870 E2.96599
G1 X138.790 Y130.530 E2.97780
G1 X138.430 Y130.940 E2.98574
G1 X138.040 Y131.310 E2.99357
G1 X137.620 Y131.650 E3.00145
G1 X137.400 Y131.810 E3.00541
G1 X136.940 Y132.090 E3.01325
G1 X136.210 Y132.440 E3.02504
G1 X135.700 Y132.620 E3.03292
G1 X134.910 Y132.800 E3.04472
G1 X134.100 Y132.890 E3.05659
G1 X114.810 Y132.890 E3.33757
G1 X65.200 Y132.740 E4.06020
G1 X64.660 Y132.690 E4.06809
G1 X64.130 Y132.600 E4.07592
G1 X63.870 Y132.540 E4.07981
G1 X63.350 Y132.380 E4.08774
G1 X62.850 Y132.180 E4.09558
G1 X62.610 Y132.060 E4.09949
G1 X62.140 Y131.800 E4.10731
G1 X61.690 Y131.490 E4.11527
G1 X61.270 Y131.150 E4.12314
G1 X60.880 Y130.780 E4.13097
G1 X60.530 Y130.380 E4.13872
G1 X60.060 Y129.720 E4.15052
G1 X48.070 Y110.330 E4.48259
G1 X47.780 Y109.810 E4.49126
G1 X47.550 Y109.270 E4.49981
G1 X47.360 Y108.720 E4.50829
G1 X47.220 Y108.140 E4.51698
G1 X47.140 Y107.560 E4.52550
G1 X47.120 Y107.260 E4.52988
G1 X47.120 Y102.250 E4.60286
G1 X47.720 Y70.400 E5.06687
G1 X47.810 Y69.620 E5.07831
G1 X47.860 Y69.370 E5.08202
G1 X48.000 Y68.870 E5.08958
G1 X48.180 Y68.370 E5.09732
G1 X48.510 Y67.670 E5.10860
G1 X48.940 Y67.010 E5.12007
G1 X49.260 Y66.600 E5.12765
G1 X49.810 Y66.040 E5.13908
G1 X50.164 Y65.745 E5.14579
G1 X50.210 Y65.710 E5.14663
G1 F420.000 E4.64663
G92 E0
G1 X130.967 Y87.643 F6000.000
G1 F420.000 E0.50000
G1 X132.150 Y86.265 F1500.000 E0.52646
G1 X133.006 Y84.724 E0.55214
G1 X133.733 Y82.405 E0.58754
G1 X133.733 Y94.004 E0.75648
G1 X130.967 Y94.004 E0.79678
G1 X130.967 Y87.701 E0.88858
G1 X130.967 Y87.643 E0.88942
G1 F420.000 E0.38942
G92 E0
G1 X119.033 Y87.574 F6000.000
G1 F420.000 E0.50000
G1 X119.033 Y94.004 F1500.000 E0.59365
G1 X116.267 Y94.004 E0.63394
G1 X116.267 Y81.847 E0.81101
G1 X116.688 Y83.896 E0.84148
G1 X117.383 Y85.516 E0.86716
G1 X118.390 Y86.963 E0.89283
G1 X118.991 Y87.534 E0.90492
G1 X119.033 Y87.574 E0.90576
G1 F420.000 E0.40576
G92 E0
G1 X145.733 Y71.555 F6000.000
G1 F420.000 E0.50000
G1 X145.733 Y74.622 F2100.000 E0.54466
G1 X131.174 Y74.622 E0.75674
G1 X131.681 Y75.500 E0.77151
G1 X129.608 Y73.895 E0.80968
G1 X128.026 Y73.119 E0.83536
G1 X126.319 Y72.677 E0.86103
G1 X124.559 Y72.588 E0.88671
G1 X122.816 Y72.855 E0.91238
G1 X121.163 Y73.467 E0.93806
G1 X119.668 Y74.400 E0.96373
G1 X118.087 Y75.902 E0.99549
G1 X118.826 Y74.622 E1.01703
G1 X104.267 Y74.622 E1.22910
G1 X104.267 Y71.555 E1.27376
G1 X145.675 Y71.555 E1.87692
G1 X145.733 Y71.555 E1.87776
G1 X146.118 Y71.170 F6000.000
G1 X146.118 Y75.006 F2100.000 E1.93364
G1 X131.840 Y75.006 E2.14160
G1 X133.327 Y77.581 E2.18491
G1 X133.916 Y79.393 E2.21267
G1 X134.118 Y81.319 E2.24087
G1 X134.118 Y94.389 E2.43124
G1 X130.582 Y94.389 E2.48274
G1 X130.582 Y87.441 E2.58394
G1 X130.735 Y87.322 E2.58677
G1 X131.833 Y86.044 E2.61130
G1 X132.650 Y84.571 E2.63584
G1 X133.154 Y82.964 E2.66037
G1 X133.325 Y81.288 E2.68491
G1 X133.154 Y79.613 E2.70944
G1 X132.650 Y78.006 E2.73398
G1 X131.833 Y76.533 E2.75851
G1 X130.735 Y75.255 E2.78305
G1 X129.403 Y74.224 E2.80758
G1 X127.891 Y73.482 E2.83212
G1 X126.261 Y73.060 E2.85665
G1 X124.578 Y72.974 E2.88119
G1 X122.913 Y73.229 E2.90572
G1 X121.334 Y73.814 E2.93026
G1 X119.904 Y74.705 E2.95479
G1 X118.684 Y75.866 E2.97933
G1 X117.721 Y77.248 E3.00386
G1 X117.057 Y78.796 E3.02840
G1 X116.718 Y80.446 E3.05293
G1 X116.718 Y82.131 E3.07747
G1 X117.057 Y83.781 E3.10200
G1 X117.721 Y85.328 E3.12654
G1 X118.684 Y86.711 E3.15107
G1 X119.418 Y87.409 E3.16583
G1 X119.418 Y94.389 E3.26749
G1 X115.882 Y94.389 E3.31900
G1 X115.882 Y81.319 E3.50937
G1 X116.084 Y79.393 E3.53757
G1 X116.673 Y77.581 E3.56533
G1 X118.160 Y75.006 E3.60863
G1 X103.882 Y75.006 E3.81660
G1 X103.882 Y71.170 E3.87248
G1 X146.060 Y71.170 E4.48684
G1 X146.118 Y71.170 E4.48769
G1 X146.503 Y70.786 F6000.000
G1 X146.503 Y75.391 F1050.000 E4.55477
G1 X132.507 Y75.391 E4.75864
G1 X133.680 Y77.424 E4.79282
G1 X134.294 Y79.313 E4.82176
G1 X134.503 Y81.299 E4.85084
G1 X134.503 Y94.773 E5.04711
G1 X130.197 Y94.773 E5.10983
G1 X130.197 Y87.252 E5.21938
G1 X130.469 Y87.042 E5.22439
G1 X131.515 Y85.823 E5.24778
G1 X132.295 Y84.419 E5.27118
G1 X132.775 Y82.886 E5.29457
G1 X132.938 Y81.288 E5.31797
G1 X132.775 Y79.691 E5.34136
G1 X132.295 Y78.158 E5.36476
G1 X131.515 Y76.754 E5.38815
G1 X130.469 Y75.535 E5.41155
G1 X129.199 Y74.552 E5.43494
G1 X127.757 Y73.845 E5.45834
G1 X126.202 Y73.442 E5.48173
G1 X124.598 Y73.361 E5.50513
G1 X123.010 Y73.604 E5.52852
G1 X121.504 Y74.162 E5.55192
G1 X120.141 Y75.011 E5.57531
G1 X118.977 Y76.118 E5.59871
G1 X118.060 Y77.436 E5.62210
G1 X117.426 Y78.912 E5.64550
G1 X117.103 Y80.485 E5.66889
G1 X117.103 Y82.092 E5.69229
G1 X117.426 Y83.665 E5.71568
G1 X118.060 Y85.141 E5.73907
G1 X118.977 Y86.459 E5.76247
G1 X119.803 Y87.244 E5.77907
G1 X119.803 Y94.773 E5.88874
G1 X115.497 Y94.773 E5.95145
G1 X115.497 Y81.299 E6.14773
G1 X115.706 Y79.313 E6.17681
G1 X116.320 Y77.424 E6.20574
G1 X117.493 Y75.391 E6.23993
G1 X103.497 Y75.391 E6.44380
G1 X103.497 Y70.786 E6.51088
G1 X146.445 Y70.786 E7.13646
G1 X146.503 Y70.786 E7.13730
G1 X146.848 Y70.985 F6000.000
G1 F420.000 E6.63730
G92 E0
G1 X131.474 Y93.741 F6000.000
G1 F420.000 E0.50000
G1 X131.229 Y93.496 F2700.000 E0.50523
G1 X131.229 Y92.932 E0.51375
G1 X132.038 Y93.741 E0.53102
G1 X132.602 Y93.741 E0.53953
G1 X131.229 Y92.368 E0.56884
G1 X131.229 Y91.804 E0.57736
G1 X133.166 Y93.741 E0.61871
G1 X133.471 Y93.482 E0.62475
G1 X131.229 Y91.240 E0.67260
G1 X131.229 Y90.676 E0.68111
G1 X133.471 Y92.918 E0.72896
G1 X133.471 Y92.354 E0.73748
G1 X131.229 Y90.112 E0.78533
G1 X131.229 Y89.548 E0.79384
G1 X133.471 Y91.790 E0.84170
G1 X133.471 Y91.226 E0.85021
G1 X131.229 Y88.984 E0.89806
G1 X131.229 Y88.420 E0.90658
G1 X133.471 Y90.662 E0.95443
G1 X133.471 Y90.098 E0.96294
G1 X131.229 Y87.856 E1.01080
G1 X131.401 Y87.464 E1.01726
G1 X133.471 Y89.534 E1.06146
G1 X133.471 Y88.970 E1.06997
G1 X131.661 Y87.160 E1.10860
G1 X131.922 Y86.857 E1.11464
G1 X133.471 Y88.406 E1.14771
G1 X133.471 Y87.842 E1.15622
G1 X132.182 Y86.553 E1.18373
G1 X132.421 Y86.228 E1.18982
G1 X133.471 Y87.278 E1.21224
G1 X133.471 Y86.714 E1.22076
G1 X132.622 Y85.865 E1.23888
G1 X132.823 Y85.502 E1.24514
G1 X133.471 Y86.150 E1.25897
G1 X133.471 Y85.586 E1.26748
G1 X133.024 Y85.140 E1.27701
G1 X133.226 Y84.777 E1.28327
G1 X133.471 Y85.022 E1.28850
G1 F420.000 E0.78850
G92 E0
G1 X133.829 Y81.312 F6000.000
G1 F420.000 E0.50000
G1 X133.584 Y81.067 F600.000 E0.50539
G1 X133.768 Y80.669 E0.51220
G1 X133.518 Y80.420 E0.51770
G1 X133.699 Y80.020 E0.52453
G1 X133.452 Y79.772 E0.52997
G1 X133.557 Y79.296 E0.53756
G1 X133.032 Y78.190 E0.55661
G1 X133.120 Y77.951 F6000.000
G1 X132.875 Y77.706 F600.000 E0.56166
G1 F420.000 E0.06166
G92 E0
G1 X116.982 Y78.391 F6000.000
G1 F420.000 E0.50000
G1 X116.737 Y78.146 F600.000 E0.50596
G1 X117.175 Y77.941 E0.51428
G1 X116.895 Y77.661 E0.52110
G1 X117.123 Y77.247 E0.52924
G1 X117.368 Y77.492 E0.53520
G1 F420.000 E0.03520
G92 E0
G1 X116.535 Y80.118 F6000.000
G1 F420.000 E0.50000
G1 X116.290 Y79.873 F600.000 E0.50535
G1 X116.634 Y79.639 E0.51178
G1 X116.346 Y79.351 E0.51808
G1 X116.732 Y79.160 E0.52474
G1 X116.487 Y78.915 E0.53010
G1 F420.000 E0.03010
G92 E0
G1 X104.774 Y74.359 F6000.000
G1 F420.000 E0.50000
G1 X104.529 Y74.114 F2700.000 E0.50511
G1 X104.529 Y73.563 E0.51325
G1 X105.325 Y74.359 E0.52986
G1 X105.877 Y74.359 E0.53799
G1 X104.529 Y73.012 E0.56610
G1 X104.529 Y72.461 E0.57423
G1 X106.428 Y74.359 E0.61384
G1 X106.979 Y74.359 E0.62197
G1 X104.529 Y71.909 E0.67308
G1 X104.989 Y71.818 E0.67999
G1 X107.530 Y74.359 E0.73302
G1 X108.081 Y74.359 E0.74115
G1 X105.540 Y71.818 E0.79417
G1 X106.091 Y71.818 E0.80231
G1 X108.633 Y74.359 E0.85533
G1 X109.184 Y74.359 E0.86346
G1 X106.642 Y71.818 E0.91649
G1 X107.193 Y71.818 E0.92462
G1 X109.735 Y74.359 E0.97764
G1 X110.286 Y74.359 E0.98577
G1 X107.744 Y71.818 E1.03880
G1 X108.296 Y71.818 E1.04693
G1 X110.837 Y74.359 E1.09996
G1 X111.389 Y74.359 E1.10809
G1 X108.847 Y71.818 E1.16111
G1 X109.398 Y71.818 E1.16924
G1 X111.940 Y74.359 E1.22227
G1 X112.491 Y74.359 E1.23040
G1 X109.949 Y71.818 E1.28342
G1 X110.500 Y71.818 E1.29156
G1 X113.042 Y74.359 E1.34458
G1 X113.593 Y74.359 E1.35271
G1 X111.052 Y71.818 E1.40574
G1 X111.603 Y71.818 E1.41387
G1 X114.145 Y74.359 E1.46689
G1 X114.696 Y74.359 E1.47503
G1 X112.154 Y71.818 E1.52805
G1 X112.705 Y71.818 E1.53618
G1 X115.247 Y74.359 E1.58921
G1 X115.798 Y74.359 E1.59734
G1 X113.256 Y71.818 E1.65036
G1 X113.808 Y71.818 E1.65849
G1 X116.349 Y74.359 E1.71152
G1 X116.901 Y74.359 E1.71965
G1 X114.359 Y71.818 E1.77268
G1 X114.910 Y71.818 E1.78081
G1 X117.452 Y74.359 E1.83383
G1 X118.003 Y74.359 E1.84196
G1 X115.461 Y71.818 E1.89499
G1 X116.012 Y71.818 E1.90312
G1 X118.554 Y74.359 E1.95614
G1 X119.105 Y74.359 E1.96428
G1 X116.564 Y71.818 E2.01730
G1 X117.115 Y71.818 E2.02543
G1 X119.533 Y74.236 E2.07588
G1 X119.868 Y74.020 E2.08176
G1 X117.666 Y71.818 E2.12771
G1 X118.217 Y71.818 E2.13584
G1 X120.208 Y73.808 E2.17736
G1 X120.547 Y73.597 E2.18327
G1 X118.768 Y71.818 E2.22038
G1 X119.320 Y71.818 E2.22851
G1 X120.887 Y73.385 E2.26121
G1 X121.247 Y73.194 E2.26722
G1 X119.871 Y71.818 E2.29593
G1 X120.422 Y71.818 E2.30406
G1 X121.649 Y73.045 E2.32967
G1 X122.051 Y72.896 E2.33599
G1 X120.973 Y71.818 E2.35849
G1 X121.524 Y71.818 E2.36662
G1 X122.454 Y72.747 E2.38601
G1 X122.858 Y72.601 E2.39236
G1 X122.076 Y71.818 E2.40869
G1 X122.627 Y71.818 E2.41682
G1 X123.336 Y72.527 E2.43163
G1 X123.814 Y72.454 E2.43876
G1 X123.178 Y71.818 E2.45204
G1 X123.729 Y71.818 E2.46017
G1 X124.292 Y72.381 E2.47192
G1 X124.770 Y72.308 E2.47905
G1 X124.280 Y71.818 E2.48927
G1 X124.832 Y71.818 E2.49741
G1 X125.248 Y72.234 E2.50610
G1 X125.383 Y71.818 E2.51256
G1 X125.802 Y72.237 E2.52131
G1 X125.934 Y71.818 E2.52779
G1 X126.546 Y72.429 E2.54055
G1 X126.485 Y71.818 E2.54962
G1 X127.289 Y72.622 E2.56640
G1 X128.033 Y72.814 E2.57773
G1 X127.036 Y71.818 E2.59853
G1 X127.588 Y71.818 E2.60666
G1 X129.002 Y73.232 E2.63616
G1 X129.241 Y71.818 F6000.000
G1 X131.783 Y74.359 F2700.000 E2.68919
G1 X131.232 Y74.359 E2.69732
G1 X128.690 Y71.818 E2.75034
G1 X128.139 Y71.818 E2.75848
G1 X130.270 Y73.949 E2.80294
G1 F420.000 E2.30294
G92 E0
G1 X132.334 Y74.359 F6000.000
G1 F420.000 E0.50000
G1 X129.792 Y71.818 F2700.000 E0.55302
G1 X130.343 Y71.818 E0.56116
G1 X132.885 Y74.359 E0.61418
G1 X133.436 Y74.359 E0.62231
G1 X130.895 Y71.818 E0.67534
G1 X131.446 Y71.818 E0.68347
G1 X133.988 Y74.359 E0.73649
G1 X134.539 Y74.359 E0.74462
G1 X131.997 Y71.818 E0.79765
G1 X132.548 Y71.818 E0.80578
G1 X135.090 Y74.359 E0.85881
G1 X135.641 Y74.359 E0.86694
G1 X133.099 Y71.818 E0.91996
G1 X133.651 Y71.818 E0.92809
G1 X136.192 Y74.359 E0.98112
G1 X136.744 Y74.359 E0.98925
G1 X134.202 Y71.818 E1.04228
G1 X134.753 Y71.818 E1.05041
G1 X137.295 Y74.359 E1.10343
G1 X137.846 Y74.359 E1.11156
G1 X135.304 Y71.818 E1.16459
G1 X135.855 Y71.818 E1.17272
G1 X138.397 Y74.359 E1.22575
G1 X138.948 Y74.359 E1.23388
G1 X136.407 Y71.818 E1.28690
G1 X136.958 Y71.818 E1.29504
G1 X139.500 Y74.359 E1.34806
G1 X140.051 Y74.359 E1.35619
G1 X137.509 Y71.818 E1.40922
G1 X138.060 Y71.818 E1.41735
G1 X140.602 Y74.359 E1.47037
G1 X141.153 Y74.359 E1.47850
G1 X138.611 Y71.818 E1.53153
G1 X139.163 Y71.818 E1.53966
G1 X141.704 Y74.359 E1.59268
G1 X142.255 Y74.359 E1.60081
G1 X139.714 Y71.818 E1.65384
G1 X140.265 Y71.818 E1.66197
G1 X142.807 Y74.359 E1.71500
G1 X143.358 Y74.359 E1.72313
G1 X140.816 Y71.818 E1.77615
G1 X141.367 Y71.818 E1.78428
G1 X143.909 Y74.359 E1.83731
G1 X144.460 Y74.359 E1.84544
G1 X141.919 Y71.818 E1.89846
G1 X142.470 Y71.818 E1.90659
G1 X145.011 Y74.359 E1.95962
G1 X145.471 Y74.267 E1.96653
G1 X143.021 Y71.818 E2.01764
G1 X143.572 Y71.818 E2.02577
G1 X145.471 Y73.716 E2.06538
G1 X145.471 Y73.165 E2.07351
G1 X144.123 Y71.818 E2.10162
G1 X144.675 Y71.818 E2.10975
G1 X145.471 Y72.614 E2.12637
G1 X145.471 Y72.063 E2.13450
G1 X145.226 Y71.818 E2.13961
G1 F420.000 E1.63961
G92 E0
G1 X116.774 Y93.741 F6000.000
G1 F420.000 E0.50000
G1 X116.529 Y93.496 F2700.000 E0.50512
G1 X116.529 Y92.944 E0.51327
G1 X117.326 Y93.741 E0.52992
G1 X117.878 Y93.741 E0.53808
G1 X116.529 Y92.392 E0.56626
G1 X116.529 Y91.840 E0.57441
G1 X118.430 Y93.741 E0.61412
G1 X118.771 Y93.530 E0.62005
G1 X116.529 Y91.289 E0.66688
G1 X116.529 Y90.737 E0.67503
G1 X118.771 Y92.978 E0.72186
G1 X118.771 Y92.426 E0.73001
G1 X116.529 Y90.185 E0.77684
G1 X116.529 Y89.633 E0.78499
G1 X118.771 Y91.874 E0.83182
G1 X118.771 Y91.322 E0.83998
G1 X116.529 Y89.081 E0.88681
G1 X116.529 Y88.529 E0.89496
G1 X118.771 Y90.771 E0.94179
G1 X118.771 Y90.219 E0.94994
G1 X116.529 Y87.977 E0.99677
G1 X116.529 Y87.425 E1.00492
G1 X118.771 Y89.667 E1.05175
G1 X118.771 Y89.115 E1.05991
G1 X116.529 Y86.873 E1.10674
G1 X116.529 Y86.321 E1.11489
G1 X118.771 Y88.563 E1.16172
G1 X118.771 Y88.011 E1.16987
G1 X116.529 Y85.769 E1.21670
G1 X116.529 Y85.217 E1.22486
G1 X117.234 Y85.922 E1.23958
G1 X116.774 Y84.910 E1.25600
G1 X116.529 Y84.665 E1.26112
G1 F420.000 E0.76112
G92 E0
G1 X133.066 Y114.150 F6000.000
G1 F420.000 E0.50000
G1 X133.066 Y125.749 F1500.000 E0.66895
G1 X130.300 Y125.749 E0.70924
G1 X130.300 Y119.388 E0.80188
G1 X131.483 Y118.010 E0.82834
G1 X132.339 Y116.469 E0.85402
G1 X133.049 Y114.205 E0.88858
G1 X133.066 Y114.150 E0.88942
G1 F420.000 E0.38942
G92 E0
G1 X118.366 Y119.319 F6000.000
G1 F420.000 E0.50000
G1 X118.366 Y125.749 F1500.000 E0.59365
G1 X115.600 Y125.749 E0.63394
G1 X115.600 Y113.592 E0.81101
G1 X116.021 Y115.641 E0.84148
G1 X116.716 Y117.261 E0.86716
G1 X117.723 Y118.708 E0.89283
G1 X118.325 Y119.279 E0.90492
G1 X118.366 Y119.319 E0.90576
G1 F420.000 E0.40576
G92 E0
G1 X145.066 Y103.300 F6000.000
G1 F420.000 E0.50000
G1 X145.066 Y106.366 F2100.000 E0.54466
G1 X130.507 Y106.366 E0.75674
G1 X131.014 Y107.245 E0.77151
G1 X128.941 Y105.640 E0.80968
G1 X127.359 Y104.864 E0.83536
G1 X125.653 Y104.422 E0.86103
G1 X123.892 Y104.333 E0.88671
G1 X122.150 Y104.600 E0.91238
G1 X120.497 Y105.212 E0.93806
G1 X119.001 Y106.144 E0.96373
G1 X117.420 Y107.647 E0.99549
G1 X118.160 Y106.366 E1.01703
G1 X103.600 Y106.366 E1.22910
G1 X103.600 Y103.300 E1.27376
G1 X145.009 Y103.300 E1.87692
G1 X145.066 Y103.300 E1.87776
G1 X145.451 Y102.915 F6000.000
G1 X145.451 Y106.751 F2100.000 E1.93364
G1 X131.174 Y106.751 E2.14160
G1 X132.660 Y109.326 E2.18491
G1 X133.249 Y111.138 E2.21267
G1 X133.451 Y113.064 E2.24087
G1 X133.451 Y126.133 E2.43124
G1 X129.915 Y126.133 E2.48274
G1 X129.915 Y119.186 E2.58394
G1 X130.069 Y119.067 E2.58677
