; generated by Slic3r 0.9.9 on 2014-02-26 at 23:37:34

; layer_height = 0.25
; perimeters = 3
; top_solid_layers = 4
; bottom_solid_layers = 4
; fill_density = 0.15
; perimeter_speed = 70
; infill_speed = 90
; travel_speed = 100
; nozzle_diameter = 0.35
; filament_diameter = 3.0
; extrusion_multiplier = 1
; perimeters extrusion width = 0.39mm
; infill extrusion width = 0.39mm
; solid infill extrusion width = 0.39mm
; top infill extrusion width = 0.39mm

G21 ; set units to millimeters
G28 ; home all axes
G90 ; use absolute coordinates
G92 E0 ; reset extrusion distance
M82 ; use absolute distances for extrusion
G1 F420.000 E-0.50000 ; retract
G92 E0 ; reset extrusion distance
G1 Z0.250 F6000.000 ; move to next layer (0)
G1 X83.213 Y90.300 ; move to first skirt point
G1 F420.000 E0.50000 ; compensate retraction
G1 X83.613 Y89.960 F2100.000 E0.50715 ; skirt
G1 X84.043 Y89.650 E0.51436 ; skirt
G1 X84.493 Y89.380 E0.52150 ; skirt
G1 X85.213 Y89.050 E0.53228 ; skirt
G1 X85.713 Y88.880 E0.53947 ; skirt
G1 X86.223 Y88.750 E0.54664 ; skirt
G1 X86.743 Y88.660 E0.55382 ; skirt
G1 X87.273 Y88.620 E0.56105 ; skirt
G1 X112.723 Y88.620 E0.90746 ; skirt
G1 X113.253 Y88.660 E0.91469 ; skirt
G1 X114.033 Y88.810 E0.92550 ; skirt
G1 X114.783 Y89.050 E0.93622 ; skirt
G1 X115.503 Y89.380 E0.94700 ; skirt
G1 X116.173 Y89.800 E0.95776 ; skirt
G1 X116.593 Y90.130 E0.96503 ; skirt
G1 X117.163 Y90.680 E0.97581 ; skirt
G1 X117.663 Y91.290 E0.98655 ; skirt
G1 X118.083 Y91.960 E0.99731 ; skirt
G1 X118.413 Y92.680 E1.00809 ; skirt
G1 X118.653 Y93.430 E1.01881 ; skirt
G1 X118.803 Y94.210 E1.02962 ; skirt
G1 X118.843 Y94.740 E1.03686 ; skirt
G1 X118.843 Y105.260 E1.18005 ; skirt
G1 X118.803 Y105.790 E1.18728 ; skirt
G1 X118.653 Y106.570 E1.19809 ; skirt
G1 X118.413 Y107.320 E1.20881 ; skirt
G1 X118.083 Y108.040 E1.21959 ; skirt
G1 X117.663 Y108.710 E1.23035 ; skirt
G1 X117.163 Y109.320 E1.24109 ; skirt
G1 X116.593 Y109.870 E1.25187 ; skirt
G1 X115.953 Y110.350 E1.26276 ; skirt
G1 X115.503 Y110.620 E1.26990 ; skirt
G1 X115.263 Y110.740 E1.27355 ; skirt
G1 X114.533 Y111.040 E1.28430 ; skirt
G1 X113.773 Y111.250 E1.29503 ; skirt
G1 X113.253 Y111.340 E1.30221 ; skirt
G1 X112.993 Y111.360 E1.30576 ; skirt
G1 X112.723 Y111.380 E1.30945 ; skirt
G1 X87.273 Y111.380 E1.65585 ; skirt
G1 X86.743 Y111.340 E1.66308 ; skirt
G1 X85.963 Y111.190 E1.67389 ; skirt
G1 X85.213 Y110.950 E1.68461 ; skirt
G1 X84.493 Y110.620 E1.69539 ; skirt
G1 X83.823 Y110.200 E1.70616 ; skirt
G1 X83.213 Y109.700 E1.71689 ; skirt
G1 X82.663 Y109.130 E1.72767 ; skirt
G1 X82.183 Y108.490 E1.73856 ; skirt
G1 X81.913 Y108.040 E1.74570 ; skirt
G1 X81.793 Y107.800 E1.74936 ; skirt
G1 X81.583 Y107.320 E1.75649 ; skirt
G1 X81.413 Y106.820 E1.76368 ; skirt
G1 X81.233 Y106.050 E1.77444 ; skirt
G1 X81.193 Y105.790 E1.77802 ; skirt
G1 X81.153 Y105.260 E1.78525 ; skirt
G1 X81.153 Y94.740 E1.92844 ; skirt
G1 X81.193 Y94.210 E1.93568 ; skirt
G1 X81.283 Y93.690 E1.94286 ; skirt
G1 X81.413 Y93.180 E1.95002 ; skirt
G1 X81.583 Y92.680 E1.95721 ; skirt
G1 X81.913 Y91.960 E1.96799 ; skirt
G1 X82.183 Y91.510 E1.97514 ; skirt
G1 X82.493 Y91.080 E1.98235 ; skirt
G1 X82.833 Y90.680 E1.98950 ; skirt
G1 X83.173 Y90.341 E1.99603 ; skirt
G1 F420.000 E1.49603 ; retract
G92 E0 ; reset extrusion distance
G1 X90.744 Y97.675 F6000.000 ; move to first perimeter point
G1 F420.000 E0.50000 ; compensate retraction
G1 X91.545 Y97.267 F1500.000 E0.51224 ; perimeter
G1 X92.433 Y97.126 E0.52448 ; perimeter
G1 X93.134 Y97.237 E0.53414 ; perimeter
G1 X93.321 Y97.267 E0.53672 ; perimeter
G1 X94.123 Y97.675 E0.54896 ; perimeter
G1 X94.759 Y98.311 E0.56120 ; perimeter
G1 X95.167 Y99.112 E0.57344 ; perimeter
G1 X95.307 Y100.000 E0.58568 ; perimeter
G1 X95.167 Y100.888 E0.59791 ; perimeter
G1 X95.081 Y101.057 E0.60049 ; perimeter
G1 X94.759 Y101.689 E0.61015 ; perimeter
G1 X94.123 Y102.325 E0.62239 ; perimeter
G1 X93.321 Y102.733 E0.63463 ; perimeter
G1 X92.433 Y102.874 E0.64687 ; perimeter
G1 X92.246 Y102.844 E0.64945 ; perimeter
G1 X91.545 Y102.733 E0.65911 ; perimeter
G1 X90.744 Y102.325 E0.67135 ; perimeter
G1 X90.108 Y101.689 E0.68359 ; perimeter
G1 X89.700 Y100.888 E0.69583 ; perimeter
G1 X89.559 Y100.000 E0.70807 ; perimeter
G1 X89.700 Y99.112 E0.72031 ; perimeter
G1 X90.108 Y98.311 E0.73255 ; perimeter
G1 X90.703 Y97.716 E0.74400 ; perimeter
G1 X90.973 Y97.990 F6000.000 ; move to first perimeter point
G1 X91.666 Y97.637 F1500.000 E0.75458 ; perimeter
G1 X92.433 Y97.516 E0.76516 ; perimeter
G1 X93.074 Y97.617 E0.77399 ; perimeter
G1 X93.201 Y97.637 E0.77574 ; perimeter
G1 X93.894 Y97.990 E0.78632 ; perimeter
G1 X94.443 Y98.540 E0.79690 ; perimeter
G1 X94.796 Y99.232 E0.80748 ; perimeter
G1 X94.918 Y100.000 E0.81806 ; perimeter
G1 X94.796 Y100.768 E0.82864 ; perimeter
G1 X94.443 Y101.460 E0.83922 ; perimeter
G1 X93.894 Y102.010 E0.84980 ; perimeter
G1 X93.201 Y102.363 E0.86038 ; perimeter
G1 X92.433 Y102.484 E0.87096 ; perimeter
G1 X92.306 Y102.464 E0.87271 ; perimeter
G1 X91.666 Y102.363 E0.88154 ; perimeter
G1 X90.973 Y102.010 E0.89212 ; perimeter
G1 X90.423 Y101.460 E0.90270 ; perimeter
G1 X90.070 Y100.768 E0.91328 ; perimeter
G1 X89.949 Y100.000 E0.92386 ; perimeter
G1 X90.070 Y99.232 E0.93444 ; perimeter
G1 X90.423 Y98.540 E0.94502 ; perimeter
G1 X90.932 Y98.031 E0.95482 ; perimeter
G1 X91.202 Y98.305 F6000.000 ; move to first perimeter point
G1 X91.786 Y98.008 F1500.000 E0.96374 ; perimeter
G1 X92.433 Y97.905 E0.97266 ; perimeter
G1 X93.014 Y97.997 E0.98066 ; perimeter
G1 X93.081 Y98.008 E0.98158 ; perimeter
G1 X93.665 Y98.305 E0.99050 ; perimeter
G1 X94.128 Y98.769 E0.99942 ; perimeter
G1 X94.426 Y99.353 E1.00834 ; perimeter
G1 X94.528 Y100.000 E1.01726 ; perimeter
G1 X94.426 Y100.647 E1.02618 ; perimeter
G1 X94.128 Y101.231 E1.03510 ; perimeter
G1 X93.665 Y101.695 E1.04402 ; perimeter
G1 X93.081 Y101.992 E1.05295 ; perimeter
G1 X93.014 Y102.003 E1.05387 ; perimeter
G1 X92.433 Y102.095 E1.06187 ; perimeter
G1 X91.786 Y101.992 E1.07079 ; perimeter
G1 X91.202 Y101.695 E1.07971 ; perimeter
G1 X90.739 Y101.231 E1.08863 ; perimeter
G1 X90.441 Y100.647 E1.09755 ; perimeter
G1 X90.339 Y100.000 E1.10647 ; perimeter
G1 X90.441 Y99.353 E1.11539 ; perimeter
G1 X90.739 Y98.769 E1.12431 ; perimeter
G1 X91.161 Y98.346 E1.13245 ; perimeter
G1 X91.182 Y97.921 F6000.000 ; move inwards before travel
G1 F420.000 E0.63245 ; retract
G92 E0 ; reset extrusion distance
G1 X88.495 Y95.962 F6000.000 ; move to first perimeter point
G1 F420.000 E0.50000 ; compensate retraction
G1 X96.371 Y95.962 F1500.000 E0.60720 ; perimeter
G1 X96.371 Y104.038 E0.71712 ; perimeter
G1 X88.495 Y104.038 E0.82432 ; perimeter
G1 X88.495 Y96.020 E0.93345 ; perimeter
G1 X88.111 Y95.577 F6000.000 ; move to first perimeter point
G1 X96.756 Y95.577 F1500.000 E1.05113 ; perimeter
G1 X96.756 Y104.423 E1.17152 ; perimeter
G1 X88.111 Y104.423 E1.28920 ; perimeter
G1 X88.111 Y95.635 E1.40881 ; perimeter
G1 X87.726 Y95.192 F6000.000 ; move to first perimeter point
G1 X97.141 Y95.192 F1500.000 E1.53696 ; perimeter
G1 X97.141 Y104.808 E1.66783 ; perimeter
G1 X87.726 Y104.808 E1.79598 ; perimeter
G1 X87.726 Y95.250 E1.92607 ; perimeter
G1 X88.059 Y95.385 F6000.000 ; move inwards before travel
G1 F420.000 E1.42607 ; retract
G92 E0 ; reset extrusion distance
G1 X93.894 Y96.241 F6000.000 ; move to first fill point
G1 F420.000 E0.50000 ; compensate retraction
G1 X96.092 Y98.439 F2700.000 E0.54272 ; fill
G1 X96.092 Y97.890 E0.55027 ; fill
G1 X94.444 Y96.241 E0.58230 ; fill
G1 X94.993 Y96.241 E0.58985 ; fill
G1 X96.092 Y97.340 E0.61121 ; fill
G1 X96.092 Y96.791 E0.61876 ; fill
G1 X95.543 Y96.241 E0.62945 ; fill
G1 X96.092 Y96.241 E0.63700 ; fill
G1 F420.000 E0.13700 ; retract
G92 E0 ; reset extrusion distance
G1 X89.581 Y101.268 F6000.000 ; move to first fill point
G1 F420.000 E0.50000 ; compensate retraction
G1 X88.774 Y100.462 F2700.000 E0.51567 ; fill
G1 X89.355 Y100.493 E0.52366 ; fill
G1 X88.774 Y99.913 E0.53494 ; fill
G1 X88.774 Y99.363 E0.54249 ; fill
G1 X89.295 Y99.884 E0.55261 ; fill
G1 X89.370 Y99.410 E0.55921 ; fill
G1 X88.774 Y98.814 E0.57080 ; fill
G1 X88.774 Y98.264 E0.57835 ; fill
G1 X89.466 Y98.956 E0.59179 ; fill
G1 X89.652 Y98.592 E0.59741 ; fill
G1 X88.774 Y97.715 E0.61446 ; fill
G1 X88.774 Y97.165 E0.62201 ; fill
G1 X89.837 Y98.228 E0.64266 ; fill
G1 X90.091 Y97.933 E0.64802 ; fill
G1 X88.774 Y96.616 E0.67361 ; fill
G1 X88.949 Y96.241 E0.67929 ; fill
G1 X90.366 Y97.658 E0.70683 ; fill
G1 X90.661 Y97.404 E0.71219 ; fill
G1 X89.499 Y96.241 E0.73479 ; fill
G1 X90.048 Y96.241 E0.74234 ; fill
G1 X91.025 Y97.218 E0.76133 ; fill
G1 X91.389 Y97.033 E0.76694 ; fill
G1 X90.597 Y96.241 E0.78233 ; fill
G1 X91.147 Y96.241 E0.78989 ; fill
G1 X91.843 Y96.937 E0.80341 ; fill
G1 X92.317 Y96.862 E0.81001 ; fill
G1 X91.696 Y96.241 E0.82208 ; fill
G1 X92.246 Y96.241 E0.82963 ; fill
G1 X92.926 Y96.922 E0.84285 ; fill
G1 X93.702 Y97.147 E0.85395 ; fill
G1 X92.795 Y96.241 E0.87156 ; fill
G1 X93.345 Y96.241 E0.87911 ; fill
G1 X96.092 Y98.989 E0.93250 ; fill
G1 X95.286 Y98.732 E0.94413 ; fill
G1 X96.092 Y99.538 E0.95979 ; fill
G1 X95.512 Y99.507 E0.96778 ; fill
G1 X96.092 Y100.087 E0.97907 ; fill
G1 X96.092 Y100.637 E0.98662 ; fill
G1 X95.571 Y100.116 E0.99674 ; fill
G1 X95.496 Y100.590 E1.00334 ; fill
G1 X96.092 Y101.186 E1.01492 ; fill
G1 X96.092 Y101.736 E1.02247 ; fill
G1 X95.400 Y101.044 E1.03592 ; fill
G1 X95.215 Y101.408 E1.04153 ; fill
G1 X96.092 Y102.285 E1.05858 ; fill
G1 X96.092 Y102.835 E1.06614 ; fill
G1 X95.029 Y101.772 E1.08679 ; fill
G1 X94.775 Y102.067 E1.09214 ; fill
G1 X96.092 Y103.384 E1.11774 ; fill
G1 X95.918 Y103.759 E1.12342 ; fill
G1 X94.500 Y102.342 E1.15096 ; fill
G1 X94.205 Y102.596 E1.15632 ; fill
G1 X95.368 Y103.759 E1.17891 ; fill
G1 X94.819 Y103.759 E1.18646 ; fill
G1 X93.841 Y102.782 E1.20546 ; fill
G1 X93.477 Y102.967 E1.21107 ; fill
G1 X94.269 Y103.759 E1.22646 ; fill
G1 X93.720 Y103.759 E1.23401 ; fill
G1 X93.024 Y103.063 E1.24754 ; fill
G1 X92.549 Y103.138 E1.25414 ; fill
G1 X93.170 Y103.759 E1.26620 ; fill
G1 X92.621 Y103.759 E1.27376 ; fill
G1 X91.940 Y103.078 E1.28698 ; fill
G1 X91.165 Y102.853 E1.29807 ; fill
G1 X92.071 Y103.759 E1.31568 ; fill
G1 X91.522 Y103.759 E1.32323 ; fill
G1 X88.774 Y101.011 E1.37663 ; fill
G1 X88.774 Y101.561 E1.38418 ; fill
G1 X90.972 Y103.759 E1.42689 ; fill
G1 X90.423 Y103.759 E1.43445 ; fill
G1 X88.774 Y102.110 E1.46648 ; fill
G1 X88.774 Y102.660 E1.47403 ; fill
G1 X89.873 Y103.759 E1.49539 ; fill
G1 X89.324 Y103.759 E1.50294 ; fill
G1 X88.774 Y103.209 E1.51363 ; fill
G1 X88.775 Y103.759 E1.52118 ; fill
G1 F420.000 E1.02118 ; retract
G92 E0 ; reset extrusion distance
G1 X104.833 Y100.888 F6000.000 ; move to first perimeter point
G1 F420.000 E0.50000 ; compensate retraction
G1 X104.693 Y100.000 F1500.000 E0.51224 ; perimeter
G1 X104.833 Y99.112 E0.52448 ; perimeter
G1 X105.241 Y98.311 E0.53672 ; perimeter
G1 X105.877 Y97.675 E0.54896 ; perimeter
G1 X106.679 Y97.267 E0.56120 ; perimeter
G1 X107.567 Y97.126 E0.57344 ; perimeter
G1 X108.455 Y97.267 E0.58568 ; perimeter
G1 X109.256 Y97.675 E0.59792 ; perimeter
G1 X109.892 Y98.311 E0.61015 ; perimeter
G1 X110.300 Y99.112 E0.62239 ; perimeter
G1 X110.441 Y100.000 E0.63463 ; perimeter
G1 X110.300 Y100.888 E0.64687 ; perimeter
G1 X110.214 Y101.057 E0.64945 ; perimeter
G1 X109.892 Y101.689 E0.65911 ; perimeter
G1 X109.256 Y102.325 E0.67135 ; perimeter
G1 X108.455 Y102.733 E0.68359 ; perimeter
G1 X107.567 Y102.874 E0.69583 ; perimeter
G1 X106.679 Y102.733 E0.70807 ; perimeter
G1 X105.877 Y102.325 E0.72031 ; perimeter
G1 X105.241 Y101.689 E0.73255 ; perimeter
G1 X104.859 Y100.940 E0.74400 ; perimeter
G1 X105.204 Y100.768 F6000.000 ; move to first perimeter point
G1 X105.082 Y100.000 F1500.000 E0.75458 ; perimeter
G1 X105.204 Y99.232 E0.76516 ; perimeter
G1 X105.557 Y98.540 E0.77574 ; perimeter
G1 X106.106 Y97.990 E0.78632 ; perimeter
G1 X106.799 Y97.637 E0.79690 ; perimeter
G1 X107.567 Y97.516 E0.80748 ; perimeter
G1 X108.334 Y97.637 E0.81806 ; perimeter
G1 X109.027 Y97.990 E0.82864 ; perimeter
G1 X109.577 Y98.540 E0.83922 ; perimeter
G1 X109.930 Y99.232 E0.84980 ; perimeter
G1 X110.051 Y100.000 E0.86038 ; perimeter
G1 X109.930 Y100.768 E0.87096 ; perimeter
G1 X109.871 Y100.882 E0.87271 ; perimeter
G1 X109.577 Y101.460 E0.88154 ; perimeter
G1 X109.027 Y102.010 E0.89212 ; perimeter
G1 X108.334 Y102.363 E0.90270 ; perimeter
G1 X107.567 Y102.484 E0.91328 ; perimeter
G1 X106.799 Y102.363 E0.92386 ; perimeter
G1 X106.106 Y102.010 E0.93444 ; perimeter
G1 X105.557 Y101.460 E0.94502 ; perimeter
G1 X105.230 Y100.819 E0.95482 ; perimeter
G1 X105.574 Y100.647 F6000.000 ; move to first perimeter point
G1 X105.472 Y100.000 F1500.000 E0.96374 ; perimeter
G1 X105.574 Y99.353 E0.97266 ; perimeter
G1 X105.872 Y98.769 E0.98158 ; perimeter
G1 X106.335 Y98.305 E0.99050 ; perimeter
G1 X106.919 Y98.008 E0.99942 ; perimeter
G1 X107.567 Y97.905 E1.00834 ; perimeter
G1 X108.214 Y98.008 E1.01726 ; perimeter
G1 X108.798 Y98.305 E1.02618 ; perimeter
G1 X109.261 Y98.769 E1.03510 ; perimeter
G1 X109.559 Y99.353 E1.04402 ; perimeter
G1 X109.661 Y100.000 E1.05295 ; perimeter
G1 X109.559 Y100.647 E1.06187 ; perimeter
G1 X109.528 Y100.708 E1.06279 ; perimeter
G1 X109.261 Y101.231 E1.07079 ; perimeter
G1 X108.798 Y101.695 E1.07971 ; perimeter
G1 X108.214 Y101.992 E1.08863 ; perimeter
G1 X107.567 Y102.095 E1.09755 ; perimeter
G1 X106.919 Y101.992 E1.10647 ; perimeter
G1 X106.335 Y101.695 E1.11539 ; perimeter
G1 X105.872 Y101.231 E1.12431 ; perimeter
G1 X105.601 Y100.699 E1.13245 ; perimeter
G1 X105.203 Y100.548 F6000.000 ; move inwards before travel
G1 F420.000 E0.63245 ; retract
G92 E0 ; reset extrusion distance
G1 X111.505 Y95.962 F6000.000 ; move to first perimeter point
G1 F420.000 E0.50000 ; compensate retraction
G1 X111.505 Y104.038 F1500.000 E0.60992 ; perimeter
G1 X103.629 Y104.038 E0.71712 ; perimeter
G1 X103.629 Y95.962 E0.82704 ; perimeter
G1 X111.447 Y95.962 E0.93345 ; perimeter
G1 X111.889 Y95.577 F6000.000 ; move to first perimeter point
G1 X111.889 Y104.423 F1500.000 E1.05385 ; perimeter
G1 X103.244 Y104.423 E1.17152 ; perimeter
G1 X103.244 Y95.577 E1.29192 ; perimeter
G1 X111.832 Y95.577 E1.40881 ; perimeter
G1 X112.274 Y95.192 F6000.000 ; move to first perimeter point
G1 X112.274 Y104.808 F1500.000 E1.53968 ; perimeter
G1 X102.859 Y104.808 E1.66783 ; perimeter
G1 X102.859 Y95.192 E1.79870 ; perimeter
G1 X112.217 Y95.192 E1.92607 ; perimeter
G1 X112.082 Y95.526 F6000.000 ; move inwards before travel
G1 X111.226 Y96.241 ; move to first fill point
G1 X110.676 Y96.241 F2700.000 E1.93362 ; fill
G1 X111.226 Y96.791 E1.94430 ; fill
G1 X111.226 Y97.340 E1.95185 ; fill
G1 X110.127 Y96.241 E1.97321 ; fill
G1 X109.577 Y96.241 E1.98076 ; fill
G1 X111.226 Y97.890 E2.01280 ; fill
G1 X111.226 Y98.439 E2.02035 ; fill
G1 X109.028 Y96.241 E2.06307 ; fill
G1 F420.000 E1.56307 ; retract
G92 E0 ; reset extrusion distance
G1 X104.714 Y101.268 F6000.000 ; move to first fill point
G1 F420.000 E0.50000 ; compensate retraction
G1 X103.908 Y100.462 F2700.000 E0.51567 ; fill
G1 X104.488 Y100.493 E0.52366 ; fill
G1 X103.908 Y99.913 E0.53494 ; fill
G1 X103.908 Y99.363 E0.54249 ; fill
G1 X104.429 Y99.884 E0.55261 ; fill
G1 X104.504 Y99.410 E0.55921 ; fill
G1 X103.908 Y98.814 E0.57080 ; fill
G1 X103.908 Y98.264 E0.57835 ; fill
G1 X104.600 Y98.956 E0.59179 ; fill
G1 X104.785 Y98.592 E0.59741 ; fill
G1 X103.908 Y97.715 E0.61446 ; fill
G1 X103.908 Y97.165 E0.62201 ; fill
G1 X104.971 Y98.228 E0.64266 ; fill
G1 X105.225 Y97.933 E0.64802 ; fill
G1 X103.908 Y96.616 E0.67361 ; fill
G1 X104.082 Y96.241 E0.67929 ; fill
G1 X105.500 Y97.658 E0.70683 ; fill
G1 X105.795 Y97.404 E0.71219 ; fill
G1 X104.632 Y96.241 E0.73479 ; fill
G1 X105.181 Y96.241 E0.74234 ; fill
G1 X106.159 Y97.218 E0.76133 ; fill
G1 X106.523 Y97.033 E0.76694 ; fill
G1 X105.731 Y96.241 E0.78233 ; fill
G1 X106.280 Y96.241 E0.78989 ; fill
G1 X106.976 Y96.937 E0.80341 ; fill
G1 X107.451 Y96.862 E0.81001 ; fill
G1 X106.830 Y96.241 E0.82208 ; fill
G1 X107.379 Y96.241 E0.82963 ; fill
G1 X108.060 Y96.922 E0.84285 ; fill
G1 X108.835 Y97.147 E0.85395 ; fill
