; generated by Slic3r 0.9.9 on 2014-02-26 at 23:28:30

; layer_height = 0.25
; perimeters = 3
; top_solid_layers = 4
; bottom_solid_layers = 4
; fill_density = 0.15
; perimeter_speed = 70
; infill_speed = 90
; travel_speed = 100
; nozzle_diameter = 0.35
; filament_diameter = 3.0
; extrusion_multiplier = 1
; perimeters extrusion width = 0.39mm
; infill extrusion width = 0.39mm
; solid infill extrusion width = 0.39mm
; top infill extrusion width = 0.39mm

G21 ; set units to millimeters
G28 ; home all axes
G90 ; use absolute coordinates
G92 E0 ; reset extrusion distance
M82 ; use absolute distances for extrusion
G1 F420.000 E-0.50000 ; retract
G92 E0 ; reset extrusion distance
G1 Z0.250 F6000.000 ; move to next layer (0)
G1 X90.400 Y88.180 ; move to first skirt point
G1 F420.000 E0.50000 ; compensate retraction
G1 X90.780 Y87.800 F2100.000 E0.50731 ; skirt
G1 X91.180 Y87.460 E0.51446 ; skirt
G1 X91.610 Y87.150 E0.52168 ; skirt
G1 X92.060 Y86.880 E0.52882 ; skirt
G1 X92.780 Y86.550 E0.53960 ; skirt
G1 X93.280 Y86.380 E0.54679 ; skirt
G1 X93.790 Y86.250 E0.55395 ; skirt
G1 X94.310 Y86.160 E0.56113 ; skirt
G1 X94.840 Y86.120 E0.56837 ; skirt
G1 X105.160 Y86.120 E0.70883 ; skirt
G1 X105.690 Y86.160 E0.71607 ; skirt
G1 X106.470 Y86.310 E0.72688 ; skirt
G1 X107.220 Y86.550 E0.73760 ; skirt
G1 X107.940 Y86.880 E0.74838 ; skirt
G1 X108.610 Y87.300 E0.75914 ; skirt
G1 X109.030 Y87.630 E0.76641 ; skirt
G1 X109.600 Y88.180 E0.77719 ; skirt
G1 X110.100 Y88.790 E0.78793 ; skirt
G1 X110.520 Y89.460 E0.79869 ; skirt
G1 X110.750 Y89.940 E0.80594 ; skirt
G1 X110.940 Y90.430 E0.81309 ; skirt
G1 X111.090 Y90.930 E0.82019 ; skirt
G1 X111.200 Y91.450 E0.82743 ; skirt
G1 X111.240 Y91.710 E0.83101 ; skirt
G1 X111.280 Y92.240 E0.83824 ; skirt
G1 X111.280 Y107.760 E1.04949 ; skirt
G1 X111.240 Y108.290 E1.05672 ; skirt
G1 X111.090 Y109.070 E1.06753 ; skirt
G1 X110.850 Y109.820 E1.07825 ; skirt
G1 X110.520 Y110.540 E1.08903 ; skirt
G1 X110.100 Y111.210 E1.09980 ; skirt
G1 X109.770 Y111.630 E1.10707 ; skirt
G1 X109.220 Y112.200 E1.11785 ; skirt
G1 X108.610 Y112.700 E1.12858 ; skirt
G1 X107.940 Y113.120 E1.13935 ; skirt
G1 X107.220 Y113.450 E1.15013 ; skirt
G1 X106.470 Y113.690 E1.16084 ; skirt
G1 X105.690 Y113.840 E1.17166 ; skirt
G1 X105.160 Y113.880 E1.17889 ; skirt
G1 X94.840 Y113.880 E1.31936 ; skirt
G1 X94.310 Y113.840 E1.32659 ; skirt
G1 X93.790 Y113.750 E1.33377 ; skirt
G1 X93.280 Y113.620 E1.34094 ; skirt
G1 X92.780 Y113.450 E1.34813 ; skirt
G1 X92.060 Y113.120 E1.35891 ; skirt
G1 X91.390 Y112.700 E1.36967 ; skirt
G1 X90.970 Y112.370 E1.37694 ; skirt
G1 X90.400 Y111.820 E1.38772 ; skirt
G1 X89.900 Y111.210 E1.39846 ; skirt
G1 X89.480 Y110.540 E1.40922 ; skirt
G1 X89.250 Y110.060 E1.41646 ; skirt
G1 X89.060 Y109.570 E1.42362 ; skirt
G1 X88.910 Y109.070 E1.43072 ; skirt
G1 X88.800 Y108.550 E1.43796 ; skirt
G1 X88.760 Y108.290 E1.44154 ; skirt
G1 X88.720 Y107.760 E1.44877 ; skirt
G1 X88.720 Y92.240 E1.66002 ; skirt
G1 X88.760 Y91.710 E1.66725 ; skirt
G1 X88.850 Y91.190 E1.67443 ; skirt
G1 X88.980 Y90.680 E1.68160 ; skirt
G1 X89.150 Y90.180 E1.68879 ; skirt
G1 X89.480 Y89.460 E1.69957 ; skirt
G1 X89.750 Y89.010 E1.70671 ; skirt
G1 X90.060 Y88.580 E1.71392 ; skirt
G1 X90.362 Y88.223 E1.72028 ; skirt
G1 F420.000 E1.22028 ; retract
G92 E0 ; reset extrusion distance
G1 X98.311 Y97.675 F6000.000 ; move to first perimeter point
G1 F420.000 E0.50000 ; compensate retraction
G1 X99.112 Y97.267 F1500.000 E0.51224 ; perimeter
G1 X100.000 Y97.126 E0.52448 ; perimeter
G1 X100.701 Y97.237 E0.53414 ; perimeter
G1 X100.888 Y97.267 E0.53672 ; perimeter
G1 X101.689 Y97.675 E0.54896 ; perimeter
G1 X102.325 Y98.311 E0.56120 ; perimeter
G1 X102.733 Y99.112 E0.57344 ; perimeter
G1 X102.874 Y100.000 E0.58568 ; perimeter
G1 X102.733 Y100.888 E0.59791 ; perimeter
G1 X102.325 Y101.689 E0.61015 ; perimeter
G1 X101.689 Y102.325 E0.62239 ; perimeter
G1 X100.888 Y102.733 E0.63463 ; perimeter
G1 X100.701 Y102.763 E0.63721 ; perimeter
G1 X100.000 Y102.874 E0.64687 ; perimeter
G1 X99.112 Y102.733 E0.65911 ; perimeter
G1 X98.311 Y102.325 E0.67135 ; perimeter
G1 X97.675 Y101.689 E0.68359 ; perimeter
G1 X97.267 Y100.888 E0.69583 ; perimeter
G1 X97.126 Y100.000 E0.70807 ; perimeter
G1 X97.267 Y99.112 E0.72031 ; perimeter
G1 X97.675 Y98.311 E0.73255 ; perimeter
G1 X98.270 Y97.716 E0.74400 ; perimeter
G1 X98.540 Y97.990 F6000.000 ; move to first perimeter point
G1 X99.232 Y97.637 F1500.000 E0.75458 ; perimeter
G1 X100.000 Y97.516 E0.76516 ; perimeter
G1 X100.641 Y97.617 E0.77399 ; perimeter
G1 X100.768 Y97.637 E0.77574 ; perimeter
G1 X101.460 Y97.990 E0.78632 ; perimeter
G1 X102.010 Y98.540 E0.79690 ; perimeter
G1 X102.363 Y99.232 E0.80748 ; perimeter
G1 X102.484 Y100.000 E0.81806 ; perimeter
G1 X102.363 Y100.768 E0.82864 ; perimeter
G1 X102.010 Y101.460 E0.83922 ; perimeter
G1 X101.460 Y102.010 E0.84980 ; perimeter
G1 X100.768 Y102.363 E0.86038 ; perimeter
G1 X100.641 Y102.383 E0.86213 ; perimeter
G1 X100.000 Y102.484 E0.87096 ; perimeter
G1 X99.232 Y102.363 E0.88154 ; perimeter
G1 X98.540 Y102.010 E0.89212 ; perimeter
G1 X97.990 Y101.460 E0.90270 ; perimeter
G1 X97.637 Y100.768 E0.91328 ; perimeter
G1 X97.516 Y100.000 E0.92386 ; perimeter
G1 X97.637 Y99.232 E0.93444 ; perimeter
G1 X97.990 Y98.540 E0.94502 ; perimeter
G1 X98.499 Y98.031 E0.95482 ; perimeter
G1 X98.769 Y98.305 F6000.000 ; move to first perimeter point
G1 X99.353 Y98.008 F1500.000 E0.96374 ; perimeter
G1 X100.000 Y97.905 E0.97266 ; perimeter
G1 X100.581 Y97.997 E0.98066 ; perimeter
G1 X100.647 Y98.008 E0.98158 ; perimeter
G1 X101.231 Y98.305 E0.99050 ; perimeter
G1 X101.695 Y98.769 E0.99942 ; perimeter
G1 X101.992 Y99.353 E1.00834 ; perimeter
G1 X102.095 Y100.000 E1.01726 ; perimeter
G1 X101.992 Y100.647 E1.02618 ; perimeter
G1 X101.695 Y101.231 E1.03510 ; perimeter
G1 X101.231 Y101.695 E1.04402 ; perimeter
G1 X100.647 Y101.992 E1.05295 ; perimeter
G1 X100.581 Y102.003 E1.05387 ; perimeter
G1 X100.000 Y102.095 E1.06187 ; perimeter
G1 X99.353 Y101.992 E1.07079 ; perimeter
G1 X98.769 Y101.695 E1.07971 ; perimeter
G1 X98.305 Y101.231 E1.08863 ; perimeter
G1 X98.008 Y100.647 E1.09755 ; perimeter
G1 X97.905 Y100.000 E1.10647 ; perimeter
G1 X98.008 Y99.353 E1.11539 ; perimeter
G1 X98.305 Y98.769 E1.12431 ; perimeter
G1 X98.728 Y98.346 E1.13245 ; perimeter
G1 X98.749 Y97.921 F6000.000 ; move inwards before travel
G1 F420.000 E0.63245 ; retract
G92 E0 ; reset extrusion distance
G1 X96.062 Y93.462 F6000.000 ; move to first perimeter point
G1 F420.000 E0.50000 ; compensate retraction
G1 X103.938 Y93.462 F2100.000 E0.60720 ; perimeter
G1 X103.938 Y106.538 E0.78517 ; perimeter
G1 X96.062 Y106.538 E0.89237 ; perimeter
G1 X96.062 Y93.520 E1.06956 ; perimeter
G1 X95.677 Y93.077 F6000.000 ; move to first perimeter point
G1 X104.323 Y93.077 F2100.000 E1.18724 ; perimeter
G1 X104.323 Y106.923 E1.37569 ; perimeter
G1 X95.677 Y106.923 E1.49336 ; perimeter
G1 X95.677 Y93.135 E1.68103 ; perimeter
G1 X95.292 Y92.692 F6000.000 ; move to first perimeter point
G1 X104.708 Y92.692 F1050.000 E1.80918 ; perimeter
G1 X104.708 Y107.308 E2.00811 ; perimeter
G1 X95.292 Y107.308 E2.13626 ; perimeter
G1 X95.292 Y92.750 E2.33440 ; perimeter
G1 X95.626 Y92.885 F6000.000 ; move inwards before travel
G1 F420.000 E1.83440 ; retract
G92 E0 ; reset extrusion distance
G1 X103.659 Y93.741 F6000.000 ; move to first fill point
G1 F420.000 E0.50000 ; compensate retraction
G1 X103.659 Y94.292 F2700.000 E0.50760 ; fill
G1 X103.108 Y93.741 E0.51834 ; fill
G1 X102.557 Y93.741 E0.52593 ; fill
G1 X103.659 Y94.843 E0.54741 ; fill
G1 X103.659 Y95.394 E0.55500 ; fill
G1 X102.006 Y93.741 E0.58721 ; fill
G1 X101.455 Y93.741 E0.59481 ; fill
G1 X103.659 Y95.945 E0.63776 ; fill
G1 X103.659 Y96.496 E0.64535 ; fill
G1 X100.904 Y93.741 E0.69904 ; fill
G1 X100.353 Y93.741 E0.70663 ; fill
G1 X103.659 Y97.047 E0.77106 ; fill
G1 X103.659 Y97.598 E0.77865 ; fill
G1 X99.802 Y93.741 E0.85382 ; fill
G1 X99.251 Y93.741 E0.86141 ; fill
G1 X103.659 Y98.149 E0.94731 ; fill
G1 X103.659 Y98.700 E0.95490 ; fill
G1 X98.700 Y93.741 E1.05154 ; fill
G1 X98.149 Y93.741 E1.05914 ; fill
G1 X101.853 Y97.445 E1.13132 ; fill
G1 X100.832 Y96.975 E1.14681 ; fill
G1 X97.598 Y93.741 E1.20984 ; fill
G1 X97.047 Y93.741 E1.21743 ; fill
G1 X100.178 Y96.872 E1.27844 ; fill
G1 X99.653 Y96.898 E1.28567 ; fill
G1 X96.496 Y93.741 E1.34720 ; fill
G1 X96.341 Y94.137 E1.35306 ; fill
G1 X99.178 Y96.974 E1.40834 ; fill
G1 X98.777 Y97.124 E1.41424 ; fill
G1 X96.341 Y94.688 E1.46171 ; fill
G1 X96.341 Y95.239 E1.46930 ; fill
G1 X98.412 Y97.310 E1.50966 ; fill
G1 X98.071 Y97.520 E1.51518 ; fill
G1 X96.341 Y95.790 E1.54889 ; fill
G1 X96.341 Y96.341 E1.55648 ; fill
G1 X97.796 Y97.796 E1.58483 ; fill
G1 X97.520 Y98.071 E1.59020 ; fill
G1 X96.341 Y96.892 E1.61317 ; fill
G1 X96.341 Y97.443 E1.62076 ; fill
G1 X97.310 Y98.412 E1.63965 ; fill
G1 X97.124 Y98.777 E1.64529 ; fill
G1 X96.341 Y97.994 E1.66056 ; fill
G1 X96.341 Y98.545 E1.66815 ; fill
G1 X96.974 Y99.178 E1.68048 ; fill
G1 X96.898 Y99.653 E1.68711 ; fill
G1 X96.341 Y99.096 E1.69798 ; fill
G1 X96.341 Y99.647 E1.70557 ; fill
G1 X96.872 Y100.178 E1.71591 ; fill
G1 X96.975 Y100.832 E1.72504 ; fill
G1 X96.341 Y100.198 E1.73741 ; fill
G1 X96.341 Y100.749 E1.74500 ; fill
G1 X97.445 Y101.853 E1.76652 ; fill
G1 X98.147 Y102.555 F6000.000 ; move to first fill point
G1 X101.851 Y106.259 F2700.000 E1.83870 ; fill
G1 X101.300 Y106.259 E1.84630 ; fill
G1 X96.341 Y101.300 E1.94293 ; fill
G1 X96.341 Y101.851 E1.95053 ; fill
G1 X100.749 Y106.259 E2.03643 ; fill
G1 X100.198 Y106.259 E2.04402 ; fill
G1 X96.341 Y102.402 E2.11919 ; fill
G1 X96.341 Y102.953 E2.12678 ; fill
G1 X99.647 Y106.259 E2.19120 ; fill
G1 X99.096 Y106.259 E2.19880 ; fill
G1 X96.341 Y103.504 E2.25249 ; fill
G1 X96.341 Y104.055 E2.26008 ; fill
G1 X98.545 Y106.259 E2.30303 ; fill
G1 X97.994 Y106.259 E2.31062 ; fill
G1 X96.341 Y104.606 E2.34284 ; fill
G1 X96.341 Y105.157 E2.35043 ; fill
G1 X97.443 Y106.259 E2.37191 ; fill
G1 X96.892 Y106.259 E2.37950 ; fill
G1 X96.341 Y105.708 E2.39024 ; fill
G1 X96.341 Y106.259 E2.39784 ; fill
G1 F420.000 E1.89784 ; retract
G92 E0 ; reset extrusion distance
G1 X99.168 Y103.025 F6000.000 ; move to first fill point
G1 F420.000 E0.50000 ; compensate retraction
G1 X102.402 Y106.259 F2700.000 E0.56303 ; fill
G1 X102.953 Y106.259 E0.57062 ; fill
G1 X99.822 Y103.128 E0.63163 ; fill
G1 X100.347 Y103.102 E0.63886 ; fill
G1 X103.504 Y106.259 E0.70039 ; fill
G1 X103.659 Y105.863 E0.70625 ; fill
G1 X100.822 Y103.026 E0.76153 ; fill
G1 X101.223 Y102.876 E0.76743 ; fill
G1 X103.659 Y105.312 E0.81490 ; fill
G1 X103.659 Y104.761 E0.82249 ; fill
G1 X101.588 Y102.690 E0.86285 ; fill
G1 X101.929 Y102.480 E0.86837 ; fill
G1 X103.659 Y104.210 E0.90208 ; fill
G1 X103.659 Y103.659 E0.90968 ; fill
G1 X102.204 Y102.204 E0.93802 ; fill
G1 X102.480 Y101.929 E0.94339 ; fill
G1 X103.659 Y103.108 E0.96636 ; fill
G1 X103.659 Y102.557 E0.97396 ; fill
G1 X102.690 Y101.588 E0.99284 ; fill
G1 X102.876 Y101.223 E0.99849 ; fill
G1 X103.659 Y102.006 E1.01375 ; fill
G1 X103.659 Y101.455 E1.02134 ; fill
G1 X103.026 Y100.822 E1.03367 ; fill
G1 X103.102 Y100.347 E1.04031 ; fill
G1 X103.659 Y100.904 E1.05117 ; fill
G1 X103.659 Y100.353 E1.05876 ; fill
G1 X103.128 Y99.822 E1.06910 ; fill
G1 X103.025 Y99.168 E1.07824 ; fill
G1 X103.659 Y99.802 E1.09060 ; fill
G1 X103.659 Y99.251 E1.09819 ; fill
G1 X102.555 Y98.147 E1.11971 ; fill
G1 F420.000 E0.61971 ; retract
G92 E0 ; reset extrusion distance
G1 Z0.500 F6000.000 ; move to next layer (1)
G1 X102.325 Y98.311 ; move to first perimeter point
G1 F420.000 E0.50000 ; compensate retraction
G1 X102.733 Y99.112 F3000.000 E0.51224 ; perimeter
G1 X102.874 Y100.000 E0.52448 ; perimeter
G1 X102.733 Y100.888 E0.53672 ; perimeter
G1 X102.325 Y101.689 E0.54896 ; perimeter
G1 X101.689 Y102.325 E0.56120 ; perimeter
G1 X100.888 Y102.733 E0.57344 ; perimeter
G1 X100.628 Y102.775 E0.57703 ; perimeter
G1 X100.000 Y102.874 E0.58568 ; perimeter
G1 X99.112 Y102.733 E0.59791 ; perimeter
G1 X98.311 Y102.325 E0.61015 ; perimeter
G1 X97.675 Y101.689 E0.62239 ; perimeter
G1 X97.267 Y100.888 E0.63463 ; perimeter
G1 X97.126 Y100.000 E0.64687 ; perimeter
G1 X97.267 Y99.112 E0.65911 ; perimeter
G1 X97.675 Y98.311 E0.67135 ; perimeter
G1 X98.311 Y97.675 E0.68359 ; perimeter
G1 X99.112 Y97.267 E0.69583 ; perimeter
G1 X100.000 Y97.126 E0.70807 ; perimeter
G1 X100.888 Y97.267 E0.72031 ; perimeter
G1 X101.689 Y97.675 E0.73255 ; perimeter
G1 X102.284 Y98.270 E0.74400 ; perimeter
G1 X102.010 Y98.540 F6000.000 ; move to first perimeter point
G1 X102.363 Y99.232 F3000.000 E0.75458 ; perimeter
G1 X102.484 Y100.000 E0.76516 ; perimeter
G1 X102.363 Y100.768 E0.77574 ; perimeter
G1 X102.010 Y101.460 E0.78632 ; perimeter
G1 X101.460 Y102.010 E0.79690 ; perimeter
G1 X100.768 Y102.363 E0.80748 ; perimeter
G1 X100.567 Y102.395 E0.81024 ; perimeter
G1 X100.000 Y102.484 E0.81806 ; perimeter
G1 X99.232 Y102.363 E0.82864 ; perimeter
G1 X98.540 Y102.010 E0.83922 ; perimeter
G1 X97.990 Y101.460 E0.84980 ; perimeter
G1 X97.637 Y100.768 E0.86038 ; perimeter
G1 X97.516 Y100.000 E0.87096 ; perimeter
G1 X97.637 Y99.232 E0.88154 ; perimeter
G1 X97.990 Y98.540 E0.89212 ; perimeter
G1 X98.540 Y97.990 E0.90270 ; perimeter
G1 X99.232 Y97.637 E0.91328 ; perimeter
G1 X100.000 Y97.516 E0.92386 ; perimeter
G1 X100.768 Y97.637 E0.93444 ; perimeter
G1 X101.460 Y97.990 E0.94502 ; perimeter
G1 X101.969 Y98.499 E0.95482 ; perimeter
G1 X101.695 Y98.769 F6000.000 ; move to first perimeter point
G1 X101.992 Y99.353 F3000.000 E0.96374 ; perimeter
G1 X102.095 Y100.000 E0.97266 ; perimeter
G1 X101.992 Y100.647 E0.98158 ; perimeter
G1 X101.695 Y101.231 E0.99050 ; perimeter
G1 X101.231 Y101.695 E0.99942 ; perimeter
G1 X100.647 Y101.992 E1.00834 ; perimeter
G1 X100.507 Y102.014 E1.01027 ; perimeter
G1 X100.000 Y102.095 E1.01726 ; perimeter
G1 X99.353 Y101.992 E1.02618 ; perimeter
G1 X98.769 Y101.695 E1.03510 ; perimeter
G1 X98.305 Y101.231 E1.04402 ; perimeter
G1 X98.008 Y100.647 E1.05295 ; perimeter
G1 X97.905 Y100.000 E1.06187 ; perimeter
G1 X98.008 Y99.353 E1.07079 ; perimeter
G1 X98.305 Y98.769 E1.07971 ; perimeter
G1 X98.769 Y98.305 E1.08863 ; perimeter
G1 X99.353 Y98.008 E1.09755 ; perimeter
G1 X100.000 Y97.905 E1.10647 ; perimeter
G1 X100.647 Y98.008 E1.11539 ; perimeter
G1 X101.231 Y98.305 E1.12431 ; perimeter
G1 X101.654 Y98.728 E1.13245 ; perimeter
G1 X102.079 Y98.749 F6000.000 ; move inwards before travel
G1 F420.000 E0.63245 ; retract
G92 E0 ; reset extrusion distance
G1 X103.938 Y106.538 F6000.000 ; move to first perimeter point
G1 F420.000 E0.50000 ; compensate retraction
G1 X96.062 Y106.538 F4200.000 E0.60720 ; perimeter
G1 X96.062 Y93.462 E0.78517 ; perimeter
G1 X103.938 Y93.462 E0.89237 ; perimeter
G1 X103.938 Y106.480 E1.06956 ; perimeter
G1 X104.323 Y106.923 F6000.000 ; move to first perimeter point
G1 X95.677 Y106.923 F4200.000 E1.18724 ; perimeter
G1 X95.677 Y93.077 E1.37569 ; perimeter
G1 X104.323 Y93.077 E1.49336 ; perimeter
G1 X104.323 Y106.865 E1.68103 ; perimeter
G1 X104.708 Y107.308 F6000.000 ; move to first perimeter point
G1 X95.292 Y107.308 F2100.000 E1.80918 ; perimeter
G1 X95.292 Y92.692 E2.00811 ; perimeter
G1 X104.708 Y92.692 E2.13626 ; perimeter
G1 X104.708 Y107.250 E2.33440 ; perimeter
G1 X104.374 Y107.115 F6000.000 ; move inwards before travel
G1 X103.659 Y106.259 ; move to first fill point
G1 X103.108 Y106.259 F5400.000 E2.34200 ; fill
G1 X103.659 Y105.708 E2.35274 ; fill
G1 X103.659 Y105.157 E2.36033 ; fill
G1 X102.557 Y106.259 E2.38181 ; fill
G1 X102.006 Y106.259 E2.38940 ; fill
G1 X103.659 Y104.606 E2.42162 ; fill
G1 X103.659 Y104.055 E2.42921 ; fill
G1 X101.455 Y106.259 E2.47216 ; fill
G1 X100.904 Y106.259 E2.47975 ; fill
G1 X103.659 Y103.504 E2.53344 ; fill
G1 X103.659 Y102.953 E2.54104 ; fill
G1 X100.353 Y106.259 E2.60546 ; fill
G1 X99.802 Y106.259 E2.61306 ; fill
G1 X103.659 Y102.402 E2.68822 ; fill
G1 X103.659 Y101.851 E2.69581 ; fill
G1 X99.251 Y106.259 E2.78172 ; fill
G1 X98.700 Y106.259 E2.78931 ; fill
G1 X103.659 Y101.300 E2.88595 ; fill
G1 X103.659 Y100.749 E2.89354 ; fill
