; generated by Slic3r 0.9.9 on 2014-03-08 at 22:07:38

; layer_height = 0.25
; perimeters = 3
; top_solid_layers = 4
; bottom_solid_layers = 4
; fill_density = 0.15
; perimeter_speed = 70
; infill_speed = 90
; travel_speed = 100
; nozzle_diameter = 0.35
; filament_diameter = 3.0
; extrusion_multiplier = 1
; perimeters extrusion width = 0.39mm
; infill extrusion width = 0.39mm
; solid infill extrusion width = 0.39mm
; top infill extrusion width = 0.39mm

G21 ; set units to millimeters
G28 ; home all axes
G90 ; use absolute coordinates
G92 E0 ; reset extrusion distance
M82 ; use absolute distances for extrusion
G1 F420.000 E-0.50000 ; retract
G92 E0 ; reset extrusion distance
G1 Z0.250 F6000.000 ; move to next layer (0)
G1 X75.737 Y87.630 ; move to first skirt point
G1 F420.000 E0.50000 ; compensate retraction
G1 X76.157 Y87.300 F2100.000 E0.50727 ; skirt
G1 X76.827 Y86.880 E0.51803 ; skirt
G1 X77.547 Y86.550 E0.52881 ; skirt
G1 X78.047 Y86.380 E0.53600 ; skirt
G1 X78.557 Y86.250 E0.54317 ; skirt
G1 X79.077 Y86.160 E0.55035 ; skirt
G1 X79.607 Y86.120 E0.55758 ; skirt
G1 X105.607 Y86.120 E0.91147 ; skirt
G1 X120.527 Y86.460 E1.11460 ; skirt
G1 X121.307 Y86.550 E1.12529 ; skirt
G1 X121.807 Y86.670 E1.13229 ; skirt
G1 X122.307 Y86.830 E1.13943 ; skirt
G1 X123.027 Y87.140 E1.15010 ; skirt
G1 X123.477 Y87.390 E1.15711 ; skirt
G1 X124.117 Y87.840 E1.16776 ; skirt
G1 X124.697 Y88.370 E1.17845 ; skirt
G1 X125.207 Y88.960 E1.18907 ; skirt
G1 X125.497 Y89.380 E1.19601 ; skirt
G1 X125.767 Y89.830 E1.20316 ; skirt
G1 X126.087 Y90.540 E1.21376 ; skirt
G1 X126.327 Y91.280 E1.22435 ; skirt
G1 X126.467 Y92.050 E1.23500 ; skirt
G1 X126.507 Y92.570 E1.24210 ; skirt
G1 X126.507 Y103.100 E1.38542 ; skirt
G1 X126.427 Y103.890 E1.39623 ; skirt
G1 X126.317 Y104.410 E1.40346 ; skirt
G1 X126.157 Y104.920 E1.41074 ; skirt
G1 X125.967 Y105.420 E1.41802 ; skirt
G1 X125.727 Y105.900 E1.42533 ; skirt
G1 X125.457 Y106.350 E1.43247 ; skirt
G1 X125.137 Y106.780 E1.43976 ; skirt
G1 X124.797 Y107.190 E1.44701 ; skirt
G1 X124.217 Y107.740 E1.45789 ; skirt
G1 X123.567 Y108.210 E1.46881 ; skirt
G1 X122.867 Y108.600 E1.47972 ; skirt
G1 X122.127 Y108.890 E1.49054 ; skirt
G1 X121.357 Y109.100 E1.50140 ; skirt
G1 X90.637 Y113.810 E1.92442 ; skirt
G1 X89.667 Y113.880 E1.93766 ; skirt
G1 X79.607 Y113.880 E2.07458 ; skirt
G1 X79.077 Y113.840 E2.08182 ; skirt
G1 X78.817 Y113.800 E2.08540 ; skirt
G1 X78.297 Y113.690 E2.09263 ; skirt
G1 X77.797 Y113.540 E2.09974 ; skirt
G1 X77.307 Y113.350 E2.10689 ; skirt
G1 X76.827 Y113.120 E2.11414 ; skirt
G1 X76.157 Y112.700 E2.12490 ; skirt
G1 X75.547 Y112.200 E2.13563 ; skirt
G1 X74.997 Y111.630 E2.14642 ; skirt
G1 X74.517 Y110.990 E2.15730 ; skirt
G1 X74.247 Y110.540 E2.16445 ; skirt
G1 X74.017 Y110.060 E2.17169 ; skirt
G1 X73.827 Y109.570 E2.17885 ; skirt
G1 X73.677 Y109.070 E2.18595 ; skirt
G1 X73.527 Y108.290 E2.19676 ; skirt
G1 X73.487 Y107.760 E2.20400 ; skirt
G1 X73.487 Y92.240 E2.41524 ; skirt
G1 X73.527 Y91.710 E2.42247 ; skirt
G1 X73.617 Y91.190 E2.42966 ; skirt
G1 X73.747 Y90.680 E2.43682 ; skirt
G1 X73.917 Y90.180 E2.44401 ; skirt
G1 X74.247 Y89.460 E2.45479 ; skirt
G1 X74.517 Y89.010 E2.46193 ; skirt
G1 X74.827 Y88.580 E2.46915 ; skirt
G1 X75.167 Y88.180 E2.47629 ; skirt
G1 X75.694 Y87.668 E2.48629 ; skirt
G1 F420.000 E1.98629 ; retract
G92 E0 ; reset extrusion distance
G1 X97.833 Y96.612 F6000.000 ; move to first perimeter point
G1 F420.000 E0.50000 ; compensate retraction
G1 X98.241 Y95.811 F1500.000 E0.51224 ; perimeter
G1 X98.877 Y95.175 E0.52448 ; perimeter
G1 X99.679 Y94.767 E0.53672 ; perimeter
G1 X100.567 Y94.626 E0.54896 ; perimeter
G1 X101.455 Y94.767 E0.56120 ; perimeter
G1 X102.256 Y95.175 E0.57344 ; perimeter
G1 X102.892 Y95.811 E0.58568 ; perimeter
G1 X103.300 Y96.612 E0.59791 ; perimeter
G1 X103.441 Y97.500 E0.61015 ; perimeter
G1 X103.300 Y98.388 E0.62239 ; perimeter
G1 X102.892 Y99.189 E0.63463 ; perimeter
G1 X102.256 Y99.825 E0.64687 ; perimeter
G1 X101.455 Y100.233 E0.65911 ; perimeter
G1 X100.567 Y100.374 E0.67135 ; perimeter
G1 X99.679 Y100.233 E0.68359 ; perimeter
G1 X98.877 Y99.825 E0.69583 ; perimeter
G1 X98.241 Y99.189 E0.70807 ; perimeter
G1 X97.833 Y98.388 E0.72031 ; perimeter
G1 X97.693 Y97.500 E0.73255 ; perimeter
G1 X97.824 Y96.669 E0.74400 ; perimeter
G1 X98.204 Y96.732 F6000.000 ; move to first perimeter point
G1 X98.557 Y96.040 F1500.000 E0.75458 ; perimeter
G1 X99.106 Y95.490 E0.76516 ; perimeter
G1 X99.799 Y95.137 E0.77574 ; perimeter
G1 X100.567 Y95.016 E0.78632 ; perimeter
G1 X101.334 Y95.137 E0.79690 ; perimeter
G1 X102.027 Y95.490 E0.80748 ; perimeter
G1 X102.577 Y96.040 E0.81806 ; perimeter
G1 X102.930 Y96.732 E0.82864 ; perimeter
G1 X103.051 Y97.500 E0.83922 ; perimeter
G1 X102.930 Y98.268 E0.84980 ; perimeter
G1 X102.577 Y98.960 E0.86038 ; perimeter
G1 X102.027 Y99.510 E0.87096 ; perimeter
G1 X101.334 Y99.863 E0.88154 ; perimeter
G1 X100.567 Y99.984 E0.89212 ; perimeter
G1 X99.799 Y99.863 E0.90270 ; perimeter
G1 X99.106 Y99.510 E0.91328 ; perimeter
G1 X98.557 Y98.960 E0.92386 ; perimeter
G1 X98.204 Y98.268 E0.93444 ; perimeter
G1 X98.082 Y97.500 E0.94502 ; perimeter
G1 X98.195 Y96.789 E0.95482 ; perimeter
G1 X98.574 Y96.853 F6000.000 ; move to first perimeter point
G1 X98.872 Y96.269 F1500.000 E0.96374 ; perimeter
G1 X99.335 Y95.805 E0.97266 ; perimeter
G1 X99.919 Y95.508 E0.98158 ; perimeter
G1 X100.567 Y95.405 E0.99050 ; perimeter
G1 X101.214 Y95.508 E0.99942 ; perimeter
G1 X101.798 Y95.805 E1.00834 ; perimeter
G1 X102.261 Y96.269 E1.01726 ; perimeter
G1 X102.528 Y96.792 E1.02526 ; perimeter
G1 X102.559 Y96.853 E1.02618 ; perimeter
G1 X102.661 Y97.500 E1.03510 ; perimeter
G1 X102.559 Y98.147 E1.04402 ; perimeter
G1 X102.261 Y98.731 E1.05295 ; perimeter
G1 X101.798 Y99.195 E1.06187 ; perimeter
G1 X101.214 Y99.492 E1.07079 ; perimeter
G1 X100.567 Y99.595 E1.07971 ; perimeter
G1 X99.919 Y99.492 E1.08863 ; perimeter
G1 X99.335 Y99.195 E1.09755 ; perimeter
G1 X98.872 Y98.731 E1.10647 ; perimeter
G1 X98.574 Y98.147 E1.11539 ; perimeter
G1 X98.472 Y97.500 E1.12431 ; perimeter
G1 X98.565 Y96.910 E1.13245 ; perimeter
G1 X98.332 Y96.554 F6000.000 ; move inwards before travel
G1 F420.000 E0.63245 ; retract
G92 E0 ; reset extrusion distance
G1 X96.629 Y101.538 F6000.000 ; move to first perimeter point
G1 F420.000 E0.50000 ; compensate retraction
G1 X96.629 Y93.462 F1500.000 E0.60992 ; perimeter
G1 X104.505 Y93.462 E0.71712 ; perimeter
G1 X104.505 Y101.538 E0.82704 ; perimeter
G1 X96.687 Y101.538 E0.93345 ; perimeter
G1 X96.244 Y101.923 F6000.000 ; move to first perimeter point
G1 X96.244 Y93.077 F1500.000 E1.05385 ; perimeter
G1 X104.889 Y93.077 E1.17152 ; perimeter
G1 X104.889 Y101.923 E1.29192 ; perimeter
G1 X96.302 Y101.923 E1.40881 ; perimeter
G1 X95.859 Y102.308 F6000.000 ; move to first perimeter point
G1 X95.859 Y92.692 F1500.000 E1.53968 ; perimeter
G1 X105.274 Y92.692 E1.66783 ; perimeter
G1 X105.274 Y102.308 E1.79870 ; perimeter
G1 X95.917 Y102.308 E1.92607 ; perimeter
G1 X96.052 Y101.974 F6000.000 ; move inwards before travel
G1 X96.908 Y101.259 ; move to first fill point
G1 X96.908 Y100.709 F2700.000 E1.93362 ; fill
G1 X97.457 Y101.259 E1.94430 ; fill
G1 X98.007 Y101.259 E1.95185 ; fill
G1 X96.908 Y100.160 E1.97321 ; fill
G1 X96.908 Y99.610 E1.98076 ; fill
G1 X98.556 Y101.259 E2.01280 ; fill
G1 X99.106 Y101.259 E2.02035 ; fill
G1 X96.908 Y99.061 E2.06307 ; fill
G1 X96.908 Y98.511 E2.07062 ; fill
G1 X99.655 Y101.259 E2.12401 ; fill
G1 X100.205 Y101.259 E2.13156 ; fill
G1 X99.298 Y100.353 E2.14917 ; fill
G1 X100.074 Y100.578 E2.16027 ; fill
G1 X100.754 Y101.259 E2.17349 ; fill
G1 X101.304 Y101.259 E2.18104 ; fill
G1 X100.683 Y100.638 E2.19311 ; fill
G1 X101.157 Y100.563 E2.19971 ; fill
G1 X101.853 Y101.259 E2.21323 ; fill
G1 X102.403 Y101.259 E2.22079 ; fill
G1 X101.611 Y100.467 E2.23617 ; fill
G1 X101.975 Y100.282 E2.24179 ; fill
G1 X102.952 Y101.259 E2.26078 ; fill
G1 X103.501 Y101.259 E2.26833 ; fill
G1 X102.339 Y100.096 E2.29093 ; fill
G1 X102.634 Y99.842 E2.29629 ; fill
G1 X104.051 Y101.259 E2.32383 ; fill
G1 X104.226 Y100.884 E2.32951 ; fill
G1 X102.909 Y99.567 E2.35510 ; fill
G1 X103.163 Y99.272 E2.36046 ; fill
G1 X104.226 Y100.335 E2.38111 ; fill
G1 X104.226 Y99.785 E2.38866 ; fill
G1 X103.348 Y98.908 E2.40571 ; fill
G1 X103.534 Y98.544 E2.41133 ; fill
G1 X104.226 Y99.236 E2.42477 ; fill
G1 X104.226 Y98.686 E2.43232 ; fill
G1 X103.630 Y98.090 E2.44391 ; fill
G1 X103.705 Y97.616 E2.45051 ; fill
G1 X104.226 Y98.137 E2.46063 ; fill
G1 X104.226 Y97.587 E2.46818 ; fill
G1 X103.645 Y97.007 E2.47946 ; fill
G1 X104.226 Y97.038 E2.48745 ; fill
G1 X103.419 Y96.232 E2.50312 ; fill
G1 X104.226 Y96.489 E2.51475 ; fill
G1 X101.478 Y93.741 E2.56814 ; fill
G1 X100.929 Y93.741 E2.57569 ; fill
G1 X101.835 Y94.647 E2.59330 ; fill
G1 X101.060 Y94.422 E2.60439 ; fill
G1 X100.379 Y93.741 E2.61762 ; fill
G1 X99.830 Y93.741 E2.62517 ; fill
G1 X100.451 Y94.362 E2.63724 ; fill
G1 X99.976 Y94.437 E2.64384 ; fill
G1 X99.280 Y93.741 E2.65736 ; fill
G1 X98.731 Y93.741 E2.66491 ; fill
G1 X99.523 Y94.533 E2.68030 ; fill
G1 X99.159 Y94.718 E2.68592 ; fill
G1 X98.181 Y93.741 E2.70491 ; fill
G1 X97.632 Y93.741 E2.71246 ; fill
G1 X98.795 Y94.904 E2.73506 ; fill
G1 X98.500 Y95.158 E2.74041 ; fill
G1 X97.082 Y93.741 E2.76795 ; fill
G1 X96.908 Y94.116 E2.77363 ; fill
G1 X98.225 Y95.433 E2.79923 ; fill
G1 X97.971 Y95.728 E2.80458 ; fill
G1 X96.908 Y94.665 E2.82524 ; fill
G1 X96.908 Y95.215 E2.83279 ; fill
G1 X97.785 Y96.092 E2.84984 ; fill
G1 X97.600 Y96.456 E2.85545 ; fill
G1 X96.908 Y95.764 E2.86890 ; fill
G1 X96.908 Y96.314 E2.87645 ; fill
G1 X97.504 Y96.910 E2.88803 ; fill
G1 X97.429 Y97.384 E2.89463 ; fill
G1 X96.908 Y96.863 E2.90476 ; fill
G1 X96.908 Y97.413 E2.91231 ; fill
G1 X97.488 Y97.993 E2.92359 ; fill
G1 X96.908 Y97.962 E2.93158 ; fill
G1 X97.714 Y98.768 E2.94725 ; fill
G1 F420.000 E2.44725 ; retract
G92 E0 ; reset extrusion distance
G1 X102.028 Y93.741 F6000.000 ; move to first fill point
G1 F420.000 E0.50000 ; compensate retraction
G1 X104.226 Y95.939 F2700.000 E0.54272 ; fill
G1 X104.226 Y95.390 E0.55027 ; fill
G1 X102.577 Y93.741 E0.58230 ; fill
G1 X103.127 Y93.741 E0.58985 ; fill
G1 X104.226 Y94.840 E0.61121 ; fill
G1 X104.226 Y94.291 E0.61876 ; fill
G1 X103.676 Y93.741 E0.62945 ; fill
G1 X104.226 Y93.741 E0.63700 ; fill
G1 F420.000 E0.13700 ; retract
G92 E0 ; reset extrusion distance
G1 X87.500 Y99.112 F6000.000 ; move to first perimeter point
G1 F420.000 E0.50000 ; compensate retraction
G1 X87.641 Y100.000 F1500.000 E0.51224 ; perimeter
G1 X87.500 Y100.888 E0.52448 ; perimeter
G1 X87.414 Y101.057 E0.52706 ; perimeter
G1 X87.092 Y101.689 E0.53672 ; perimeter
G1 X86.456 Y102.325 E0.54896 ; perimeter
G1 X85.655 Y102.733 E0.56120 ; perimeter
G1 X84.767 Y102.874 E0.57344 ; perimeter
G1 X83.879 Y102.733 E0.58568 ; perimeter
G1 X83.077 Y102.325 E0.59791 ; perimeter
G1 X82.943 Y102.191 E0.60049 ; perimeter
G1 X82.441 Y101.689 E0.61015 ; perimeter
G1 X82.033 Y100.888 E0.62239 ; perimeter
G1 X81.893 Y100.000 E0.63463 ; perimeter
G1 X82.033 Y99.112 E0.64687 ; perimeter
G1 X82.441 Y98.311 E0.65911 ; perimeter
G1 X83.077 Y97.675 E0.67135 ; perimeter
G1 X83.879 Y97.267 E0.68359 ; perimeter
G1 X84.767 Y97.126 E0.69583 ; perimeter
G1 X85.655 Y97.267 E0.70807 ; perimeter
G1 X86.456 Y97.675 E0.72031 ; perimeter
G1 X87.092 Y98.311 E0.73255 ; perimeter
G1 X87.474 Y99.060 E0.74400 ; perimeter
G1 X87.130 Y99.232 F6000.000 ; move to first perimeter point
G1 X87.251 Y100.000 F1500.000 E0.75458 ; perimeter
G1 X87.130 Y100.768 E0.76516 ; perimeter
G1 X87.071 Y100.882 E0.76691 ; perimeter
G1 X86.777 Y101.460 E0.77574 ; perimeter
G1 X86.227 Y102.010 E0.78632 ; perimeter
G1 X85.534 Y102.363 E0.79690 ; perimeter
G1 X84.767 Y102.484 E0.80748 ; perimeter
G1 X83.999 Y102.363 E0.81806 ; perimeter
G1 X83.306 Y102.010 E0.82864 ; perimeter
G1 X82.757 Y101.460 E0.83922 ; perimeter
G1 X82.404 Y100.768 E0.84980 ; perimeter
G1 X82.282 Y100.000 E0.86038 ; perimeter
G1 X82.404 Y99.232 E0.87096 ; perimeter
G1 X82.757 Y98.540 E0.88154 ; perimeter
G1 X83.306 Y97.990 E0.89212 ; perimeter
G1 X83.999 Y97.637 E0.90270 ; perimeter
G1 X84.767 Y97.516 E0.91328 ; perimeter
G1 X85.534 Y97.637 E0.92386 ; perimeter
G1 X86.227 Y97.990 E0.93444 ; perimeter
G1 X86.777 Y98.540 E0.94502 ; perimeter
G1 X87.103 Y99.181 E0.95482 ; perimeter
G1 X86.759 Y99.353 F6000.000 ; move to first perimeter point
G1 X86.861 Y100.000 F1500.000 E0.96374 ; perimeter
G1 X86.759 Y100.647 E0.97266 ; perimeter
G1 X86.728 Y100.708 E0.97358 ; perimeter
G1 X86.461 Y101.231 E0.98158 ; perimeter
G1 X85.998 Y101.695 E0.99050 ; perimeter
G1 X85.414 Y101.992 E0.99942 ; perimeter
G1 X84.767 Y102.095 E1.00834 ; perimeter
G1 X84.119 Y101.992 E1.01726 ; perimeter
G1 X83.535 Y101.695 E1.02618 ; perimeter
G1 X83.072 Y101.231 E1.03510 ; perimeter
G1 X82.774 Y100.647 E1.04402 ; perimeter
G1 X82.672 Y100.000 E1.05295 ; perimeter
G1 X82.774 Y99.353 E1.06187 ; perimeter
G1 X83.072 Y98.769 E1.07079 ; perimeter
G1 X83.535 Y98.305 E1.07971 ; perimeter
G1 X84.119 Y98.008 E1.08863 ; perimeter
G1 X84.767 Y97.905 E1.09755 ; perimeter
G1 X85.414 Y98.008 E1.10647 ; perimeter
G1 X85.998 Y98.305 E1.11539 ; perimeter
G1 X86.461 Y98.769 E1.12431 ; perimeter
G1 X86.733 Y99.301 E1.13245 ; perimeter
G1 X87.131 Y99.452 F6000.000 ; move inwards before travel
G1 F420.000 E0.63245 ; retract
G92 E0 ; reset extrusion distance
G1 X80.829 Y106.538 F6000.000 ; move to first perimeter point
G1 F420.000 E0.50000 ; compensate retraction
G1 X80.829 Y93.462 F2100.000 E0.67798 ; perimeter
G1 X88.705 Y93.462 E0.78517 ; perimeter
G1 X88.705 Y106.538 E0.96315 ; perimeter
G1 X80.887 Y106.538 E1.06956 ; perimeter
G1 X80.444 Y106.923 F6000.000 ; move to first perimeter point
G1 X80.444 Y93.077 F2100.000 E1.25801 ; perimeter
G1 X89.089 Y93.077 E1.37569 ; perimeter
G1 X89.089 Y106.923 E1.56414 ; perimeter
G1 X80.502 Y106.923 E1.68103 ; perimeter
G1 X80.059 Y107.308 F6000.000 ; move to first perimeter point
G1 X80.059 Y92.692 F1050.000 E1.87996 ; perimeter
G1 X89.474 Y92.692 E2.00811 ; perimeter
G1 X89.474 Y107.308 E2.20704 ; perimeter
G1 X80.117 Y107.308 E2.33440 ; perimeter
G1 X80.252 Y106.974 F6000.000 ; move inwards before travel
G1 X81.108 Y106.259 ; move to first fill point
G1 X81.108 Y105.708 F2700.000 E2.34200 ; fill
G1 X81.659 Y106.259 E2.35274 ; fill
G1 X82.210 Y106.259 E2.36033 ; fill
G1 X81.108 Y105.157 E2.38181 ; fill
G1 X81.108 Y104.606 E2.38940 ; fill
G1 X82.761 Y106.259 E2.42162 ; fill
G1 X83.312 Y106.259 E2.42921 ; fill
G1 X81.108 Y104.055 E2.47216 ; fill
G1 X81.108 Y103.504 E2.47975 ; fill
G1 X83.863 Y106.259 E2.53344 ; fill
G1 X84.414 Y106.259 E2.54104 ; fill
G1 X81.108 Y102.953 E2.60546 ; fill
G1 X81.108 Y102.402 E2.61306 ; fill
G1 X84.965 Y106.259 E2.68822 ; fill
G1 X85.516 Y106.259 E2.69581 ; fill
G1 X81.108 Y101.851 E2.78172 ; fill
G1 X81.108 Y101.300 E2.78931 ; fill
G1 X86.067 Y106.259 E2.88595 ; fill
G1 X86.618 Y106.259 E2.89354 ; fill
G1 X82.913 Y102.555 E2.96572 ; fill
G1 X82.212 Y101.853 F6000.000 ; move to first fill point
G1 X81.108 Y100.749 F2700.000 E2.98724 ; fill
G1 X81.108 Y100.198 E2.99484 ; fill
G1 X81.742 Y100.832 E3.00720 ; fill
G1 X81.638 Y100.178 E3.01633 ; fill
G1 X81.108 Y99.647 E3.02667 ; fill
G1 X81.108 Y99.096 E3.03426 ; fill
G1 X81.665 Y99.653 E3.04513 ; fill
G1 X81.740 Y99.178 E3.05176 ; fill
G1 X81.108 Y98.545 E3.06409 ; fill
G1 X81.108 Y97.994 E3.07169 ; fill
G1 X81.891 Y98.777 E3.08695 ; fill
G1 X82.077 Y98.412 E3.09259 ; fill
G1 X81.108 Y97.443 E3.11148 ; fill
G1 X81.108 Y96.892 E3.11907 ; fill
G1 X82.287 Y98.071 E3.14204 ; fill
G1 X82.562 Y97.796 E3.14741 ; fill
G1 X81.108 Y96.341 E3.17576 ; fill
G1 X81.108 Y95.790 E3.18335 ; fill
G1 X82.838 Y97.520 E3.21706 ; fill
G1 X83.179 Y97.310 E3.22258 ; fill
G1 X81.108 Y95.239 E3.26294 ; fill
G1 X81.108 Y94.688 E3.27053 ; fill
G1 X83.544 Y97.124 E3.31801 ; fill
G1 X83.944 Y96.974 E3.32390 ; fill
G1 X81.108 Y94.137 E3.37918 ; fill
G1 X81.263 Y93.741 E3.38504 ; fill
G1 X84.420 Y96.898 E3.44657 ; fill
G1 X84.944 Y96.872 E3.45380 ; fill
G1 X81.814 Y93.741 E3.51481 ; fill
G1 X82.365 Y93.741 E3.52240 ; fill
