; generated by Slic3r 1.1.7 on 2015-07-22 at 18:36:41

; perimeters extrusion width = 0.35mm
; infill extrusion width = 0.39mm
; solid infill extrusion width = 0.39mm
; top infill extrusion width = 0.39mm

G21 ; set units to millimeters
M107 ; disable fan
G28 ; home all axes
G90 ; use absolute coordinates
G92 E0 ; reset extrusion distance
M82 ; use absolute distances for extrusion
G1 F420.000 E-0.50000 ; retract
G92 E0 ; reset extrusion distance
G1 Z0.250 F6000.000 ; move to next layer (0)
G1 X83.834 Y86.642 F6000.000 ; move to first skirt point
G1 E0.50000 F420.000 ; compensate retraction
G1 X85.441 Y85.474 E0.52459 F1800.000 ; skirt
G1 X85.999 Y85.190 E0.53234 ; skirt
G1 X87.888 Y84.576 E0.55693 ; skirt
G1 X89.500 Y84.400 E0.57700 ; skirt
G1 X111.494 Y84.478 E0.84925 ; skirt
G1 X112.112 Y84.576 E0.85700 F1800.000 ; skirt
G1 X114.001 Y85.190 E0.88159 ; skirt
G1 X114.558 Y85.474 E0.88933 ; skirt
G1 X116.166 Y86.642 E0.91393 ; skirt
G1 X116.608 Y87.084 E0.92167 ; skirt
G1 X117.776 Y88.692 E0.94627 ; skirt
G1 X118.060 Y89.249 E0.95401 ; skirt
G1 X118.674 Y91.138 E0.97860 ; skirt
G1 X118.768 Y91.731 E0.98603 ; skirt
G1 X118.850 Y92.750 E0.99868 ; skirt
G1 X118.850 Y109.250 E1.20293 ; skirt
G1 X118.453 Y111.460 E1.23072 ; skirt
G1 X117.312 Y113.393 E1.25851 ; skirt
G1 X115.570 Y114.809 E1.28630 ; skirt
G1 X112.500 Y115.600 E1.32555 ; skirt
G1 X87.500 Y115.600 E1.63501 ; skirt
G1 X85.290 Y115.203 E1.66280 ; skirt
G1 X83.357 Y114.062 E1.69059 ; skirt
G1 X81.941 Y112.320 E1.71838 ; skirt
G1 X81.150 Y109.250 E1.75763 ; skirt
G1 X81.228 Y91.756 E1.97418 ; skirt
G1 X81.326 Y91.138 E1.98192 ; skirt
G1 X81.940 Y89.249 E2.00651 ; skirt
G1 X82.224 Y88.691 E2.01426 ; skirt
G1 X83.392 Y87.084 E2.03885 ; skirt
G1 X83.797 Y86.679 E2.04595 ; skirt
G1 F420.000 E1.54595 ; retract
G92 E0 ; reset extrusion distance
G1 X90.986 Y94.607 F6000.000 ; move to first perimeter point
G1 E0.50000 F420.000 ; compensate retraction
G1 X90.518 Y94.845 E0.50650 F1050.000 ; perimeter
G1 X90.000 Y94.927 E0.51299 ; perimeter
G1 X89.482 Y94.845 E0.51949 ; perimeter
G1 X89.014 Y94.607 E0.52598 ; perimeter
G1 X88.643 Y94.236 E0.53248 ; perimeter
G1 X88.405 Y93.768 E0.53897 ; perimeter
G1 X88.323 Y93.250 E0.54547 ; perimeter
G1 X88.405 Y92.732 E0.55196 ; perimeter
G1 X88.643 Y92.264 E0.55846 ; perimeter
G1 X89.014 Y91.893 E0.56496 ; perimeter
G1 X89.482 Y91.655 E0.57145 ; perimeter
G1 X90.000 Y91.573 E0.57795 ; perimeter
G1 X90.480 Y91.649 E0.58397 ; perimeter
G1 X90.986 Y91.893 E0.59092 F1050.000 ; perimeter
G1 X91.357 Y92.264 E0.59741 ; perimeter
G1 X91.595 Y92.732 E0.60391 ; perimeter
G1 X91.677 Y93.250 E0.61040 ; perimeter
G1 X91.595 Y93.768 E0.61690 ; perimeter
G1 X91.357 Y94.236 E0.62339 ; perimeter
G1 X91.023 Y94.570 E0.62924 ; perimeter
G1 F420.000 E0.12924 ; retract
G92 E0 ; reset extrusion distance
G1 X90.547 Y91.305 F6000.000 ; move inwards before travel
G1 X108.323 Y93.250 F6000.000 ; move to first perimeter point
G1 E0.50000 F420.000 ; compensate retraction
G1 X108.405 Y92.732 E0.50649 F1050.000 ; perimeter
G1 X108.643 Y92.264 E0.51299 ; perimeter
G1 X109.014 Y91.893 E0.51949 ; perimeter
G1 X109.482 Y91.655 E0.52598 ; perimeter
G1 X110.000 Y91.573 E0.53248 ; perimeter
G1 X110.480 Y91.649 E0.53850 ; perimeter
G1 X110.986 Y91.893 E0.54545 F1050.000 ; perimeter
G1 X111.357 Y92.264 E0.55194 ; perimeter
G1 X111.595 Y92.732 E0.55844 ; perimeter
G1 X111.677 Y93.250 E0.56493 ; perimeter
G1 X111.595 Y93.768 E0.57143 ; perimeter
G1 X111.357 Y94.236 E0.57793 ; perimeter
G1 X110.986 Y94.607 E0.58442 ; perimeter
G1 X110.518 Y94.845 E0.59092 ; perimeter
G1 X110.000 Y94.927 E0.59741 ; perimeter
G1 X109.482 Y94.845 E0.60391 ; perimeter
G1 X109.014 Y94.607 E0.61040 ; perimeter
G1 X108.643 Y94.236 E0.61690 ; perimeter
G1 X108.405 Y93.768 E0.62339 ; perimeter
G1 X108.331 Y93.302 E0.62924 ; perimeter
G1 F420.000 E0.12924 ; retract
G92 E0 ; reset extrusion distance
G1 X110.666 Y91.352 F6000.000 ; move inwards before travel
G1 X111.410 Y107.748 F6000.000 ; move to first perimeter point
G1 E0.50000 F420.000 ; compensate retraction
G1 X111.625 Y107.800 E0.50273 F2100.000 ; perimeter
G1 X111.625 Y108.375 E0.50985 ; perimeter
G1 X111.091 Y108.375 E0.51646 ; perimeter
G1 X111.387 Y107.795 E0.52452 ; perimeter
G1 X111.975 Y108.725 F6000.000 ; move to first perimeter point
G1 X110.520 Y108.725 E0.54253 F2100.000 ; perimeter
G1 X111.399 Y107.000 E0.56650 ; perimeter
G1 X111.717 Y104.992 E0.59167 ; perimeter
G1 X111.975 Y105.012 E0.59488 ; perimeter
G1 X111.975 Y108.673 E0.64019 ; perimeter
G1 F420.000 E0.14019 ; retract
G92 E0 ; reset extrusion distance
G1 X111.410 Y98.844 F6000.000 ; move to first perimeter point
G1 E0.50000 F420.000 ; compensate retraction
G1 X109.983 Y96.042 E0.53892 F2100.000 ; perimeter
G1 X109.729 Y95.789 E0.54336 ; perimeter
G1 X109.822 Y95.608 E0.54588 ; perimeter
G1 X110.000 Y95.636 E0.54811 ; perimeter
G1 X110.737 Y95.519 E0.55735 ; perimeter
G1 X111.625 Y95.067 E0.56968 ; perimeter
G1 X111.625 Y98.792 E0.61580 ; perimeter
G1 X111.461 Y98.832 E0.61788 ; perimeter
G1 F420.000 E0.11788 ; retract
G92 E0 ; reset extrusion distance
G1 X107.461 Y93.521 F6000.000 ; move to first perimeter point
G1 E0.50000 F420.000 ; compensate retraction
G1 X107.253 Y93.313 E0.50364 F2100.000 ; perimeter
G1 X104.362 Y91.840 E0.54381 ; perimeter
G1 X104.414 Y91.625 E0.54654 ; perimeter
G1 X108.183 Y91.625 E0.59320 ; perimeter
G1 X107.731 Y92.513 E0.60554 ; perimeter
G1 X107.614 Y93.250 E0.61478 ; perimeter
G1 X107.642 Y93.428 E0.61701 ; perimeter
G1 X107.508 Y93.497 E0.61888 ; perimeter
G1 F420.000 E0.11888 ; retract
G92 E0 ; reset extrusion distance
G1 X108.984 Y91.275 F6000.000 ; move to first perimeter point
G1 E0.50000 F420.000 ; compensate retraction
G1 X109.035 Y91.490 E0.50273 F2100.000 ; perimeter
G1 X108.806 Y91.607 E0.50592 ; perimeter
G1 X108.357 Y92.056 E0.51378 ; perimeter
G1 X108.068 Y92.622 E0.52165 ; perimeter
G1 X107.968 Y93.250 E0.52952 ; perimeter
G1 X108.068 Y93.878 E0.53739 ; perimeter
G1 X108.356 Y94.444 E0.54526 ; perimeter
G1 X108.806 Y94.894 E0.55313 ; perimeter
G1 X109.372 Y95.182 E0.56099 ; perimeter
G1 X110.000 Y95.282 E0.56886 ; perimeter
G1 X110.628 Y95.182 E0.57673 ; perimeter
G1 X111.194 Y94.894 E0.58460 ; perimeter
G1 X111.644 Y94.444 E0.59247 ; perimeter
G1 X111.760 Y94.215 E0.59565 ; perimeter
G1 X111.975 Y94.266 E0.59838 ; perimeter
G1 X111.975 Y101.580 E0.68892 ; perimeter
G1 X111.717 Y101.600 E0.69212 ; perimeter
G1 X111.399 Y99.592 E0.71729 ; perimeter
G1 X109.696 Y96.251 E0.76371 ; perimeter
G1 X107.045 Y93.599 E0.81013 ; perimeter
G1 X103.704 Y91.897 E0.85655 ; perimeter
G1 X101.405 Y91.533 E0.88535 ; perimeter
G1 X101.426 Y91.275 E0.88856 ; perimeter
G1 X108.931 Y91.275 E0.98146 ; perimeter
G1 F420.000 E0.48146 ; retract
G92 E0 ; reset extrusion distance
G1 X90.271 Y95.789 F6000.000 ; move to first perimeter point
G1 E0.50000 F420.000 ; compensate retraction
G1 X90.017 Y96.042 E0.50444 F2100.000 ; perimeter
G1 X88.590 Y98.844 E0.54336 ; perimeter
G1 X88.375 Y98.792 E0.54609 ; perimeter
G1 X88.375 Y95.067 E0.59221 ; perimeter
G1 X89.263 Y95.519 E0.60454 ; perimeter
G1 X90.000 Y95.636 E0.61378 ; perimeter
G1 X90.178 Y95.608 E0.61602 ; perimeter
G1 X90.247 Y95.742 E0.61788 ; perimeter
G1 F420.000 E0.11788 ; retract
G92 E0 ; reset extrusion distance
G1 X92.539 Y93.521 F6000.000 ; move to first perimeter point
G1 E0.50000 F420.000 ; compensate retraction
G1 X92.358 Y93.428 E0.50252 F2100.000 ; perimeter
G1 X92.386 Y93.250 E0.50475 ; perimeter
G1 X92.269 Y92.513 E0.51399 ; perimeter
G1 X91.817 Y91.625 E0.52633 ; perimeter
G1 X95.586 Y91.625 E0.57299 ; perimeter
G1 X95.638 Y91.840 E0.57572 ; perimeter
G1 X92.747 Y93.313 E0.61589 ; perimeter
G1 X92.576 Y93.484 E0.61888 ; perimeter
G1 F420.000 E0.11888 ; retract
G92 E0 ; reset extrusion distance
G1 X90.965 Y91.490 F6000.000 ; move to first perimeter point
G1 E0.50000 F420.000 ; compensate retraction
G1 X91.016 Y91.275 E0.50273 F2100.000 ; perimeter
G1 X98.574 Y91.275 E0.59629 ; perimeter
G1 X98.595 Y91.533 E0.59949 ; perimeter
G1 X96.296 Y91.897 E0.62830 ; perimeter
G1 X92.955 Y93.599 E0.67472 ; perimeter
G1 X90.304 Y96.251 E0.72113 ; perimeter
G1 X88.601 Y99.592 E0.76756 ; perimeter
G1 X88.283 Y101.600 E0.79272 ; perimeter
G1 X88.025 Y101.580 E0.79593 ; perimeter
G1 X88.025 Y94.266 E0.88646 ; perimeter
G1 X88.240 Y94.215 E0.88919 ; perimeter
G1 X88.356 Y94.444 E0.89238 ; perimeter
G1 X88.806 Y94.894 E0.90025 ; perimeter
G1 X89.372 Y95.182 E0.90812 ; perimeter
G1 X90.000 Y95.282 E0.91598 ; perimeter
G1 X90.628 Y95.182 E0.92385 ; perimeter
G1 X91.194 Y94.894 E0.93172 ; perimeter
G1 X91.644 Y94.444 E0.93959 ; perimeter
G1 X91.932 Y93.878 E0.94746 ; perimeter
G1 X92.032 Y93.250 E0.95532 ; perimeter
G1 X91.932 Y92.622 E0.96319 ; perimeter
G1 X91.643 Y92.056 E0.97106 ; perimeter
G1 X91.194 Y91.607 E0.97893 ; perimeter
G1 X91.012 Y91.513 E0.98146 ; perimeter
G1 F420.000 E0.48146 ; retract
G92 E0 ; reset extrusion distance
G1 X88.590 Y107.748 F6000.000 ; move to first perimeter point
G1 E0.50000 F420.000 ; compensate retraction
G1 X88.909 Y108.375 E0.50871 F2100.000 ; perimeter
G1 X88.375 Y108.375 E0.51532 ; perimeter
G1 X88.375 Y107.800 E0.52244 ; perimeter
G1 X88.539 Y107.760 E0.52452 ; perimeter
G1 X88.025 Y108.725 F6000.000 ; move to first perimeter point
G1 X88.025 Y105.012 E0.57049 F2100.000 ; perimeter
G1 X88.283 Y104.992 E0.57369 ; perimeter
G1 X88.601 Y107.000 E0.59886 ; perimeter
G1 X89.480 Y108.725 E0.62283 ; perimeter
G1 X88.077 Y108.725 E0.64019 ; perimeter
G1 X87.675 Y109.075 F6000.000 ; move to first perimeter point
G1 X87.675 Y92.764 E0.84210 F1050.000 ; perimeter
G1 X87.766 Y92.187 E0.84933 ; perimeter
G1 X88.025 Y91.679 E0.85639 ; perimeter
G1 X88.429 Y91.275 E0.86345 ; perimeter
G1 X88.937 Y91.016 E0.87051 ; perimeter
G1 X89.514 Y90.925 E0.87774 ; perimeter
G1 X110.486 Y90.925 E1.13736 ; perimeter
G1 X111.063 Y91.016 E1.14459 ; perimeter
G1 X111.571 Y91.275 E1.15165 ; perimeter
G1 X111.975 Y91.679 E1.15871 ; perimeter
G1 X112.234 Y92.187 E1.16577 ; perimeter
G1 X112.325 Y92.764 E1.17300 ; perimeter
G1 X112.325 Y109.075 E1.37491 ; perimeter
G1 X109.949 Y109.075 E1.40433 ; perimeter
G1 X111.062 Y106.890 E1.43468 ; perimeter
G1 X111.631 Y103.295 E1.47975 ; perimeter
G1 X111.062 Y99.702 E1.52477 ; perimeter
G1 X109.410 Y96.459 E1.56982 ; perimeter
G1 X106.837 Y93.886 E1.61487 ; perimeter
G1 X103.594 Y92.234 E1.65991 ; perimeter
G1 X100.000 Y91.665 E1.70496 ; perimeter
G1 X96.406 Y92.234 E1.75001 ; perimeter
G1 X93.163 Y93.886 E1.79505 ; perimeter
G1 X90.590 Y96.459 E1.84010 ; perimeter
G1 X88.938 Y99.702 E1.88515 ; perimeter
G1 X88.369 Y103.295 E1.93018 ; perimeter
G1 X88.938 Y106.890 E1.97524 ; perimeter
G1 X90.051 Y109.075 E2.00559 ; perimeter
G1 X87.728 Y109.075 E2.03436 ; perimeter
G1 X87.850 Y108.772 F6000.000 ; move inwards before travel
G1 F420.000 E1.53436 ; retract
G92 E0 ; reset extrusion distance
G1 X88.664 Y97.975 F6000.000 ; move to first fill point
G1 E0.50000 F420.000 ; compensate retraction
G1 X88.617 Y97.928 E0.50091 F2700.000 ; fill
G1 X88.948 Y97.609 E0.50717 ; fill
G1 X88.617 Y97.278 E0.51354 ; fill
G1 X88.617 Y96.627 E0.52239 ; fill
G1 X89.167 Y97.178 E0.53299 ; fill
G1 X89.387 Y96.747 E0.53958 ; fill
G1 X88.617 Y95.977 E0.55440 ; fill
G1 X88.890 Y95.601 E0.56074 ; fill
G1 X89.606 Y96.317 E0.57452 ; fill
G1 X89.826 Y95.886 E0.58110 ; fill
G1 X89.787 Y95.847 E0.58185 ; fill
G1 F420.000 E0.08185 ; retract
G92 E0 ; reset extrusion distance
G1 X88.011 Y93.067 F6000.000 ; move to first fill point
G1 E0.50000 F420.000 ; compensate retraction
G1 X88.056 Y92.648 E0.50726 F600.000 ; fill
G1 X88.159 Y92.314 E0.51329 ; fill
G1 X88.374 Y91.932 E0.52086 ; fill
G1 X88.682 Y91.624 E0.52836 ; fill
G1 X89.064 Y91.409 E0.53593 ; fill
G1 X89.342 Y91.319 E0.54095 ; fill
G1 X89.817 Y91.261 E0.54921 ; fill
G1 F420.000 E0.04921 ; retract
G92 E0 ; reset extrusion distance
G1 X92.600 Y93.058 F6000.000 ; move to first fill point
G1 E0.50000 F420.000 ; compensate retraction
G1 X92.639 Y93.097 E0.50075 F2700.000 ; fill
G1 X93.005 Y92.910 E0.50634 ; fill
G1 X92.470 Y92.376 E0.51662 ; fill
G1 X92.513 Y91.867 E0.52358 ; fill
G1 X93.371 Y92.724 E0.54008 ; fill
G1 X93.736 Y92.537 E0.54567 ; fill
G1 X93.066 Y91.867 E0.55858 ; fill
G1 X93.618 Y91.867 E0.56610 ; fill
G1 X94.102 Y92.351 E0.57542 ; fill
G1 X94.170 Y91.867 E0.58208 ; fill
G1 X94.468 Y92.165 E0.58782 ; fill
G1 X94.769 Y91.914 E0.59316 ; fill
G1 X94.722 Y91.867 E0.59406 ; fill
G1 X96.231 Y91.589 F6000.000 ; move to first fill point
G1 X96.976 Y91.531 E0.59968 F600.000 ; fill
G1 X98.759 Y91.390 F6000.000 ; move to first fill point
G1 X99.970 Y91.295 E0.62062 F600.000 ; fill
G1 X101.241 Y91.390 E0.64260 ; fill
G1 X103.024 Y91.531 F6000.000 ; move to first fill point
G1 X103.769 Y91.589 E0.64821 F600.000 ; fill
G1 X105.216 Y91.973 F6000.000 ; move to first fill point
G1 X105.279 Y92.036 E0.64941 F2700.000 ; fill
G1 X105.766 Y91.867 E0.65644 ; fill
G1 X106.618 Y92.718 E0.67282 ; fill
G1 X107.429 Y92.873 E0.68407 ; fill
G1 X106.423 Y91.867 E0.70344 ; fill
G1 X107.080 Y91.867 E0.71238 ; fill
G1 X107.550 Y92.336 E0.72142 ; fill
G1 X107.771 Y91.901 E0.72807 ; fill
G1 X107.736 Y91.867 E0.72874 ; fill
G1 F420.000 E0.22874 ; retract
G92 E0 ; reset extrusion distance
G1 X110.183 Y91.261 F6000.000 ; move to first fill point
G1 E0.50000 F420.000 ; compensate retraction
G1 X110.658 Y91.319 E0.50826 F600.000 ; fill
G1 X110.936 Y91.409 E0.51329 ; fill
G1 X111.318 Y91.624 E0.52085 ; fill
G1 X111.626 Y91.932 E0.52836 ; fill
G1 X111.841 Y92.314 E0.53592 ; fill
G1 X111.944 Y92.648 E0.54195 ; fill
G1 X111.989 Y93.067 E0.54921 ; fill
G1 F420.000 E0.04921 ; retract
G92 E0 ; reset extrusion distance
G1 X111.349 Y95.479 F6000.000 ; move to first fill point
G1 E0.50000 F420.000 ; compensate retraction
G1 X111.383 Y95.514 E0.50067 F2700.000 ; fill
G1 X110.921 Y95.697 E0.50744 ; fill
G1 X111.383 Y96.159 E0.51635 ; fill
G1 X111.383 Y96.805 E0.52513 ; fill
G1 X110.396 Y95.818 E0.54414 ; fill
G1 X110.544 Y96.611 E0.55511 ; fill
G1 X111.383 Y97.451 E0.57128 ; fill
G1 X111.214 Y97.927 E0.57816 ; fill
G1 X111.277 Y97.990 E0.57937 ; fill
G1 F420.000 E0.07937 ; retract
G92 E0 ; reset extrusion distance
G1 X111.860 Y101.765 F6000.000 ; move to first fill point
G1 E0.50000 F420.000 ; compensate retraction
G1 X111.978 Y103.320 E0.52690 F600.000 ; fill
G1 X111.860 Y104.827 E0.55296 ; fill
G1 F420.000 E0.05296 ; retract
G92 E0 ; reset extrusion distance
G1 X88.140 Y104.827 F6000.000 ; move to first fill point
G1 E0.50000 F420.000 ; compensate retraction
G1 X88.022 Y103.320 E0.52606 F600.000 ; fill
G1 X88.140 Y101.765 E0.55296 ; fill
M106 S183 ; enable fan
G1 F420.000 E0.05296 ; retract
G92 E0 ; reset extrusion distance
G1 Z0.500 F6000.000 ; move to next layer (1)
G1 X108.643 Y94.236 F6000.000 ; move to first perimeter point
G1 E0.50000 F420.000 ; compensate retraction
G1 X108.405 Y93.768 E0.50650 F2100.000 ; perimeter
G1 X108.323 Y93.250 E0.51299 ; perimeter
G1 X108.405 Y92.732 E0.51949 ; perimeter
G1 X108.643 Y92.264 E0.52598 ; perimeter
G1 X109.014 Y91.893 E0.53248 ; perimeter
G1 X109.482 Y91.655 E0.53897 ; perimeter
G1 X110.000 Y91.573 E0.54547 ; perimeter
G1 X110.459 Y91.645 E0.55122 ; perimeter
G1 X110.518 Y91.655 E0.55196 F2100.000 ; perimeter
G1 X110.986 Y91.893 E0.55846 ; perimeter
G1 X111.357 Y92.264 E0.56496 ; perimeter
G1 X111.595 Y92.732 E0.57145 ; perimeter
G1 X111.677 Y93.250 E0.57795 ; perimeter
G1 X111.595 Y93.768 E0.58444 ; perimeter
G1 X111.357 Y94.236 E0.59094 ; perimeter
G1 X110.986 Y94.607 E0.59743 ; perimeter
G1 X110.518 Y94.845 E0.60393 ; perimeter
G1 X110.000 Y94.927 E0.61043 ; perimeter
G1 X109.482 Y94.845 E0.61692 ; perimeter
G1 X109.014 Y94.607 E0.62342 ; perimeter
G1 X108.680 Y94.273 E0.62926 ; perimeter
G1 F420.000 E0.12926 ; retract
G92 E0 ; reset extrusion distance
G1 X110.474 Y91.587 F6000.000 ; move inwards before travel
G1 X91.677 Y93.250 F6000.000 ; move to first perimeter point
G1 E0.50000 F420.000 ; compensate retraction
G1 X91.595 Y93.768 E0.50650 F2100.000 ; perimeter
G1 X91.357 Y94.236 E0.51299 ; perimeter
