; generated by Slic3r 1.1.7 on 2015-06-21 at 20:04:26

; perimeters extrusion width = 0.35mm
; infill extrusion width = 0.39mm
; solid infill extrusion width = 0.39mm
; top infill extrusion width = 0.39mm

G21 ; set units to millimeters
M107 ; disable fan
G28 ; home all axes
G90 ; use absolute coordinates
G92 E0 ; reset extrusion distance
M82 ; use absolute distances for extrusion
G1 F420.000 E-0.50000 ; retract
G92 E0 ; reset extrusion distance
G1 Z0.250 F6000.000 ; move to next layer (0)
G1 X82.688 Y87.357 F6000.000 ; move to first skirt point
G1 E0.50000 F420.000 ; compensate retraction
G1 X84.430 Y85.941 E0.52779 F1800.000 ; skirt
G1 X87.500 Y85.150 E0.56703 ; skirt
G1 X112.500 Y85.150 E0.87650 ; skirt
G1 X114.710 Y85.547 E0.90429 ; skirt
G1 X116.643 Y86.688 E0.93208 F1800.000 ; skirt
G1 X118.059 Y88.430 E0.95987 ; skirt
G1 X118.850 Y91.500 E0.99911 ; skirt
G1 X118.850 Y108.500 E1.20955 ; skirt
G1 X118.453 Y110.710 E1.23734 ; skirt
G1 X117.312 Y112.643 E1.26513 ; skirt
G1 X115.570 Y114.059 E1.29292 ; skirt
G1 X112.500 Y114.850 E1.33216 ; skirt
G1 X87.500 Y114.850 E1.64163 ; skirt
G1 X85.290 Y114.453 E1.66942 ; skirt
G1 X83.357 Y113.312 E1.69721 ; skirt
G1 X81.941 Y111.570 E1.72500 ; skirt
G1 X81.150 Y108.500 E1.76424 ; skirt
G1 X81.150 Y91.500 E1.97468 ; skirt
G1 X81.547 Y89.290 E2.00247 ; skirt
G1 X82.661 Y87.402 E2.02961 ; skirt
G1 F420.000 E1.52961 ; retract
G92 E0 ; reset extrusion distance
G1 X111.275 Y107.275 F6000.000 ; move to first perimeter point
G1 E0.50000 F420.000 ; compensate retraction
G1 X104.047 Y107.275 E0.58948 F2100.000 ; perimeter
G1 X104.349 Y106.906 E0.59538 ; perimeter
G1 X104.833 Y106.002 E0.60808 ; perimeter
G1 X105.130 Y105.020 E0.62077 ; perimeter
G1 X105.231 Y104.000 E0.63347 ; perimeter
G1 X105.130 Y102.980 E0.64616 ; perimeter
G1 X104.833 Y101.998 E0.65885 ; perimeter
G1 X104.349 Y101.094 E0.67155 ; perimeter
G1 X103.699 Y100.301 E0.68424 ; perimeter
G1 X102.906 Y99.651 E0.69693 ; perimeter
G1 X102.002 Y99.167 E0.70963 ; perimeter
G1 X101.020 Y98.870 E0.72232 ; perimeter
G1 X100.000 Y98.769 E0.73501 ; perimeter
G1 X98.980 Y98.870 E0.74771 ; perimeter
G1 X97.998 Y99.167 E0.76040 ; perimeter
G1 X97.094 Y99.651 E0.77310 ; perimeter
G1 X96.301 Y100.301 E0.78579 ; perimeter
G1 X95.651 Y101.094 E0.79848 ; perimeter
G1 X95.167 Y101.998 E0.81118 ; perimeter
G1 X94.870 Y102.979 E0.82387 ; perimeter
G1 X94.769 Y104.000 E0.83656 ; perimeter
G1 X94.870 Y105.021 E0.84926 ; perimeter
G1 X95.167 Y106.002 E0.86195 ; perimeter
G1 X95.651 Y106.906 E0.87464 ; perimeter
G1 X95.953 Y107.275 E0.88055 ; perimeter
G1 X88.725 Y107.275 E0.97003 ; perimeter
G1 X88.725 Y92.725 E1.15014 ; perimeter
G1 X111.275 Y92.725 E1.42928 ; perimeter
G1 X111.275 Y107.223 E1.60874 ; perimeter
G1 X111.625 Y107.625 F6000.000 ; move to first perimeter point
G1 X103.307 Y107.625 E1.71171 F2100.000 ; perimeter
G1 X104.057 Y106.711 E1.72635 ; perimeter
G1 X104.508 Y105.867 E1.73819 ; perimeter
G1 X104.785 Y104.952 E1.75003 ; perimeter
G1 X104.879 Y104.000 E1.76187 ; perimeter
G1 X104.785 Y103.048 E1.77371 ; perimeter
G1 X104.508 Y102.133 E1.78555 ; perimeter
G1 X104.057 Y101.289 E1.79739 ; perimeter
G1 X103.450 Y100.550 E1.80923 ; perimeter
G1 X102.711 Y99.943 E1.82107 ; perimeter
G1 X101.867 Y99.492 E1.83291 ; perimeter
G1 X100.952 Y99.215 E1.84475 ; perimeter
G1 X100.000 Y99.121 E1.85659 ; perimeter
G1 X99.048 Y99.215 E1.86843 ; perimeter
G1 X98.133 Y99.492 E1.88027 ; perimeter
G1 X97.289 Y99.943 E1.89211 ; perimeter
G1 X96.550 Y100.550 E1.90395 ; perimeter
G1 X95.943 Y101.289 E1.91579 ; perimeter
G1 X95.492 Y102.133 E1.92763 ; perimeter
G1 X95.215 Y103.048 E1.93947 ; perimeter
G1 X95.121 Y104.000 E1.95132 ; perimeter
G1 X95.215 Y104.952 E1.96316 ; perimeter
G1 X95.492 Y105.867 E1.97500 ; perimeter
G1 X95.943 Y106.711 E1.98684 ; perimeter
G1 X96.693 Y107.625 E2.00148 ; perimeter
G1 X88.375 Y107.625 E2.10445 ; perimeter
G1 X88.375 Y92.375 E2.29322 ; perimeter
G1 X111.625 Y92.375 E2.58103 ; perimeter
G1 X111.625 Y107.573 E2.76915 ; perimeter
G1 X111.975 Y107.975 F6000.000 ; move to first perimeter point
G1 X102.259 Y107.975 E2.88943 F2100.000 ; perimeter
G1 X103.201 Y107.201 E2.90452 ; perimeter
G1 X103.765 Y106.515 E2.91551 ; perimeter
G1 X104.183 Y105.733 E2.92649 ; perimeter
G1 X104.441 Y104.883 E2.93748 ; perimeter
G1 X104.528 Y104.000 E2.94847 ; perimeter
G1 X104.441 Y103.117 E2.95945 ; perimeter
G1 X104.183 Y102.267 E2.97044 ; perimeter
G1 X103.765 Y101.485 E2.98143 ; perimeter
G1 X103.201 Y100.799 E2.99241 ; perimeter
G1 X102.515 Y100.235 E3.00340 ; perimeter
G1 X101.733 Y99.817 E3.01439 ; perimeter
G1 X100.883 Y99.559 E3.02537 ; perimeter
G1 X100.000 Y99.472 E3.03636 ; perimeter
G1 X99.117 Y99.559 E3.04735 ; perimeter
G1 X98.267 Y99.817 E3.05833 ; perimeter
G1 X97.485 Y100.235 E3.06932 ; perimeter
G1 X96.799 Y100.799 E3.08031 ; perimeter
G1 X96.235 Y101.485 E3.09130 ; perimeter
G1 X95.817 Y102.267 E3.10228 ; perimeter
G1 X95.559 Y103.117 E3.11327 ; perimeter
G1 X95.472 Y104.000 E3.12426 ; perimeter
G1 X95.559 Y104.883 E3.13524 ; perimeter
G1 X95.817 Y105.733 E3.14623 ; perimeter
G1 X96.235 Y106.515 E3.15722 ; perimeter
G1 X96.799 Y107.201 E3.16820 ; perimeter
G1 X97.741 Y107.975 E3.18330 ; perimeter
G1 X88.025 Y107.975 E3.30357 ; perimeter
G1 X88.025 Y92.025 E3.50101 ; perimeter
G1 X111.975 Y92.025 E3.79748 ; perimeter
G1 X111.975 Y107.923 E3.99427 ; perimeter
G1 X112.325 Y108.325 F6000.000 ; move to first perimeter point
G1 X100.882 Y108.325 E4.13593 F1050.000 ; perimeter
G1 X100.846 Y108.086 E4.13892 ; perimeter
G1 X101.598 Y107.858 E4.14864 ; perimeter
G1 X102.320 Y107.472 E4.15878 ; perimeter
G1 X102.953 Y106.953 E4.16891 ; perimeter
G1 X103.472 Y106.320 E4.17904 ; perimeter
G1 X103.858 Y105.598 E4.18918 ; perimeter
G1 X104.096 Y104.815 E4.19931 ; perimeter
G1 X104.176 Y104.000 E4.20944 ; perimeter
G1 X104.096 Y103.185 E4.21958 ; perimeter
G1 X103.858 Y102.402 E4.22971 ; perimeter
G1 X103.472 Y101.680 E4.23984 ; perimeter
G1 X102.953 Y101.047 E4.24998 ; perimeter
G1 X102.320 Y100.528 E4.26011 ; perimeter
G1 X101.598 Y100.142 E4.27024 ; perimeter
G1 X100.815 Y99.904 E4.28038 ; perimeter
G1 X100.000 Y99.824 E4.29051 ; perimeter
G1 X99.185 Y99.904 E4.30064 ; perimeter
G1 X98.402 Y100.142 E4.31078 ; perimeter
G1 X97.680 Y100.528 E4.32091 ; perimeter
G1 X97.047 Y101.047 E4.33104 ; perimeter
G1 X96.528 Y101.680 E4.34118 ; perimeter
G1 X96.142 Y102.402 E4.35131 ; perimeter
G1 X95.904 Y103.185 E4.36144 ; perimeter
G1 X95.824 Y104.000 E4.37158 ; perimeter
G1 X95.904 Y104.815 E4.38171 ; perimeter
G1 X96.142 Y105.598 E4.39184 ; perimeter
G1 X96.528 Y106.320 E4.40198 ; perimeter
G1 X97.047 Y106.953 E4.41211 ; perimeter
G1 X97.680 Y107.472 E4.42224 ; perimeter
G1 X98.402 Y107.858 E4.43238 ; perimeter
G1 X99.154 Y108.086 E4.44210 ; perimeter
G1 X99.118 Y108.325 E4.44509 ; perimeter
G1 X87.675 Y108.325 E4.58675 ; perimeter
G1 X87.675 Y91.675 E4.79286 ; perimeter
G1 X112.325 Y91.675 E5.09799 ; perimeter
G1 X112.325 Y108.273 E5.30345 ; perimeter
G1 X112.022 Y108.150 F6000.000 ; move inwards before travel
G1 F420.000 E4.80345 ; retract
G92 E0 ; reset extrusion distance
G1 X100.689 Y108.217 F6000.000 ; move to first perimeter point
G1 E0.50000 F420.000 ; compensate retraction
G1 X100.025 Y108.249 E0.50823 F1050.000 ; perimeter
G1 X99.311 Y108.217 E0.51707 ; perimeter
G1 F420.000 E0.01707 ; retract
G92 E0 ; reset extrusion distance
G1 X104.657 Y106.842 F6000.000 ; move to first fill point
G1 E0.50000 F420.000 ; compensate retraction
G1 X104.848 Y107.033 E0.50368 F2700.000 ; fill
G1 X105.395 Y107.033 E0.51111 ; fill
G1 X104.848 Y106.486 E0.52164 ; fill
G1 X105.038 Y106.130 E0.52714 ; fill
G1 X105.941 Y107.033 E0.54452 ; fill
G1 X106.487 Y107.033 E0.55195 ; fill
G1 X105.171 Y105.718 E0.57728 ; fill
G1 X105.299 Y105.299 E0.58324 ; fill
G1 X107.033 Y107.033 E0.61664 ; fill
G1 X107.580 Y107.033 E0.62407 ; fill
G1 X105.391 Y104.844 E0.66621 ; fill
G1 X105.439 Y104.347 E0.67301 ; fill
G1 X108.126 Y107.033 E0.72473 ; fill
G1 X108.672 Y107.033 E0.73216 ; fill
G1 X105.456 Y103.817 E0.79408 ; fill
G1 X105.396 Y103.211 E0.80237 ; fill
G1 X109.219 Y107.033 E0.87595 ; fill
G1 X109.765 Y107.033 E0.88338 ; fill
G1 X105.240 Y102.509 E0.97048 ; fill
G1 X104.912 Y101.635 F6000.000 ; move to first fill point
G1 X110.311 Y107.033 E1.07440 F2700.000 ; fill
G1 X110.857 Y107.033 E1.08183 ; fill
G1 X96.790 Y92.967 E1.35261 ; fill
G1 X97.337 Y92.967 E1.36004 ; fill
G1 X111.033 Y106.663 E1.62369 ; fill
G1 X111.033 Y106.117 E1.63112 ; fill
G1 X97.883 Y92.967 E1.88426 ; fill
G1 X98.429 Y92.967 E1.89169 ; fill
G1 X111.033 Y105.571 E2.13431 ; fill
G1 X111.033 Y105.024 E2.14175 ; fill
G1 X98.976 Y92.967 E2.37385 ; fill
G1 X99.522 Y92.967 E2.38128 ; fill
G1 X111.033 Y104.478 E2.60287 ; fill
G1 X111.033 Y103.932 E2.61031 ; fill
G1 X100.068 Y92.967 E2.82138 ; fill
G1 X100.614 Y92.967 E2.82882 ; fill
G1 X111.033 Y103.386 E3.02937 ; fill
G1 X111.033 Y102.839 E3.03681 ; fill
G1 X101.161 Y92.967 E3.22685 ; fill
G1 X101.707 Y92.967 E3.23429 ; fill
G1 X111.033 Y102.293 E3.41381 ; fill
G1 X111.033 Y101.747 E3.42125 ; fill
G1 X102.253 Y92.967 E3.59026 ; fill
G1 X102.799 Y92.967 E3.59770 ; fill
G1 X111.033 Y101.201 E3.75619 ; fill
G1 X111.033 Y100.654 E3.76363 ; fill
G1 X103.346 Y92.967 E3.91161 ; fill
G1 X103.892 Y92.967 E3.91905 ; fill
G1 X111.033 Y100.108 E4.05651 ; fill
G1 X111.033 Y99.562 E4.06395 ; fill
G1 X104.438 Y92.967 E4.19090 ; fill
G1 X104.984 Y92.967 E4.19834 ; fill
G1 X111.033 Y99.016 E4.31477 ; fill
G1 X111.033 Y98.469 E4.32221 ; fill
G1 X105.531 Y92.967 E4.42813 ; fill
G1 X106.077 Y92.967 E4.43556 ; fill
G1 X111.033 Y97.923 E4.53097 ; fill
G1 X111.033 Y97.377 E4.53841 ; fill
G1 X106.623 Y92.967 E4.62330 ; fill
G1 X107.170 Y92.967 E4.63073 ; fill
G1 X111.033 Y96.830 E4.70511 ; fill
G1 X111.033 Y96.284 E4.71254 ; fill
G1 X107.716 Y92.967 E4.77640 ; fill
G1 X108.262 Y92.967 E4.78384 ; fill
G1 X111.033 Y95.738 E4.83718 ; fill
G1 X111.033 Y95.192 E4.84462 ; fill
G1 X108.808 Y92.967 E4.88745 ; fill
G1 X109.355 Y92.967 E4.89489 ; fill
G1 X111.033 Y94.645 E4.92720 ; fill
G1 X111.033 Y94.099 E4.93464 ; fill
G1 X109.901 Y92.967 E4.95644 ; fill
G1 X110.447 Y92.967 E4.96387 ; fill
G1 X111.033 Y93.553 E4.97516 ; fill
G1 X111.033 Y93.007 E4.98259 ; fill
G1 X110.993 Y92.967 E4.98336 ; fill
G1 F420.000 E4.48336 ; retract
G92 E0 ; reset extrusion distance
G1 X102.365 Y99.088 F6000.000 ; move to first fill point
G1 E0.50000 F420.000 ; compensate retraction
G1 X96.244 Y92.967 E0.61782 F2700.000 ; fill
G1 X95.698 Y92.967 E0.62526 ; fill
G1 X101.491 Y98.760 E0.73678 ; fill
G1 X100.789 Y98.604 E0.74657 ; fill
G1 X95.152 Y92.967 E0.85508 ; fill
G1 X94.605 Y92.967 E0.86252 ; fill
G1 X100.183 Y98.544 E0.96989 ; fill
G1 X99.653 Y98.561 E0.97710 ; fill
G1 X94.059 Y92.967 E1.08478 ; fill
G1 X93.513 Y92.967 E1.09222 ; fill
G1 X99.156 Y98.609 E1.20084 ; fill
G1 X98.701 Y98.701 E1.20715 ; fill
G1 X92.967 Y92.967 E1.31754 ; fill
G1 X92.420 Y92.967 E1.32497 ; fill
G1 X98.282 Y98.829 E1.43781 ; fill
G1 X97.870 Y98.962 E1.44372 ; fill
G1 X91.874 Y92.967 E1.55913 ; fill
G1 X91.328 Y92.967 E1.56656 ; fill
G1 X97.514 Y99.152 E1.68563 ; fill
G1 X97.158 Y99.343 E1.69113 ; fill
G1 X90.781 Y92.967 E1.81386 ; fill
G1 X90.235 Y92.967 E1.82130 ; fill
G1 X96.826 Y99.558 E1.94817 ; fill
G1 X96.526 Y99.804 E1.95345 ; fill
G1 X89.689 Y92.967 E2.08506 ; fill
G1 X89.143 Y92.967 E2.09250 ; fill
G1 X96.226 Y100.050 E2.22885 ; fill
G1 X95.963 Y100.333 E2.23411 ; fill
G1 X88.967 Y93.337 E2.36878 ; fill
G1 X88.967 Y93.883 E2.37622 ; fill
G1 X95.716 Y100.633 E2.50614 ; fill
G1 X95.470 Y100.933 E2.51143 ; fill
G1 X88.967 Y94.429 E2.63662 ; fill
G1 X88.967 Y94.976 E2.64405 ; fill
G1 X95.275 Y101.284 E2.76548 ; fill
G1 X95.085 Y101.640 E2.77098 ; fill
G1 X88.967 Y95.522 E2.88875 ; fill
G1 X88.967 Y96.068 E2.89618 ; fill
G1 X94.911 Y102.012 E3.01060 ; fill
G1 X94.783 Y102.431 E3.01656 ; fill
G1 X88.967 Y96.614 E3.12853 ; fill
G1 X88.967 Y97.161 E3.13597 ; fill
G1 X94.656 Y102.850 E3.24549 ; fill
G1 X94.592 Y103.332 E3.25211 ; fill
G1 X88.967 Y97.707 E3.36039 ; fill
G1 X88.967 Y98.253 E3.36783 ; fill
G1 X94.543 Y103.830 E3.47517 ; fill
G1 X94.566 Y104.398 E3.48292 ; fill
G1 X88.967 Y98.799 E3.59070 ; fill
G1 X88.967 Y99.346 E3.59813 ; fill
G1 X94.625 Y105.004 E3.70705 ; fill
G1 X94.844 Y105.770 E3.71789 ; fill
G1 X88.967 Y99.892 E3.83104 ; fill
G1 X88.967 Y100.438 E3.83847 ; fill
G1 X95.310 Y106.782 E3.96058 ; fill
G1 X95.016 Y107.033 E3.96586 ; fill
G1 X88.967 Y100.984 E4.08229 ; fill
G1 X88.967 Y101.531 E4.08973 ; fill
G1 X94.469 Y107.033 E4.19565 ; fill
G1 X93.923 Y107.033 E4.20309 ; fill
G1 X88.967 Y102.077 E4.29849 ; fill
G1 X88.967 Y102.623 E4.30593 ; fill
G1 X93.377 Y107.033 E4.39082 ; fill
G1 X92.830 Y107.033 E4.39825 ; fill
G1 X88.967 Y103.170 E4.47263 ; fill
G1 X88.967 Y103.716 E4.48007 ; fill
G1 X92.284 Y107.033 E4.54393 ; fill
G1 X91.738 Y107.033 E4.55136 ; fill
G1 X88.967 Y104.262 E4.60471 ; fill
G1 X88.967 Y104.808 E4.61214 ; fill
G1 X91.192 Y107.033 E4.65497 ; fill
G1 X90.645 Y107.033 E4.66241 ; fill
G1 X88.967 Y105.355 E4.69472 ; fill
G1 X88.967 Y105.901 E4.70216 ; fill
G1 X90.099 Y107.033 E4.72396 ; fill
G1 X89.553 Y107.033 E4.73139 ; fill
G1 X88.967 Y106.447 E4.74268 ; fill
G1 X88.967 Y106.993 E4.75012 ; fill
G1 X89.007 Y107.033 E4.75088 ; fill
M106 S115 ; enable fan
G1 F420.000 E4.25088 ; retract
G92 E0 ; reset extrusion distance
G1 Z0.500 F6000.000 ; move to next layer (1)
G1 X111.275 Y107.275 F6000.000 ; move to first perimeter point
G1 E0.50000 F420.000 ; compensate retraction
G1 X104.047 Y107.275 E0.58948 F4200.000 ; perimeter
G1 X104.349 Y106.906 E0.59538 ; perimeter
G1 X104.833 Y106.002 E0.60808 ; perimeter
G1 X105.130 Y105.021 E0.62077 ; perimeter
G1 X105.231 Y104.000 E0.63347 ; perimeter
G1 X105.130 Y102.980 E0.64616 ; perimeter
G1 X104.833 Y101.998 E0.65885 ; perimeter
G1 X104.349 Y101.094 E0.67155 ; perimeter
G1 X103.699 Y100.301 E0.68424 ; perimeter
G1 X102.906 Y99.651 E0.69693 ; perimeter
G1 X102.002 Y99.167 E0.70963 ; perimeter
G1 X101.020 Y98.870 E0.72232 ; perimeter
G1 X100.000 Y98.769 E0.73501 ; perimeter
G1 X98.980 Y98.870 E0.74771 ; perimeter
G1 X97.998 Y99.167 E0.76040 ; perimeter
G1 X97.094 Y99.651 E0.77310 ; perimeter
G1 X96.301 Y100.301 E0.78579 ; perimeter
G1 X95.651 Y101.094 E0.79848 ; perimeter
G1 X95.167 Y101.998 E0.81118 ; perimeter
G1 X94.870 Y102.979 E0.82387 ; perimeter
G1 X94.769 Y104.000 E0.83656 ; perimeter
G1 X94.870 Y105.021 E0.84926 ; perimeter
G1 X95.167 Y106.002 E0.86195 ; perimeter
G1 X95.651 Y106.906 E0.87464 ; perimeter
G1 X95.953 Y107.275 E0.88055 ; perimeter
G1 X88.725 Y107.275 E0.97003 ; perimeter
G1 X88.725 Y92.725 E1.15014 ; perimeter
G1 X111.275 Y92.725 E1.42928 ; perimeter
G1 X111.275 Y107.223 E1.60874 ; perimeter
G1 X111.625 Y107.625 F6000.000 ; move to first perimeter point
G1 X103.307 Y107.625 E1.71171 F4200.000 ; perimeter
G1 X104.057 Y106.711 E1.72635 ; perimeter
G1 X104.508 Y105.867 E1.73819 ; perimeter
G1 X104.785 Y104.952 E1.75003 ; perimeter
G1 X104.879 Y104.000 E1.76187 ; perimeter
G1 X104.785 Y103.048 E1.77371 ; perimeter
G1 X104.508 Y102.133 E1.78555 ; perimeter
G1 X104.057 Y101.289 E1.79739 ; perimeter
G1 X103.450 Y100.550 E1.80923 ; perimeter
G1 X102.711 Y99.943 E1.82107 ; perimeter
G1 X101.867 Y99.492 E1.83291 ; perimeter
G1 X100.952 Y99.215 E1.84475 ; perimeter
G1 X100.000 Y99.121 E1.85659 ; perimeter
G1 X99.048 Y99.215 E1.86843 ; perimeter
G1 X98.133 Y99.492 E1.88027 ; perimeter
G1 X97.289 Y99.943 E1.89211 ; perimeter
G1 X96.550 Y100.550 E1.90395 ; perimeter
G1 X95.943 Y101.289 E1.91579 ; perimeter
G1 X95.492 Y102.133 E1.92763 ; perimeter
G1 X95.215 Y103.048 E1.93947 ; perimeter
G1 X95.121 Y104.000 E1.95132 ; perimeter
G1 X95.215 Y104.952 E1.96316 ; perimeter
G1 X95.492 Y105.867 E1.97500 ; perimeter
G1 X95.943 Y106.711 E1.98684 ; perimeter
G1 X96.693 Y107.625 E2.00148 ; perimeter
G1 X88.375 Y107.625 E2.10445 ; perimeter
G1 X88.375 Y92.375 E2.29322 ; perimeter
G1 X111.625 Y92.375 E2.58103 ; perimeter
G1 X111.625 Y107.573 E2.76915 ; perimeter
G1 X111.975 Y107.975 F6000.000 ; move to first perimeter point
