; generated by Slic3r 0.9.7 on 2013-01-25 at 18:26:04

; layer_height = 0.25
; perimeters = 3
; top_solid_layers = 3
; bottom_solid_layers = 3
; fill_density = 0.15
; perimeter_speed = 70
; infill_speed = 90
; travel_speed = 100
; scale = 1
; nozzle_diameter = 0.35
; filament_diameter = 2.9
; extrusion_multiplier = 1
; perimeters extrusion width = 0.39mm
; infill extrusion width = 0.39mm
; first layer extrusion width = 0.39mm

G28 ; home all axes
G90 ; use absolute coordinates
G21 ; set units to millimeters
G92 E0
M82 ; use absolute distances for extrusion
G1 F420.000 E-0.50000
G92 E0
G1 Z0.250 F6000.000
G1 X62.570 Y82.150
G1 F420.000 E0.50000
G1 X63.000 Y81.840 F2100.000 E0.50772
G1 X63.450 Y81.570 E0.51537
G1 X64.170 Y81.240 E0.52690
G1 X64.670 Y81.070 E0.53459
G1 X65.180 Y80.940 E0.54226
G1 X65.700 Y80.850 E0.54995
G1 X66.230 Y80.810 E0.55769
G1 X133.760 Y80.810 E1.54133
G1 X134.290 Y80.850 E1.54907
G1 X135.070 Y81.000 E1.56064
G1 X135.820 Y81.240 E1.57211
G1 X136.300 Y81.450 E1.57974
G1 X136.540 Y81.570 E1.58365
G1 X136.990 Y81.840 E1.59130
G1 X137.630 Y82.320 E1.60295
G1 X137.820 Y82.490 E1.60666
G1 X138.370 Y83.060 E1.61820
G1 X138.850 Y83.700 E1.62985
G1 X139.120 Y84.150 E1.63750
G1 X139.240 Y84.390 E1.64141
G1 X139.450 Y84.870 E1.64904
G1 X139.620 Y85.370 E1.65673
G1 X139.800 Y86.140 E1.66825
G1 X139.840 Y86.400 E1.67208
G1 X139.880 Y86.930 E1.67982
G1 X139.880 Y113.060 E2.06043
G1 X139.840 Y113.590 E2.06817
G1 X139.690 Y114.370 E2.07974
G1 X139.450 Y115.120 E2.09121
G1 X139.240 Y115.600 E2.09884
G1 X139.120 Y115.840 E2.10275
G1 X138.850 Y116.290 E2.11040
G1 X138.540 Y116.720 E2.11812
G1 X138.200 Y117.120 E2.12577
G1 X137.630 Y117.670 E2.13730
G1 X137.210 Y118.000 E2.14508
G1 X136.540 Y118.420 E2.15660
G1 X135.820 Y118.750 E2.16814
G1 X135.320 Y118.920 E2.17583
G1 X134.810 Y119.050 E2.18350
G1 X134.290 Y119.140 E2.19118
G1 X133.760 Y119.180 E2.19893
G1 X66.230 Y119.180 E3.18257
G1 X65.700 Y119.140 E3.19031
G1 X64.920 Y118.990 E3.20188
G1 X64.170 Y118.750 E3.21335
G1 X63.690 Y118.540 E3.22098
G1 X63.450 Y118.420 E3.22489
G1 X63.000 Y118.150 E3.23253
G1 X62.360 Y117.670 E3.24419
G1 X62.170 Y117.500 E3.24790
G1 X61.620 Y116.930 E3.25944
G1 X61.140 Y116.290 E3.27109
G1 X60.870 Y115.840 E3.27873
G1 X60.750 Y115.600 E3.28264
G1 X60.540 Y115.120 E3.29027
G1 X60.370 Y114.620 E3.29797
G1 X60.190 Y113.850 E3.30948
G1 X60.150 Y113.590 E3.31332
G1 X60.110 Y113.060 E3.32106
G1 X60.110 Y86.930 E3.70167
G1 X60.150 Y86.400 E3.70941
G1 X60.240 Y85.880 E3.71710
G1 X60.370 Y85.370 E3.72476
G1 X60.540 Y84.870 E3.73245
G1 X60.870 Y84.150 E3.74399
G1 X61.290 Y83.480 E3.75551
G1 X61.620 Y83.060 E3.76329
G1 X62.170 Y82.490 E3.77483
G1 X62.525 Y82.186 E3.78163
G1 X62.570 Y82.150 E3.78247
G1 F420.000 E3.28247
G92 E0
G1 X70.313 Y92.745 F6000.000
G1 F420.000 E0.50000
G1 X71.561 Y92.065 F1500.000 E0.52069
G1 X72.980 Y91.995 E0.54138
G1 X74.289 Y92.546 E0.56207
G1 X75.228 Y93.611 E0.58276
G1 X75.613 Y94.979 E0.60345
G1 X75.366 Y96.378 E0.62414
G1 X74.537 Y97.531 E0.64483
G1 X73.290 Y98.210 E0.66552
G1 X71.871 Y98.281 E0.68621
G1 X70.562 Y97.729 E0.70690
G1 X69.622 Y96.664 E0.72759
G1 X69.238 Y95.297 E0.74828
G1 X69.484 Y93.898 E0.76897
G1 X70.280 Y92.792 E0.78882
G1 X70.313 Y92.745 E0.78967
G1 X70.575 Y93.041 F6000.000
G1 X71.668 Y92.445 F1500.000 E0.80780
G1 X72.911 Y92.383 E0.82593
G1 X74.058 Y92.867 E0.84406
G1 X74.882 Y93.800 E0.86219
G1 X75.219 Y94.998 E0.88032
G1 X75.003 Y96.224 E0.89845
G1 X74.276 Y97.235 E0.91658
G1 X73.183 Y97.830 E0.93472
G1 X71.940 Y97.892 E0.95285
G1 X70.793 Y97.409 E0.97098
G1 X69.969 Y96.476 E0.98911
G1 X69.632 Y95.277 E1.00724
G1 X69.848 Y94.051 E1.02537
G1 X70.541 Y93.088 E1.04266
G1 X70.575 Y93.041 E1.04351
G1 X70.836 Y93.337 F6000.000
G1 X71.775 Y92.825 F1500.000 E1.05908
G1 X72.843 Y92.772 E1.07465
G1 X73.828 Y93.187 E1.09022
G1 X74.535 Y93.989 E1.10580
G1 X74.825 Y95.018 E1.12137
G1 X74.639 Y96.071 E1.13694
G1 X74.015 Y96.939 E1.15251
G1 X73.076 Y97.450 E1.16809
G1 X72.008 Y97.504 E1.18366
G1 X71.023 Y97.088 E1.19923
G1 X70.316 Y96.287 E1.21480
G1 X70.026 Y95.258 E1.23038
G1 X70.212 Y94.205 E1.24595
G1 X70.802 Y93.384 E1.26068
G1 X70.836 Y93.337 E1.26152
G1 F420.000 E0.76152
G92 E0
G1 X71.871 Y101.719 F6000.000
G1 F420.000 E0.50000
G1 X73.290 Y101.790 F1500.000 E0.52069
G1 X74.537 Y102.469 E0.54138
G1 X75.366 Y103.622 E0.56207
G1 X75.613 Y105.021 E0.58276
G1 X75.228 Y106.389 E0.60345
G1 X74.289 Y107.454 E0.62414
G1 X72.980 Y108.005 E0.64483
G1 X71.561 Y107.935 E0.66552
G1 X70.313 Y107.255 E0.68621
G1 X69.484 Y106.102 E0.70690
G1 X69.238 Y104.703 E0.72759
G1 X69.622 Y103.336 E0.74828
G1 X70.562 Y102.271 E0.76897
G1 X71.818 Y101.741 E0.78882
G1 X71.871 Y101.719 E0.78967
G1 X71.940 Y102.108 F6000.000
G1 X73.183 Y102.170 F1500.000 E0.80780
G1 X74.276 Y102.765 E0.82593
G1 X75.003 Y103.776 E0.84406
G1 X75.219 Y105.002 E0.86219
G1 X74.882 Y106.200 E0.88032
G1 X74.058 Y107.133 E0.89845
G1 X72.911 Y107.617 E0.91658
G1 X71.668 Y107.555 E0.93472
G1 X70.575 Y106.959 E0.95285
G1 X69.848 Y105.949 E0.97098
G1 X69.632 Y104.723 E0.98911
G1 X69.969 Y103.524 E1.00724
G1 X70.793 Y102.591 E1.02537
G1 X71.887 Y102.130 E1.04266
G1 X71.940 Y102.108 E1.04351
G1 X72.008 Y102.496 F6000.000
G1 X73.076 Y102.550 F1500.000 E1.05908
G1 X74.015 Y103.061 E1.07465
G1 X74.639 Y103.929 E1.09022
G1 X74.825 Y104.982 E1.10579
G1 X74.535 Y106.011 E1.12137
G1 X73.828 Y106.813 E1.13694
G1 X72.843 Y107.228 E1.15251
G1 X71.775 Y107.175 E1.16809
G1 X70.836 Y106.663 E1.18366
G1 X70.212 Y105.795 E1.19923
G1 X70.026 Y104.742 E1.21480
G1 X70.316 Y103.713 E1.23038
G1 X71.023 Y102.912 E1.24595
G1 X71.955 Y102.519 E1.26068
G1 X72.008 Y102.496 E1.26152
G1 F420.000 E0.76152
G92 E0
G1 X81.717 Y112.037 F6000.000
G1 F420.000 E0.50000
G1 X67.267 Y112.037 F2100.000 E0.71048
G1 X67.267 Y87.963 E1.06114
G1 X81.717 Y87.963 E1.27162
G1 X79.927 Y91.063 E1.32376
G1 X78.508 Y95.432 E1.39067
G1 X78.028 Y100.000 E1.45757
G1 X78.508 Y104.568 E1.52448
G1 X79.927 Y108.937 E1.59139
G1 X81.688 Y111.987 E1.64269
G1 X81.717 Y112.037 E1.64353
G1 X82.384 Y112.422 F6000.000
G1 X66.882 Y112.422 F2100.000 E1.86933
G1 X66.882 Y87.578 E2.23119
G1 X82.384 Y87.578 E2.45699
G1 X80.281 Y91.220 E2.51825
G1 X78.886 Y95.512 E2.58398
G1 X78.415 Y100.000 E2.64971
G1 X78.886 Y104.488 E2.71544
G1 X80.281 Y108.780 E2.78117
G1 X82.355 Y112.372 E2.84159
G1 X82.384 Y112.422 E2.84243
G1 X82.785 Y112.347 F6000.000
G1 X82.850 Y112.460 F1050.000 E2.84433
G1 X83.162 Y112.807 E2.85112
G1 X66.497 Y112.807 E3.09386
G1 X66.497 Y87.193 E3.46694
G1 X83.162 Y87.193 E3.70968
G1 X82.850 Y87.540 E3.71647
G1 X80.634 Y91.378 E3.78102
G1 X79.265 Y95.593 E3.84558
G1 X78.802 Y100.000 E3.91013
G1 X79.265 Y104.407 E3.97468
G1 X80.634 Y108.622 E4.03923
G1 X82.756 Y112.297 E4.10104
G1 X82.785 Y112.347 E4.10188
G1 X82.785 Y112.732 F6000.000
G1 F420.000 E3.60188
G92 E0
G1 X124.634 Y96.378 F6000.000
G1 F420.000 E0.50000
G1 X124.387 Y94.979 F1500.000 E0.52069
G1 X124.772 Y93.611 E0.54138
G1 X125.711 Y92.546 E0.56207
G1 X127.020 Y91.995 E0.58276
G1 X128.439 Y92.065 E0.60345
G1 X129.687 Y92.745 E0.62414
G1 X130.516 Y93.898 E0.64483
G1 X130.762 Y95.297 E0.66552
G1 X130.378 Y96.664 E0.68621
G1 X129.438 Y97.729 E0.70690
G1 X128.129 Y98.281 E0.72759
G1 X126.710 Y98.210 E0.74828
G1 X125.463 Y97.531 E0.76897
G1 X124.667 Y96.424 E0.78882
G1 X124.634 Y96.378 E0.78967
G1 X124.997 Y96.224 F6000.000
G1 X124.781 Y94.998 F1500.000 E0.80780
G1 X125.118 Y93.800 E0.82593
G1 X125.942 Y92.867 E0.84406
G1 X127.089 Y92.383 E0.86219
G1 X128.332 Y92.445 E0.88032
G1 X129.425 Y93.041 E0.89845
G1 X130.152 Y94.051 E0.91658
G1 X130.368 Y95.277 E0.93472
G1 X130.031 Y96.476 E0.95285
G1 X129.207 Y97.409 E0.97098
G1 X128.060 Y97.892 E0.98911
G1 X126.817 Y97.830 E1.00724
G1 X125.724 Y97.235 E1.02537
G1 X125.031 Y96.271 E1.04266
G1 X124.997 Y96.224 E1.04351
G1 X125.361 Y96.071 F6000.000
G1 X125.175 Y95.018 F1500.000 E1.05908
G1 X125.465 Y93.989 E1.07465
G1 X126.172 Y93.187 E1.09022
G1 X127.157 Y92.772 E1.10580
G1 X128.225 Y92.825 E1.12137
G1 X129.164 Y93.337 E1.13694
G1 X129.788 Y94.205 E1.15251
G1 X129.974 Y95.258 E1.16809
G1 X129.684 Y96.287 E1.18366
G1 X128.977 Y97.088 E1.19923
G1 X127.992 Y97.504 E1.21480
G1 X126.924 Y97.450 E1.23038
G1 X125.985 Y96.939 E1.24595
G1 X125.395 Y96.118 E1.26068
G1 X125.361 Y96.071 E1.26152
G1 F420.000 E0.76152
G92 E0
G1 X126.710 Y101.790 F6000.000
G1 F420.000 E0.50000
G1 X128.129 Y101.719 F1500.000 E0.52069
G1 X129.438 Y102.271 E0.54138
G1 X130.378 Y103.336 E0.56207
G1 X130.762 Y104.703 E0.58276
G1 X130.516 Y106.102 E0.60345
G1 X129.687 Y107.255 E0.62414
G1 X128.439 Y107.935 E0.64483
G1 X127.020 Y108.005 E0.66552
G1 X125.711 Y107.454 E0.68621
G1 X124.772 Y106.389 E0.70690
G1 X124.387 Y105.021 E0.72759
G1 X124.634 Y103.622 E0.74828
G1 X125.463 Y102.469 E0.76897
G1 X126.659 Y101.817 E0.78882
G1 X126.710 Y101.790 E0.78967
G1 X126.817 Y102.170 F6000.000
G1 X128.060 Y102.108 F1500.000 E0.80780
G1 X129.207 Y102.591 E0.82593
G1 X130.031 Y103.524 E0.84406
G1 X130.368 Y104.723 E0.86219
G1 X130.152 Y105.949 E0.88032
G1 X129.425 Y106.959 E0.89845
G1 X128.332 Y107.555 E0.91658
G1 X127.089 Y107.617 E0.93472
G1 X125.942 Y107.133 E0.95285
G1 X125.118 Y106.200 E0.97098
G1 X124.781 Y105.002 E0.98911
G1 X124.997 Y103.776 E1.00724
G1 X125.724 Y102.765 E1.02537
G1 X126.766 Y102.197 E1.04266
G1 X126.817 Y102.170 E1.04351
G1 X126.924 Y102.550 F6000.000
G1 X127.992 Y102.496 F1500.000 E1.05908
G1 X128.977 Y102.912 E1.07465
G1 X129.684 Y103.713 E1.09022
G1 X129.974 Y104.742 E1.10580
G1 X129.788 Y105.795 E1.12137
G1 X129.164 Y106.663 E1.13694
G1 X128.225 Y107.175 E1.15251
G1 X127.157 Y107.228 E1.16809
G1 X126.172 Y106.813 E1.18366
G1 X125.465 Y106.011 E1.19923
G1 X125.175 Y104.982 E1.21480
G1 X125.361 Y103.929 E1.23038
G1 X125.985 Y103.061 E1.24595
G1 X126.873 Y102.577 E1.26068
G1 X126.924 Y102.550 E1.26152
G1 F420.000 E0.76152
G92 E0
G1 X118.283 Y87.963 F6000.000
G1 F420.000 E0.50000
G1 X132.733 Y87.963 F2100.000 E0.71048
G1 X132.733 Y112.037 E1.06114
G1 X118.283 Y112.037 E1.27162
G1 X120.073 Y108.937 E1.32376
G1 X121.492 Y104.568 E1.39067
G1 X121.972 Y100.000 E1.45757
G1 X121.492 Y95.432 E1.52448
G1 X120.073 Y91.063 E1.59139
G1 X118.312 Y88.013 E1.64269
G1 X118.283 Y87.963 E1.64353
G1 X117.616 Y87.578 F6000.000
G1 X133.118 Y87.578 F2100.000 E1.86933
G1 X133.118 Y112.422 E2.23119
G1 X117.616 Y112.422 E2.45699
G1 X119.719 Y108.779 E2.51825
G1 X121.114 Y104.488 E2.58398
G1 X121.585 Y100.000 E2.64971
G1 X121.114 Y95.512 E2.71544
G1 X119.719 Y91.221 E2.78117
G1 X117.645 Y87.628 E2.84159
G1 X117.616 Y87.578 E2.84243
G1 X117.150 Y87.540 F6000.000
G1 X116.838 Y87.193 F1050.000 E2.84922
G1 X133.503 Y87.193 E3.09196
G1 X133.503 Y112.807 E3.46504
G1 X116.838 Y112.807 E3.70778
G1 X117.150 Y112.460 E3.71457
G1 X119.366 Y108.622 E3.77912
G1 X120.735 Y104.407 E3.84367
G1 X121.198 Y100.000 E3.90823
G1 X120.735 Y95.593 E3.97278
G1 X119.366 Y91.378 E4.03733
G1 X117.179 Y87.590 E4.10104
G1 X117.150 Y87.540 E4.10188
G1 X117.150 Y87.153 F6000.000
G1 F420.000 E3.60188
G92 E0
G1 X130.661 Y96.521 F6000.000
G1 F420.000 E0.50000
G1 X132.471 Y98.331 F2700.000 E0.53753
G1 X132.471 Y97.783 E0.54556
G1 X130.781 Y96.093 E0.58060
G1 X130.901 Y95.666 E0.58711
G1 X132.471 Y97.235 E0.61965
G1 X132.471 Y96.688 E0.62768
G1 X131.022 Y95.238 E0.65773
G1 X130.929 Y94.598 E0.66722
G1 X132.471 Y96.140 E0.69919
G1 X132.471 Y95.592 E0.70722
G1 X130.812 Y93.933 E0.74162
G1 X130.010 Y92.583 E0.76464
G1 X132.471 Y95.044 E0.81567
G1 X132.471 Y94.496 E0.82370
G1 X126.200 Y88.225 E0.95372
G1 X125.652 Y88.225 E0.96175
G1 X129.912 Y92.485 E1.05007
G1 X128.709 Y91.830 E1.07015
G1 X125.104 Y88.225 E1.14488
G1 X124.557 Y88.225 E1.15291
G1 X128.111 Y91.780 E1.22662
G1 X127.535 Y91.751 E1.23508
G1 X124.009 Y88.225 E1.30819
G1 X123.461 Y88.225 E1.31622
G1 X126.997 Y91.761 E1.38953
G1 X126.611 Y91.924 E1.39566
G1 X122.913 Y88.225 E1.47233
G1 X122.365 Y88.225 E1.48037
G1 X126.226 Y92.086 E1.56041
G1 X125.841 Y92.249 E1.56654
G1 X121.818 Y88.225 E1.64996
G1 X121.270 Y88.225 E1.65799
G1 X125.505 Y92.460 E1.74580
G1 X125.248 Y92.751 E1.75149
G1 X120.722 Y88.225 E1.84533
G1 X120.174 Y88.225 E1.85336
G1 X124.991 Y93.042 E1.95323
G1 X124.734 Y93.333 E1.95892
G1 X119.626 Y88.225 E2.06483
G1 X119.078 Y88.225 E2.07286
G1 X124.515 Y93.662 E2.18557
G1 X124.394 Y94.089 E2.19208
G1 X119.231 Y88.926 E2.29913
G1 X119.980 Y90.222 E2.32108
G1 X124.274 Y94.517 E2.41011
G1 X124.154 Y94.944 E2.41663
G1 X120.453 Y91.244 E2.49336
G1 X120.717 Y92.055 E2.50587
G1 X124.195 Y95.533 E2.57798
G1 X124.312 Y96.198 E2.58788
G1 X120.980 Y92.866 E2.65696
G1 X121.244 Y93.678 E2.66946
G1 X124.834 Y97.268 E2.74390
G1 F420.000 E2.24390
G92 E0
G1 X129.700 Y97.752 F6000.000
G1 F420.000 E0.50000
G1 X132.471 Y100.522 F2700.000 E0.55744
G1 X132.471 Y99.974 E0.56547
G1 X129.957 Y97.461 E0.61759
G1 X130.214 Y97.170 E0.62328
G1 X132.471 Y99.427 E0.67007
G1 X132.471 Y98.879 E0.67810
G1 X130.471 Y96.879 E0.71956
G1 F420.000 E0.21956
G92 E0
G1 X119.072 Y111.775 F6000.000
G1 F420.000 E0.50000
G1 X118.827 Y111.529 F2700.000 E0.50508
G1 X119.027 Y111.182 E0.51096
G1 X119.620 Y111.775 E0.52324
G1 X120.168 Y111.775 E0.53127
G1 X119.228 Y110.835 E0.55076
G1 X119.428 Y110.488 E0.55664
G1 X120.715 Y111.775 E0.58332
G1 X121.263 Y111.775 E0.59135
G1 X119.629 Y110.140 E0.62523
G1 X119.829 Y109.793 E0.63111
G1 X121.811 Y111.775 E0.67220
G1 X122.359 Y111.775 E0.68023
G1 X120.030 Y109.446 E0.72852
G1 X120.230 Y109.098 E0.73440
G1 X122.907 Y111.775 E0.78988
G1 X123.454 Y111.774 E0.79791
G1 X120.389 Y108.709 E0.86147
G1 X120.523 Y108.296 E0.86784
G1 X124.002 Y111.775 E0.93998
G1 X124.550 Y111.775 E0.94801
G1 X120.658 Y107.882 E1.02871
G1 X120.792 Y107.469 E1.03509
G1 X125.098 Y111.775 E1.12436
G1 X125.646 Y111.775 E1.13240
G1 X120.926 Y107.055 E1.23025
G1 X121.061 Y106.642 E1.23662
G1 X126.193 Y111.775 E1.34304
G1 X126.741 Y111.775 E1.35107
G1 X121.195 Y106.228 E1.46607
G1 X121.329 Y105.815 E1.47244
G1 X127.289 Y111.775 E1.59601
G1 X127.837 Y111.775 E1.60404
G1 X121.464 Y105.401 E1.73618
G1 X121.598 Y104.988 E1.74256
G1 X128.385 Y111.774 E1.88327
G1 X128.932 Y111.775 E1.89130
G1 X121.732 Y104.574 E2.04059
G1 X121.794 Y104.088 E2.04777
G1 X129.480 Y111.775 E2.20714
G1 X130.028 Y111.775 E2.21517
G1 X126.303 Y108.050 E2.29240
G1 X127.061 Y108.260 E2.30393
G1 X130.576 Y111.775 E2.37680
G1 X131.124 Y111.775 E2.38483
G1 X127.583 Y108.234 E2.45824
G1 X128.105 Y108.208 E2.46590
G1 X131.672 Y111.775 E2.53985
G1 X132.219 Y111.775 E2.54788
G1 X128.562 Y108.117 E2.62372
G1 X128.916 Y107.924 E2.62964
G1 X132.471 Y111.478 E2.70334
G1 X132.471 Y110.930 E2.71137
G1 X129.271 Y107.730 E2.77772
G1 X129.626 Y107.537 E2.78364
G1 X132.471 Y110.383 E2.84263
G1 X132.471 Y109.835 E2.85066
G1 X129.925 Y107.289 E2.90344
G1 X130.154 Y106.971 E2.90919
G1 X132.471 Y109.287 E2.95722
G1 X132.471 Y108.739 E2.96525
G1 X130.384 Y106.652 E3.00853
G1 X130.613 Y106.333 E3.01428
G1 X132.471 Y108.191 E3.05281
G1 X132.471 Y107.644 E3.06084
G1 X130.787 Y105.960 E3.09575
G1 X130.869 Y105.495 E3.10268
G1 X132.471 Y107.096 E3.13588
G1 X132.471 Y106.548 E3.14391
G1 X130.952 Y105.029 E3.17541
G1 X131.034 Y104.563 E3.18235
G1 X132.471 Y106.000 E3.21214
G1 X132.471 Y105.452 E3.22017
G1 X130.821 Y103.802 E3.25439
G1 X130.606 Y103.040 E3.26600
G1 X132.471 Y104.905 E3.30466
G1 X132.471 Y104.357 E3.31269
G1 X126.587 Y98.473 E3.43469
G1 X127.164 Y98.502 E3.44315
G1 X132.471 Y103.809 E3.55319
G1 X132.471 Y103.261 E3.56122
G1 X127.740 Y98.531 E3.65931
G1 X128.237 Y98.479 E3.66662
G1 X132.471 Y102.713 E3.75441
G1 X132.471 Y102.166 E3.76245
G1 X128.622 Y98.317 E3.84225
G1 X129.007 Y98.154 E3.84838
G1 X132.471 Y101.618 E3.92019
G1 X132.471 Y101.070 E3.92822
G1 X129.393 Y97.992 E3.99205
G1 F420.000 E3.49205
G92 E0
G1 X125.160 Y102.524 F6000.000
G1 F420.000 E0.50000
G1 X122.204 Y99.568 F2700.000 E0.56129
G1 X122.211 Y100.123 E0.56942
G1 X124.931 Y102.843 E0.62581
G1 X124.702 Y103.161 E0.63156
G1 X122.159 Y100.618 E0.68429
G1 X122.107 Y101.114 E0.69160
G1 X124.473 Y103.480 E0.74065
G1 X124.339 Y103.894 E0.74703
G1 X122.054 Y101.610 E0.79440
G1 X122.002 Y102.105 E0.80171
G1 X124.257 Y104.360 E0.84845
