; generated by Slic3r 0.9.7 on 2013-02-15 at 00:39:51

; layer_height = 0.25
; perimeters = 3
; top_solid_layers = 4
; bottom_solid_layers = 3
; fill_density = 0.15
; perimeter_speed = 70
; infill_speed = 90
; travel_speed = 100
; scale = 1
; nozzle_diameter = 0.35
; filament_diameter = 2.9
; extrusion_multiplier = 1
; perimeters extrusion width = 0.39mm
; infill extrusion width = 0.39mm
; first layer extrusion width = 0.39mm

M107
G28 ; home all axes
G90 ; use absolute coordinates
G21 ; set units to millimeters
G92 E0
M82 ; use absolute distances for extrusion
G1 F420.000 E-0.50000
G92 E0
G1 Z0.250 F6000.000
G1 X82.200 Y86.390
G1 F420.000 E0.50000
G1 X82.720 Y85.970 F2100.000 E0.50974
G1 X82.990 Y85.780 E0.51455
G1 X83.280 Y85.610 E0.51944
G1 X85.240 Y84.600 E0.55156
G1 X85.850 Y84.330 E0.56128
G1 X86.160 Y84.220 E0.56607
G1 X86.790 Y84.050 E0.57557
G1 X88.970 Y83.690 E0.60776
G1 X89.670 Y83.610 E0.61802
G1 X109.670 Y82.610 E0.90970
G1 X110.210 Y82.610 E0.91757
G1 X110.740 Y82.650 E0.92531
G1 X112.870 Y82.990 E0.95673
G1 X113.190 Y83.050 E0.96147
G1 X113.830 Y83.220 E0.97112
G1 X114.140 Y83.330 E0.97591
G1 X114.750 Y83.600 E0.98562
G1 X116.420 Y84.450 E1.01292
G1 X117.000 Y84.780 E1.02264
G1 X117.270 Y84.970 E1.02745
G1 X117.790 Y85.390 E1.03718
G1 X119.600 Y87.200 E1.07447
G1 X120.020 Y87.720 E1.08421
G1 X120.210 Y87.990 E1.08901
G1 X120.380 Y88.280 E1.09391
G1 X121.390 Y90.240 E1.12603
G1 X121.660 Y90.850 E1.13574
G1 X121.770 Y91.160 E1.14054
G1 X121.870 Y91.480 E1.14542
G1 X121.940 Y91.800 E1.15019
G1 X122.300 Y94.000 E1.18266
G1 X122.380 Y95.010 E1.19742
G1 X122.380 Y104.980 E1.34264
G1 X122.300 Y105.990 E1.35740
G1 X121.940 Y108.190 E1.38987
G1 X121.870 Y108.510 E1.39464
G1 X121.660 Y109.140 E1.40432
G1 X121.390 Y109.750 E1.41403
G1 X120.380 Y111.710 E1.44615
G1 X120.210 Y112.000 E1.45105
G1 X120.020 Y112.270 E1.45585
G1 X119.600 Y112.790 E1.46559
G1 X117.790 Y114.600 E1.50288
G1 X117.270 Y115.020 E1.51261
G1 X117.000 Y115.210 E1.51742
G1 X116.420 Y115.540 E1.52714
G1 X114.750 Y116.390 E1.55444
G1 X114.140 Y116.660 E1.56415
G1 X113.830 Y116.770 E1.56894
G1 X113.200 Y116.940 E1.57845
G1 X110.760 Y117.340 E1.61446
G1 X110.220 Y117.380 E1.62235
G1 X109.680 Y117.380 E1.63022
G1 X89.670 Y116.380 E1.92205
G1 X88.970 Y116.300 E1.93231
G1 X86.790 Y115.940 E1.96449
G1 X86.160 Y115.770 E1.97400
G1 X85.850 Y115.660 E1.97879
G1 X85.240 Y115.390 E1.98851
G1 X83.570 Y114.540 E2.01580
G1 X82.990 Y114.210 E2.02552
G1 X82.720 Y114.020 E2.03033
G1 X82.200 Y113.600 E2.04007
G1 X80.390 Y111.790 E2.07735
G1 X79.970 Y111.270 E2.08709
G1 X79.780 Y111.000 E2.09190
G1 X79.610 Y110.710 E2.09679
G1 X78.490 Y108.530 E2.13249
G1 X78.300 Y108.070 E2.13974
G1 X77.850 Y106.550 E2.16283
G1 X77.710 Y105.980 E2.17138
G1 X77.630 Y105.390 E2.18005
G1 X77.610 Y105.100 E2.18429
G1 X77.610 Y94.890 E2.33301
G1 X77.630 Y94.600 E2.33724
G1 X77.710 Y94.010 E2.34591
G1 X77.780 Y93.720 E2.35026
G1 X78.220 Y92.150 E2.37401
G1 X78.390 Y91.690 E2.38115
G1 X78.490 Y91.460 E2.38481
G1 X79.450 Y89.570 E2.41568
G1 X79.780 Y88.990 E2.42540
G1 X79.970 Y88.720 E2.43021
G1 X80.390 Y88.200 E2.43995
G1 X82.159 Y86.431 E2.47639
G1 X82.200 Y86.390 E2.47723
G1 F420.000 E1.97723
G92 E0
G1 X107.001 Y93.758 F6000.000
G1 F420.000 E0.50000
G1 X108.758 Y92.001 F1500.000 E0.53619
G1 X111.242 Y92.001 E0.57239
G1 X112.999 Y93.758 E0.60858
G1 X112.999 Y96.242 E0.64477
G1 X111.242 Y97.999 E0.68097
G1 X108.758 Y97.999 E0.71716
G1 X107.001 Y96.242 E0.75335
G1 X107.001 Y93.815 E0.78871
G1 X107.001 Y93.758 E0.78955
G1 X107.385 Y93.917 F6000.000
G1 X108.917 Y92.385 F1500.000 E0.82110
G1 X111.083 Y92.385 E0.85265
G1 X112.615 Y93.917 E0.88420
G1 X112.615 Y96.083 E0.91574
G1 X111.083 Y97.615 E0.94729
G1 X108.917 Y97.615 E0.97884
G1 X107.385 Y96.083 E1.01039
G1 X107.385 Y93.975 E1.04110
G1 X107.385 Y93.917 E1.04194
G1 X107.770 Y94.076 F6000.000
G1 X109.076 Y92.770 F1500.000 E1.06885
G1 X110.924 Y92.770 E1.09575
G1 X112.230 Y94.076 E1.12266
G1 X112.230 Y95.924 E1.14957
G1 X110.924 Y97.230 E1.17647
G1 X109.076 Y97.230 E1.20338
G1 X107.770 Y95.924 E1.23028
G1 X107.770 Y94.134 E1.25635
G1 X107.770 Y94.076 E1.25719
G1 F420.000 E0.75719
G92 E0
G1 X108.758 Y102.001 F6000.000
G1 F420.000 E0.50000
G1 X111.242 Y102.001 F1500.000 E0.53619
G1 X112.999 Y103.758 E0.57239
G1 X112.999 Y106.242 E0.60858
G1 X111.242 Y107.999 E0.64477
G1 X108.758 Y107.999 E0.68097
G1 X107.001 Y106.242 E0.71716
G1 X107.001 Y103.758 E0.75335
G1 X108.717 Y102.041 E0.78871
G1 X108.758 Y102.001 E0.78955
G1 X108.917 Y102.385 F6000.000
G1 X111.083 Y102.385 F1500.000 E0.82110
G1 X112.615 Y103.917 E0.85265
G1 X112.615 Y106.083 E0.88420
G1 X111.083 Y107.615 E0.91574
G1 X108.917 Y107.615 E0.94729
G1 X107.385 Y106.083 E0.97884
G1 X107.385 Y103.917 E1.01039
G1 X108.876 Y102.426 E1.04110
G1 X108.917 Y102.385 E1.04194
G1 X109.076 Y102.770 F6000.000
G1 X110.924 Y102.770 F1500.000 E1.06885
G1 X112.230 Y104.076 E1.09575
G1 X112.230 Y105.924 E1.12266
G1 X110.924 Y107.230 E1.14956
G1 X109.076 Y107.230 E1.17647
G1 X107.770 Y105.924 E1.20338
G1 X107.770 Y104.076 E1.23028
G1 X109.036 Y102.811 E1.25635
G1 X109.076 Y102.770 E1.25719
G1 F420.000 E0.75719
G92 E0
G1 X115.233 Y95.076 F6000.000
G1 F420.000 E0.50000
G1 X115.233 Y104.924 F2100.000 E0.64344
G1 X114.965 Y106.613 E0.66836
G1 X114.224 Y108.069 E0.69215
G1 X113.069 Y109.224 E0.71595
G1 X111.613 Y109.965 E0.73974
G1 X110.000 Y110.221 E0.76353
G1 X108.387 Y109.965 E0.78733
G1 X106.931 Y109.224 E0.81112
G1 X105.776 Y108.069 E0.83491
G1 X105.034 Y106.613 E0.85871
G1 X104.767 Y104.924 E0.88362
G1 X104.767 Y95.076 E1.02707
G1 X105.034 Y93.387 E1.05198
G1 X105.776 Y91.931 E1.07578
G1 X106.931 Y90.776 E1.09957
G1 X108.387 Y90.035 E1.12336
G1 X110.000 Y89.779 E1.14716
G1 X111.613 Y90.035 E1.17095
G1 X113.069 Y90.776 E1.19475
G1 X114.224 Y91.931 E1.21854
G1 X114.965 Y93.387 E1.24233
G1 X115.224 Y95.019 E1.26641
G1 X115.233 Y95.076 E1.26725
G1 X115.618 Y95.046 F6000.000
G1 X115.618 Y104.954 F2100.000 E1.41157
G1 X115.336 Y106.734 E1.43782
G1 X114.539 Y108.298 E1.46339
G1 X113.298 Y109.539 E1.48896
G1 X111.734 Y110.336 E1.51453
G1 X110.000 Y110.611 E1.54010
G1 X108.266 Y110.336 E1.56567
G1 X106.702 Y109.539 E1.59123
G1 X105.461 Y108.298 E1.61680
G1 X104.664 Y106.734 E1.64237
G1 X104.382 Y104.954 E1.66862
G1 X104.382 Y95.046 E1.81294
G1 X104.664 Y93.266 E1.83919
G1 X105.461 Y91.702 E1.86476
G1 X106.702 Y90.461 E1.89033
G1 X108.266 Y89.664 E1.91590
G1 X110.000 Y89.389 E1.94147
G1 X111.734 Y89.664 E1.96704
G1 X113.298 Y90.461 E1.99261
G1 X114.539 Y91.702 E2.01817
G1 X115.336 Y93.266 E2.04374
G1 X115.609 Y94.989 E2.06915
G1 X115.618 Y95.046 E2.06999
G1 X116.000 Y94.997 F6000.000
G1 X116.003 Y104.984 F1050.000 E2.21547
G1 X115.707 Y106.854 E2.24305
G1 X114.854 Y108.527 E2.27039
G1 X113.527 Y109.854 E2.29774
G1 X111.854 Y110.707 E2.32508
G1 X110.000 Y111.000 E2.35243
G1 X108.146 Y110.707 E2.37977
G1 X106.473 Y109.854 E2.40712
G1 X105.146 Y108.527 E2.43446
G1 X104.293 Y106.854 E2.46181
G1 X103.997 Y104.984 E2.48938
G1 X103.997 Y95.016 E2.63459
G1 X104.293 Y93.146 E2.66216
G1 X105.146 Y91.473 E2.68951
G1 X106.473 Y90.146 E2.71685
G1 X108.146 Y89.293 E2.74420
G1 X110.000 Y89.000 E2.77154
G1 X111.854 Y89.293 E2.79889
G1 X113.527 Y90.146 E2.82623
G1 X114.854 Y91.473 E2.85358
G1 X115.707 Y93.146 E2.88092
G1 X115.991 Y94.940 E2.90738
G1 X116.000 Y94.997 E2.90822
G1 X115.862 Y95.356 F6000.000
G1 F420.000 E2.40822
G92 E0
G1 X93.613 Y92.914 F6000.000
G1 F420.000 E0.50000
G1 X93.613 Y97.086 F1500.000 E0.56077
G1 X90.000 Y99.172 E0.62154
G1 X86.387 Y97.086 E0.68231
G1 X86.387 Y92.914 E0.74308
G1 X90.000 Y90.828 E0.80385
G1 X93.563 Y92.885 E0.86378
G1 X93.613 Y92.914 E0.86462
G1 X93.228 Y93.136 F6000.000
G1 X93.228 Y96.864 F1500.000 E0.91892
G1 X90.000 Y98.728 E0.97322
G1 X86.772 Y96.864 E1.02751
G1 X86.772 Y93.136 E1.08181
G1 X90.000 Y91.272 E1.13611
G1 X93.178 Y93.107 E1.18957
G1 X93.228 Y93.136 E1.19041
G1 F420.000 E0.69041
G92 E0
G1 X90.000 Y100.828 F6000.000
G1 F420.000 E0.50000
G1 X93.613 Y102.914 F1500.000 E0.56077
G1 X93.613 Y107.086 E0.62154
G1 X90.000 Y109.172 E0.68231
G1 X86.387 Y107.086 E0.74308
G1 X86.387 Y102.914 E0.80385
G1 X89.950 Y100.857 E0.86378
G1 X90.000 Y100.828 E0.86462
G1 X90.000 Y101.272 F6000.000
G1 X93.228 Y103.136 F1500.000 E0.91892
G1 X93.228 Y106.864 E0.97322
G1 X90.000 Y108.728 E1.02751
G1 X86.772 Y106.864 E1.08181
G1 X86.772 Y103.136 E1.13611
G1 X89.950 Y101.301 E1.18957
G1 X90.000 Y101.272 E1.19041
G1 F420.000 E0.69041
G92 E0
G1 X85.035 Y94.387 F6000.000
G1 F420.000 E0.50000
G1 X86.002 Y92.488 F2100.000 E0.53104
G1 X86.002 Y97.308 E0.60126
G1 X90.000 Y99.616 E0.66850
G1 X93.998 Y97.308 E0.73575
G1 X93.998 Y92.488 E0.80596
G1 X94.966 Y94.387 E0.83701
G1 X95.233 Y96.076 E0.86192
G1 X95.233 Y103.924 E0.97624
G1 X94.966 Y105.613 E1.00115
G1 X93.998 Y107.512 E1.03219
G1 X93.998 Y102.692 E1.10241
G1 X90.000 Y100.384 E1.16965
G1 X86.002 Y102.692 E1.23690
G1 X86.002 Y107.512 E1.30711
G1 X85.035 Y105.613 E1.33816
G1 X84.767 Y103.924 E1.36307
G1 X84.767 Y96.076 E1.47739
G1 X85.025 Y94.444 E1.50146
G1 X85.035 Y94.387 E1.50230
G1 X84.664 Y94.266 F6000.000
G1 X85.461 Y92.702 F2100.000 E1.52787
G1 X86.702 Y91.461 E1.55344
G1 X88.266 Y90.664 E1.57901
G1 X90.000 Y90.389 E1.60458
G1 X91.734 Y90.664 E1.63015
G1 X93.298 Y91.461 E1.65572
G1 X94.539 Y92.702 E1.68129
G1 X95.336 Y94.266 E1.70686
G1 X95.545 Y95.582 E1.72626
G1 X95.618 Y95.582 E1.72733
G1 X95.618 Y104.418 E1.85604
G1 X95.545 Y104.418 E1.85711
G1 X95.336 Y105.734 E1.87651
G1 X94.539 Y107.298 E1.90208
G1 X93.298 Y108.539 E1.92765
G1 X91.734 Y109.336 E1.95322
G1 X90.000 Y109.611 E1.97879
G1 X88.266 Y109.336 E2.00436
G1 X86.702 Y108.539 E2.02993
G1 X85.461 Y107.298 E2.05550
G1 X84.664 Y105.734 E2.08107
G1 X84.455 Y104.418 E2.10047
G1 X84.382 Y104.418 E2.10154
G1 X84.382 Y95.582 E2.23025
G1 X84.455 Y95.582 E2.23132
G1 X84.655 Y94.323 E2.24988
G1 X84.664 Y94.266 E2.25072
G1 X84.293 Y94.146 F6000.000
G1 X85.146 Y92.473 F1050.000 E2.27807
G1 X86.473 Y91.146 E2.30541
G1 X88.146 Y90.293 E2.33276
G1 X90.000 Y90.000 E2.36010
G1 X91.854 Y90.293 E2.38745
G1 X93.527 Y91.146 E2.41479
G1 X94.854 Y92.473 E2.44214
G1 X95.707 Y94.146 E2.46948
G1 X95.873 Y95.197 E2.48499
G1 X96.003 Y95.197 E2.48688
G1 X96.003 Y104.803 E2.62679
G1 X95.873 Y104.803 E2.62868
G1 X95.707 Y105.854 E2.64418
G1 X94.854 Y107.527 E2.67153
G1 X93.527 Y108.854 E2.69887
G1 X91.854 Y109.707 E2.72622
G1 X90.000 Y110.000 E2.75356
G1 X88.146 Y109.707 E2.78091
G1 X86.473 Y108.854 E2.80826
G1 X85.146 Y107.527 E2.83560
G1 X84.293 Y105.854 E2.86295
G1 X84.127 Y104.803 E2.87845
G1 X83.997 Y104.803 E2.88034
G1 X83.997 Y95.197 E3.02025
G1 X84.127 Y95.197 E3.02214
G1 X84.284 Y94.203 E3.03681
G1 X84.293 Y94.146 E3.03765
G1 X84.537 Y93.846 F6000.000
G1 F420.000 E2.53765
G92 E0
G1 X106.738 Y104.115 F6000.000
G1 F420.000 E0.50000
G1 X105.029 Y102.406 F2700.000 E0.53535
G1 X105.029 Y102.953 E0.54334
G1 X106.738 Y104.662 E0.57869
G1 X106.738 Y105.208 E0.58668
G1 X105.029 Y103.499 E0.62203
G1 X105.029 Y104.045 E0.63002
G1 X106.738 Y105.755 E0.66537
G1 X106.738 Y106.301 E0.67336
G1 X105.029 Y104.592 E0.70871
G1 F420.000 E0.20871
G92 E0
G1 X108.645 Y91.814 F6000.000
G1 F420.000 E0.50000
G1 X107.542 Y90.712 F2700.000 E0.52280
G1 X107.180 Y90.896 E0.52874
G1 X108.372 Y92.087 E0.55338
G1 X108.098 Y92.361 E0.55903
G1 X106.872 Y91.134 E0.58440
G1 X106.599 Y91.408 E0.59005
G1 X107.825 Y92.634 E0.61541
G1 X107.552 Y92.907 E0.62106
G1 X106.326 Y91.681 E0.64642
G1 X106.052 Y91.954 E0.65207
G1 X107.279 Y93.180 E0.67744
G1 X107.006 Y93.454 E0.68309
G1 X105.841 Y92.289 E0.70718
G1 X105.656 Y92.651 E0.71312
G1 X106.738 Y93.733 E0.73550
G1 X106.738 Y94.279 E0.74349
G1 X105.472 Y93.013 E0.76968
G1 X105.287 Y93.375 E0.77562
G1 X106.738 Y94.826 E0.80563
G1 X106.738 Y95.372 E0.81362
G1 X105.210 Y93.844 E0.84524
G1 X105.135 Y94.315 E0.85222
G1 X106.738 Y95.919 E0.88538
G1 X106.738 Y96.465 E0.89337
G1 X105.060 Y94.787 E0.92808
G1 X105.029 Y95.302 E0.93563
G1 X111.465 Y101.738 E1.06874
G1 X110.919 Y101.738 E1.07673
G1 X105.029 Y95.849 E1.19854
G1 X105.029 Y96.395 E1.20653
G1 X110.372 Y101.738 E1.31704
G1 X109.826 Y101.738 E1.32503
G1 X105.029 Y96.942 E1.42423
G1 X105.029 Y97.488 E1.43223
G1 X109.279 Y101.738 E1.52013
G1 X108.733 Y101.738 E1.52812
G1 X105.029 Y98.035 E1.60472
G1 X105.029 Y98.581 E1.61272
G1 X108.454 Y102.005 E1.68354
G1 X108.180 Y102.279 E1.68919
G1 X105.029 Y99.127 E1.75437
G1 X105.029 Y99.674 E1.76236
G1 X107.907 Y102.552 E1.82188
G1 X107.634 Y102.825 E1.82753
G1 X105.029 Y100.220 E1.88140
G1 X105.029 Y100.767 E1.88940
G1 X107.361 Y103.098 E1.93762
G1 X107.087 Y103.372 E1.94327
G1 X105.029 Y101.313 E1.98584
G1 X105.029 Y101.860 E1.99383
G1 X106.814 Y103.645 E2.03075
G1 F420.000 E1.53075
G92 E0
G1 X113.262 Y95.885 F6000.000
G1 F420.000 E0.50000
G1 X114.971 Y97.594 F2700.000 E0.53535
G1 X114.971 Y97.047 E0.54334
G1 X113.262 Y95.338 E0.57869
G1 X113.262 Y94.792 E0.58668
G1 X114.971 Y96.501 E0.62203
G1 X114.971 Y95.955 E0.63002
G1 X113.262 Y94.245 E0.66538
G1 X113.262 Y93.699 E0.67337
G1 X114.971 Y95.408 E0.70872
G1 X114.902 Y94.792 E0.71778
G1 X110.208 Y90.098 E0.81486
G1 X109.646 Y90.083 E0.82309
G1 X111.301 Y91.738 E0.85733
G1 X110.755 Y91.738 E0.86532
G1 X109.174 Y90.157 E0.89802
G1 X108.702 Y90.232 E0.90500
G1 X110.208 Y91.738 E0.93615
G1 X109.662 Y91.738 E0.94414
G1 X108.266 Y90.343 E0.97300
G1 X107.904 Y90.527 E0.97895
G1 X109.115 Y91.738 E1.00399
G1 F420.000 E0.50399
G92 E0
G1 X111.355 Y108.186 F6000.000
G1 F420.000 E0.50000
G1 X112.458 Y109.288 F2700.000 E0.52280
G1 X112.820 Y109.104 E0.52875
G1 X111.628 Y107.913 E0.55339
G1 X111.902 Y107.639 E0.55904
G1 X113.128 Y108.866 E0.58440
G1 X113.401 Y108.592 E0.59005
G1 X112.175 Y107.366 E0.61541
G1 X112.448 Y107.093 E0.62106
G1 X113.674 Y108.319 E0.64642
G1 X113.948 Y108.046 E0.65207
G1 X112.721 Y106.820 E0.67743
G1 X112.995 Y106.546 E0.68309
G1 X114.159 Y107.711 E0.70718
G1 X114.344 Y107.349 E0.71312
G1 X113.262 Y106.267 E0.73550
G1 X113.262 Y105.721 E0.74349
G1 X114.528 Y106.987 E0.76968
G1 X114.713 Y106.625 E0.77562
G1 X113.262 Y105.174 E0.80563
G1 X113.262 Y104.628 E0.81362
G1 X114.790 Y106.156 E0.84524
G1 X114.865 Y105.685 E0.85222
G1 X113.262 Y104.081 E0.88538
G1 X113.262 Y103.535 E0.89337
G1 X114.940 Y105.213 E0.92808
G1 X114.971 Y104.698 E0.93563
G1 X108.535 Y98.262 E1.06874
G1 X109.081 Y98.262 E1.07673
G1 X114.971 Y104.151 E1.19854
G1 X114.971 Y103.605 E1.20653
G1 X109.628 Y98.262 E1.31703
G1 X110.174 Y98.262 E1.32503
G1 X114.971 Y103.058 E1.42423
G1 X114.971 Y102.512 E1.43222
G1 X110.721 Y98.262 E1.52013
G1 X111.267 Y98.262 E1.52812
G1 X114.971 Y101.965 E1.60472
G1 X114.971 Y101.419 E1.61271
G1 X111.546 Y97.994 E1.68353
G1 X111.820 Y97.721 E1.68919
G1 X114.971 Y100.872 E1.75436
G1 X114.971 Y100.326 E1.76235
G1 X112.093 Y97.448 E1.82187
G1 X112.366 Y97.175 E1.82753
G1 X114.971 Y99.780 E1.88140
G1 X114.971 Y99.233 E1.88939
G1 X112.639 Y96.902 E1.93761
G1 X112.913 Y96.628 E1.94326
G1 X114.971 Y98.687 E1.98583
G1 X114.971 Y98.140 E1.99382
G1 X113.186 Y96.355 E2.03074
G1 F420.000 E1.53074
G92 E0
G1 X107.283 Y109.031 F6000.000
G1 F420.000 E0.50000
G1 X105.969 Y107.717 F2700.000 E0.52718
G1 X105.401 Y106.603 E0.54547
G1 X108.397 Y109.599 E0.60743
G1 X109.143 Y109.799 E0.61873
G1 X105.201 Y105.857 E0.70026
G1 X105.098 Y105.207 E0.70988
G1 X109.792 Y109.902 E0.80696
G1 X110.354 Y109.917 E0.81519
G1 X108.699 Y108.262 E0.84943
G1 X109.245 Y108.262 E0.85742
G1 X110.826 Y109.843 E0.89011
G1 X111.298 Y109.768 E0.89710
G1 X109.792 Y108.262 E0.92825
G1 X110.338 Y108.262 E0.93624
G1 X111.734 Y109.657 E0.96510
G1 X112.096 Y109.473 E0.97104
G1 X110.885 Y108.262 E0.99609
G1 F420.000 E0.49609
G92 E0
G1 X114.799 Y94.143 F6000.000
G1 F420.000 E0.50000
G1 X110.857 Y90.201 F2700.000 E0.58153
G1 X111.603 Y90.401 E0.59283
G1 X114.599 Y93.397 E0.65479
G1 X114.031 Y92.283 E0.67308
G1 X112.717 Y90.969 E0.70025
G1 F420.000 E0.20025
G92 E0
G1 X91.296 Y99.119 F6000.000
G1 F420.000 E0.50000
G1 X94.971 Y102.795 F2700.000 E0.57869
G1 X94.971 Y102.229 E0.58725
G1 X91.654 Y98.912 E0.65826
G1 X92.013 Y98.705 E0.66453
G1 X94.971 Y101.663 E0.72785
G1 X94.971 Y101.097 E0.73642
