; generated by Slic3r 0.9.8 on 2013-02-16 at 09:08:52

; layer_height = 0.25
; perimeters = 3
; top_solid_layers = 4
; bottom_solid_layers = 4
; fill_density = 0.15
; perimeter_speed = 70
; infill_speed = 90
; travel_speed = 100
; scale = 1
; nozzle_diameter = 0.35
; filament_diameter = 3
; extrusion_multiplier = 1
; perimeters extrusion width = 0.39mm
; infill extrusion width = 0.39mm
; first layer extrusion width = 0.39mm

G28 ; home all axes
G90 ; use absolute coordinates
G21 ; set units to millimeters
G92 E0 ; reset extrusion distance
M82 ; use absolute distances for extrusion
G1 F420.000 E-0.50000 ; retract
G92 E0 ; reset extrusion distance
G1 Z0.250 F6000.000 ; move to next layer (0)
G1 X63.550 Y51.870 ; move to first skirt point
G1 F420.000 E0.50000 ; compensate retraction
G1 X133.570 Y41.470 F2100.000 E1.46351 ; skirt
G1 X134.510 Y41.410 E1.47633 ; skirt
G1 X144.480 Y41.410 E1.61203 ; skirt
G1 X145.490 Y41.490 E1.62582 ; skirt
G1 X147.360 Y41.790 E1.65160 ; skirt
G1 X148.010 Y41.920 E1.66062 ; skirt
G1 X148.640 Y42.130 E1.66966 ; skirt
G1 X149.250 Y42.400 E1.67874 ; skirt
G1 X150.920 Y43.250 E1.70424 ; skirt
G1 X151.500 Y43.580 E1.71333 ; skirt
G1 X151.770 Y43.770 E1.71782 ; skirt
G1 X152.290 Y44.190 E1.72692 ; skirt
G1 X154.100 Y46.000 E1.76176 ; skirt
G1 X154.310 Y46.250 E1.76620 ; skirt
G1 X154.710 Y46.790 E1.77535 ; skirt
G1 X155.040 Y47.370 E1.78443 ; skirt
G1 X155.890 Y49.040 E1.80994 ; skirt
G1 X156.160 Y49.650 E1.81902 ; skirt
G1 X156.270 Y49.960 E1.82349 ; skirt
G1 X156.440 Y50.590 E1.83238 ; skirt
G1 X156.800 Y52.770 E1.86245 ; skirt
G1 X156.880 Y53.600 E1.87380 ; skirt
G1 X157.380 Y70.000 E2.09713 ; skirt
G1 X157.380 Y129.990 E2.91366 ; skirt
G1 X156.880 Y146.380 E3.13685 ; skirt
G1 X156.800 Y147.210 E3.14820 ; skirt
G1 X156.500 Y149.070 E3.17384 ; skirt
G1 X156.440 Y149.390 E3.17827 ; skirt
G1 X156.270 Y150.030 E3.18728 ; skirt
G1 X156.160 Y150.340 E3.19176 ; skirt
G1 X155.890 Y150.950 E3.20084 ; skirt
G1 X155.040 Y152.620 E3.22635 ; skirt
G1 X154.710 Y153.200 E3.23543 ; skirt
G1 X154.310 Y153.740 E3.24458 ; skirt
G1 X154.100 Y153.990 E3.24902 ; skirt
G1 X152.290 Y155.800 E3.28386 ; skirt
G1 X151.770 Y156.220 E3.29296 ; skirt
G1 X151.500 Y156.410 E3.29745 ; skirt
G1 X150.920 Y156.740 E3.30654 ; skirt
G1 X148.950 Y157.730 E3.33655 ; skirt
G1 X148.330 Y157.970 E3.34559 ; skirt
G1 X148.010 Y158.070 E3.35016 ; skirt
G1 X147.690 Y158.140 E3.35462 ; skirt
G1 X145.490 Y158.500 E3.38496 ; skirt
G1 X144.480 Y158.580 E3.39875 ; skirt
G1 X134.510 Y158.580 E3.53445 ; skirt
G1 X133.570 Y158.520 E3.54727 ; skirt
G1 X63.550 Y148.120 E4.51078 ; skirt
G1 X63.240 Y148.060 E4.51508 ; skirt
G1 X62.640 Y147.910 E4.52349 ; skirt
G1 X62.340 Y147.810 E4.52780 ; skirt
G1 X62.050 Y147.700 E4.53202 ; skirt
G1 X61.480 Y147.430 E4.54060 ; skirt
G1 X48.190 Y140.330 E4.74569 ; skirt
G1 X47.670 Y139.980 E4.75422 ; skirt
G1 X47.180 Y139.580 E4.76283 ; skirt
G1 X45.390 Y137.790 E4.79729 ; skirt
G1 X45.180 Y137.540 E4.80173 ; skirt
G1 X44.780 Y137.000 E4.81088 ; skirt
G1 X44.450 Y136.420 E4.81996 ; skirt
G1 X43.600 Y134.750 E4.84547 ; skirt
G1 X43.330 Y134.140 E4.85455 ; skirt
G1 X43.220 Y133.830 E4.85902 ; skirt
G1 X43.120 Y133.510 E4.86359 ; skirt
G1 X43.050 Y133.190 E4.86805 ; skirt
G1 X42.690 Y130.990 E4.89839 ; skirt
G1 X42.610 Y129.980 E4.91218 ; skirt
G1 X42.610 Y70.010 E5.72844 ; skirt
G1 X42.690 Y69.000 E5.74223 ; skirt
G1 X43.050 Y66.800 E5.77257 ; skirt
G1 X43.120 Y66.480 E5.77703 ; skirt
G1 X43.220 Y66.160 E5.78159 ; skirt
G1 X43.460 Y65.540 E5.79064 ; skirt
G1 X44.450 Y63.570 E5.82065 ; skirt
G1 X44.780 Y62.990 E5.82973 ; skirt
G1 X44.970 Y62.720 E5.83423 ; skirt
G1 X45.390 Y62.200 E5.84333 ; skirt
G1 X47.180 Y60.410 E5.87778 ; skirt
G1 X47.670 Y60.010 E5.88639 ; skirt
G1 X47.920 Y59.830 E5.89058 ; skirt
G1 X48.460 Y59.510 E5.89913 ; skirt
G1 X61.480 Y52.560 E6.10001 ; skirt
G1 X62.050 Y52.290 E6.10860 ; skirt
G1 X62.340 Y52.180 E6.11282 ; skirt
G1 X62.940 Y52.000 E6.12134 ; skirt
G1 X63.493 Y51.881 E6.12905 ; skirt
G1 X63.550 Y51.870 E6.12983 ; skirt
G1 F420.000 E5.62983 ; retract
G92 E0 ; reset extrusion distance
G1 X141.253 Y53.800 F6000.000 ; move to first perimeter point
G1 F420.000 E0.50000 ; compensate retraction
G1 X142.204 Y51.504 F1500.000 E0.53382 ; perimeter
G1 X144.500 Y50.553 E0.56764 ; perimeter
G1 X146.796 Y51.504 E0.60146 ; perimeter
G1 X147.747 Y53.800 E0.63528 ; perimeter
G1 X146.796 Y56.096 E0.66910 ; perimeter
G1 X144.500 Y57.047 E0.70292 ; perimeter
G1 X142.204 Y56.096 E0.73674 ; perimeter
G1 X141.276 Y53.853 E0.76978 ; perimeter
G1 X141.253 Y53.800 E0.77056 ; perimeter
G1 X141.670 Y53.800 F6000.000 ; move to first perimeter point
G1 X142.499 Y51.799 F1500.000 E0.80005 ; perimeter
G1 X144.500 Y50.970 E0.82953 ; perimeter
G1 X146.501 Y51.799 E0.85901 ; perimeter
G1 X147.330 Y53.800 E0.88849 ; perimeter
G1 X146.501 Y55.801 E0.91797 ; perimeter
G1 X144.500 Y56.630 E0.94745 ; perimeter
G1 X142.499 Y55.801 E0.97693 ; perimeter
G1 X141.692 Y53.853 E1.00563 ; perimeter
G1 X141.670 Y53.800 E1.00641 ; perimeter
G1 X142.087 Y53.800 F6000.000 ; move to first perimeter point
G1 X142.793 Y52.093 F1500.000 E1.03155 ; perimeter
G1 X144.500 Y51.387 E1.05670 ; perimeter
G1 X146.207 Y52.093 E1.08184 ; perimeter
G1 X146.913 Y53.800 E1.10698 ; perimeter
G1 X146.207 Y55.507 E1.13212 ; perimeter
G1 X144.500 Y56.213 E1.15726 ; perimeter
G1 X142.793 Y55.507 E1.18240 ; perimeter
G1 X142.109 Y53.853 E1.20676 ; perimeter
G1 X142.087 Y53.800 E1.20755 ; perimeter
G1 X141.781 Y53.566 F6000.000 ; move inwards before travel
G1 F420.000 E0.70755 ; retract
G92 E0 ; reset extrusion distance
G1 X137.747 Y53.800 F6000.000 ; move to first perimeter point
G1 F420.000 E0.50000 ; compensate retraction
G1 X136.796 Y56.096 F1500.000 E0.53382 ; perimeter
G1 X134.500 Y57.047 E0.56764 ; perimeter
G1 X132.204 Y56.096 E0.60146 ; perimeter
G1 X131.253 Y53.800 E0.63528 ; perimeter
G1 X132.204 Y51.504 E0.66910 ; perimeter
G1 X134.500 Y50.553 E0.70292 ; perimeter
G1 X136.796 Y51.504 E0.73674 ; perimeter
G1 X137.724 Y53.747 E0.76978 ; perimeter
G1 X137.747 Y53.800 E0.77056 ; perimeter
G1 X137.330 Y53.800 F6000.000 ; move to first perimeter point
G1 X136.501 Y55.801 F1500.000 E0.80005 ; perimeter
G1 X134.500 Y56.630 E0.82953 ; perimeter
G1 X132.499 Y55.801 E0.85901 ; perimeter
G1 X131.670 Y53.800 E0.88849 ; perimeter
G1 X132.499 Y51.799 E0.91797 ; perimeter
G1 X134.500 Y50.970 E0.94745 ; perimeter
G1 X136.501 Y51.799 E0.97693 ; perimeter
G1 X137.308 Y53.747 E1.00563 ; perimeter
G1 X137.330 Y53.800 E1.00641 ; perimeter
G1 X136.913 Y53.800 F6000.000 ; move to first perimeter point
G1 X136.207 Y55.507 F1500.000 E1.03155 ; perimeter
G1 X134.500 Y56.213 E1.05670 ; perimeter
G1 X132.793 Y55.507 E1.08184 ; perimeter
G1 X132.087 Y53.800 E1.10698 ; perimeter
G1 X132.793 Y52.093 E1.13212 ; perimeter
G1 X134.500 Y51.387 E1.15726 ; perimeter
G1 X136.207 Y52.093 E1.18240 ; perimeter
G1 X136.891 Y53.747 E1.20676 ; perimeter
G1 X136.913 Y53.800 E1.20755 ; perimeter
G1 X137.219 Y54.034 F6000.000 ; move inwards before travel
G1 F420.000 E0.70755 ; retract
G92 E0 ; reset extrusion distance
G1 X128.129 Y101.719 F6000.000 ; move to first perimeter point
G1 F420.000 E0.50000 ; compensate retraction
G1 X129.438 Y102.271 F1500.000 E0.51934 ; perimeter
G1 X130.378 Y103.336 E0.53867 ; perimeter
G1 X130.762 Y104.703 E0.55800 ; perimeter
G1 X130.516 Y106.102 E0.57734 ; perimeter
G1 X129.686 Y107.255 E0.59667 ; perimeter
G1 X128.439 Y107.935 E0.61601 ; perimeter
G1 X127.020 Y108.005 E0.63534 ; perimeter
G1 X125.711 Y107.454 E0.65467 ; perimeter
G1 X124.771 Y106.389 E0.67401 ; perimeter
G1 X124.387 Y105.021 E0.69334 ; perimeter
G1 X124.634 Y103.622 E0.71268 ; perimeter
G1 X125.463 Y102.469 E0.73201 ; perimeter
G1 X126.710 Y101.790 E0.75134 ; perimeter
G1 X128.071 Y101.722 E0.76989 ; perimeter
G1 X128.129 Y101.719 E0.77068 ; perimeter
G1 X128.060 Y102.108 F6000.000 ; move to first perimeter point
G1 X129.207 Y102.591 F1500.000 E0.78762 ; perimeter
G1 X130.031 Y103.524 E0.80456 ; perimeter
G1 X130.368 Y104.723 E0.82151 ; perimeter
G1 X130.152 Y105.949 E0.83845 ; perimeter
G1 X129.425 Y106.959 E0.85539 ; perimeter
G1 X128.332 Y107.555 E0.87234 ; perimeter
G1 X127.089 Y107.617 E0.88928 ; perimeter
G1 X125.942 Y107.133 E0.90622 ; perimeter
G1 X125.118 Y106.200 E0.92317 ; perimeter
G1 X124.781 Y105.002 E0.94011 ; perimeter
G1 X124.997 Y103.776 E0.95705 ; perimeter
G1 X125.724 Y102.765 E0.97399 ; perimeter
G1 X126.817 Y102.170 E0.99094 ; perimeter
G1 X128.003 Y102.111 E1.00709 ; perimeter
G1 X128.060 Y102.108 E1.00788 ; perimeter
G1 X127.992 Y102.496 F6000.000 ; move to first perimeter point
G1 X128.977 Y102.912 F1500.000 E1.02243 ; perimeter
G1 X129.684 Y103.713 E1.03698 ; perimeter
G1 X129.974 Y104.742 E1.05153 ; perimeter
G1 X129.788 Y105.795 E1.06609 ; perimeter
G1 X129.164 Y106.663 E1.08064 ; perimeter
G1 X128.225 Y107.175 E1.09519 ; perimeter
G1 X127.157 Y107.228 E1.10974 ; perimeter
G1 X126.172 Y106.813 E1.12429 ; perimeter
G1 X125.465 Y106.011 E1.13884 ; perimeter
G1 X125.175 Y104.982 E1.15340 ; perimeter
G1 X125.361 Y103.929 E1.16795 ; perimeter
G1 X125.985 Y103.061 E1.18250 ; perimeter
G1 X126.924 Y102.550 E1.19705 ; perimeter
G1 X127.934 Y102.499 E1.21082 ; perimeter
G1 X127.992 Y102.496 E1.21160 ; perimeter
G1 X128.260 Y102.221 F6000.000 ; move inwards before travel
G1 F420.000 E0.71160 ; retract
G92 E0 ; reset extrusion distance
G1 X128.129 Y98.281 F6000.000 ; move to first perimeter point
G1 F420.000 E0.50000 ; compensate retraction
G1 X126.710 Y98.210 F1500.000 E0.51933 ; perimeter
G1 X125.463 Y97.531 E0.53867 ; perimeter
G1 X124.634 Y96.378 E0.55800 ; perimeter
G1 X124.387 Y94.979 E0.57733 ; perimeter
G1 X124.771 Y93.611 E0.59667 ; perimeter
G1 X125.711 Y92.546 E0.61600 ; perimeter
G1 X126.779 Y92.096 E0.63178 ; perimeter
G1 X127.020 Y91.995 E0.63534 ; perimeter
G1 X128.439 Y92.065 E0.65467 ; perimeter
G1 X129.686 Y92.745 E0.67400 ; perimeter
G1 X130.516 Y93.898 E0.69334 ; perimeter
G1 X130.762 Y95.297 E0.71267 ; perimeter
G1 X130.378 Y96.664 E0.73201 ; perimeter
G1 X129.438 Y97.729 E0.75134 ; perimeter
G1 X128.182 Y98.259 E0.76989 ; perimeter
G1 X128.129 Y98.281 E0.77068 ; perimeter
G1 X128.060 Y97.892 F6000.000 ; move to first perimeter point
G1 X126.817 Y97.830 F1500.000 E0.78762 ; perimeter
G1 X125.724 Y97.235 E0.80456 ; perimeter
G1 X124.997 Y96.224 E0.82150 ; perimeter
G1 X124.781 Y94.998 E0.83845 ; perimeter
G1 X125.118 Y93.800 E0.85539 ; perimeter
G1 X125.942 Y92.867 E0.87233 ; perimeter
G1 X126.929 Y92.451 E0.88691 ; perimeter
G1 X127.089 Y92.383 E0.88928 ; perimeter
G1 X128.332 Y92.445 E0.90622 ; perimeter
G1 X129.425 Y93.041 E0.92316 ; perimeter
G1 X130.152 Y94.051 E0.94010 ; perimeter
G1 X130.368 Y95.277 E0.95705 ; perimeter
G1 X130.031 Y96.476 E0.97399 ; perimeter
G1 X129.207 Y97.409 E0.99093 ; perimeter
G1 X128.113 Y97.870 E1.00709 ; perimeter
G1 X128.060 Y97.892 E1.00788 ; perimeter
G1 X127.992 Y97.504 F6000.000 ; move to first perimeter point
G1 X126.924 Y97.450 F1500.000 E1.02243 ; perimeter
G1 X125.985 Y96.939 E1.03698 ; perimeter
G1 X125.361 Y96.071 E1.05153 ; perimeter
G1 X125.175 Y95.018 E1.06608 ; perimeter
G1 X125.465 Y93.989 E1.08063 ; perimeter
G1 X126.172 Y93.187 E1.09519 ; perimeter
G1 X127.078 Y92.805 E1.10857 ; perimeter
G1 X127.157 Y92.772 E1.10974 ; perimeter
G1 X128.225 Y92.825 E1.12429 ; perimeter
G1 X129.164 Y93.337 E1.13884 ; perimeter
G1 X129.788 Y94.205 E1.15339 ; perimeter
G1 X129.974 Y95.258 E1.16794 ; perimeter
G1 X129.684 Y96.287 E1.18250 ; perimeter
G1 X128.977 Y97.088 E1.19705 ; perimeter
G1 X128.045 Y97.481 E1.21082 ; perimeter
G1 X127.992 Y97.504 E1.21160 ; perimeter
G1 X127.833 Y97.854 F6000.000 ; move inwards before travel
G1 F420.000 E0.71160 ; retract
G92 E0 ; reset extrusion distance
G1 X121.942 Y99.717 F6000.000 ; move to first perimeter point
G1 F420.000 E0.50000 ; compensate retraction
G1 X121.972 Y100.000 F2100.000 E0.50387 ; perimeter
G1 X121.492 Y104.568 E0.56639 ; perimeter
G1 X120.073 Y108.937 E0.62892 ; perimeter
G1 X117.776 Y112.915 E0.69144 ; perimeter
G1 X114.702 Y116.328 E0.75396 ; perimeter
G1 X110.986 Y119.028 E0.81648 ; perimeter
G1 X109.055 Y119.888 E0.84526 ; perimeter
G1 X109.082 Y120.043 E0.84739 ; perimeter
G1 X110.276 Y120.120 E0.86367 ; perimeter
G1 X111.513 Y120.818 E0.88300 ; perimeter
G1 X112.325 Y121.984 E0.90234 ; perimeter
G1 X112.550 Y123.386 E0.92167 ; perimeter
G1 X112.145 Y124.748 E0.94100 ; perimeter
G1 X111.189 Y125.799 E0.96034 ; perimeter
G1 X109.872 Y126.331 E0.97967 ; perimeter
G1 X108.455 Y126.239 E0.99900 ; perimeter
G1 X107.218 Y125.541 E1.01834 ; perimeter
G1 X106.406 Y124.375 E1.03767 ; perimeter
G1 X106.180 Y122.973 E1.05701 ; perimeter
G1 X106.585 Y121.611 E1.07634 ; perimeter
G1 X107.223 Y120.910 E1.08924 ; perimeter
G1 X107.169 Y120.816 E1.09072 ; perimeter
G1 X102.297 Y121.852 E1.15851 ; perimeter
G1 X101.017 Y121.852 E1.17593 ; perimeter
G1 X100.979 Y122.018 E1.17825 ; perimeter
G1 X101.990 Y122.505 E1.19352 ; perimeter
G1 X102.876 Y123.615 E1.21285 ; perimeter
G1 X103.192 Y125.000 E1.23218 ; perimeter
G1 X102.876 Y126.385 E1.25152 ; perimeter
G1 X101.990 Y127.495 E1.27085 ; perimeter
G1 X100.710 Y128.112 E1.29019 ; perimeter
G1 X99.290 Y128.112 E1.30952 ; perimeter
G1 X98.010 Y127.495 E1.32885 ; perimeter
G1 X97.124 Y126.385 E1.34819 ; perimeter
G1 X96.808 Y125.000 E1.36752 ; perimeter
G1 X97.124 Y123.615 E1.38685 ; perimeter
G1 X98.010 Y122.505 E1.40619 ; perimeter
G1 X99.021 Y122.018 E1.42146 ; perimeter
G1 X98.983 Y121.852 E1.42377 ; perimeter
G1 X97.703 Y121.852 E1.44119 ; perimeter
G1 X92.831 Y120.816 E1.50899 ; perimeter
G1 X92.777 Y120.910 E1.51046 ; perimeter
G1 X93.415 Y121.611 E1.52336 ; perimeter
G1 X93.820 Y122.973 E1.54270 ; perimeter
G1 X93.594 Y124.375 E1.56203 ; perimeter
G1 X92.782 Y125.541 E1.58137 ; perimeter
G1 X91.545 Y126.239 E1.60070 ; perimeter
G1 X90.128 Y126.331 E1.62003 ; perimeter
G1 X88.811 Y125.799 E1.63936 ; perimeter
G1 X87.855 Y124.748 E1.65870 ; perimeter
G1 X87.450 Y123.386 E1.67803 ; perimeter
G1 X87.675 Y121.984 E1.69737 ; perimeter
G1 X88.487 Y120.818 E1.71670 ; perimeter
G1 X89.725 Y120.120 E1.73604 ; perimeter
G1 X90.918 Y120.043 E1.75231 ; perimeter
G1 X90.945 Y119.888 E1.75445 ; perimeter
G1 X89.014 Y119.028 E1.78322 ; perimeter
G1 X85.298 Y116.328 E1.84574 ; perimeter
G1 X82.224 Y112.915 E1.90827 ; perimeter
G1 X79.927 Y108.937 E1.97079 ; perimeter
G1 X78.508 Y104.568 E2.03331 ; perimeter
G1 X78.028 Y100.000 E2.09583 ; perimeter
G1 X78.508 Y95.432 E2.15835 ; perimeter
G1 X79.927 Y91.063 E2.22088 ; perimeter
G1 X82.224 Y87.085 E2.28340 ; perimeter
G1 X85.298 Y83.672 E2.34592 ; perimeter
G1 X89.014 Y80.972 E2.40844 ; perimeter
G1 X90.945 Y80.112 E2.43722 ; perimeter
G1 X90.918 Y79.957 E2.43935 ; perimeter
G1 X89.725 Y79.880 E2.45563 ; perimeter
G1 X88.487 Y79.182 E2.47496 ; perimeter
G1 X87.675 Y78.016 E2.49430 ; perimeter
G1 X87.450 Y76.614 E2.51363 ; perimeter
G1 X87.855 Y75.252 E2.53296 ; perimeter
G1 X88.811 Y74.201 E2.55230 ; perimeter
G1 X90.128 Y73.669 E2.57163 ; perimeter
G1 X91.545 Y73.761 E2.59096 ; perimeter
G1 X92.782 Y74.459 E2.61030 ; perimeter
G1 X93.594 Y75.625 E2.62963 ; perimeter
G1 X93.820 Y77.027 E2.64897 ; perimeter
G1 X93.415 Y78.389 E2.66830 ; perimeter
G1 X92.777 Y79.090 E2.68120 ; perimeter
G1 X92.831 Y79.184 E2.68268 ; perimeter
G1 X97.703 Y78.148 E2.75047 ; perimeter
G1 X98.983 Y78.148 E2.76789 ; perimeter
G1 X99.021 Y77.982 E2.77021 ; perimeter
G1 X98.010 Y77.495 E2.78548 ; perimeter
G1 X97.124 Y76.385 E2.80481 ; perimeter
G1 X96.808 Y75.000 E2.82414 ; perimeter
G1 X97.124 Y73.615 E2.84348 ; perimeter
G1 X97.847 Y72.709 E2.85925 ; perimeter
G1 X98.010 Y72.505 E2.86281 ; perimeter
G1 X99.290 Y71.888 E2.88214 ; perimeter
G1 X100.710 Y71.888 E2.90148 ; perimeter
G1 X101.990 Y72.505 E2.92081 ; perimeter
G1 X102.876 Y73.615 E2.94015 ; perimeter
G1 X103.192 Y75.000 E2.95948 ; perimeter
G1 X102.876 Y76.385 E2.97881 ; perimeter
G1 X101.990 Y77.495 E2.99815 ; perimeter
G1 X100.979 Y77.982 E3.01342 ; perimeter
G1 X101.017 Y78.148 E3.01573 ; perimeter
