; generated by Slic3r 0.9.8 on 2013-04-04 at 23:24:04

; layer_height = 0.25
; perimeters = 3
; top_solid_layers = 4
; bottom_solid_layers = 4
; fill_density = 0.15
; perimeter_speed = 70
; infill_speed = 90
; travel_speed = 100
; scale = 1
; nozzle_diameter = 0.35
; filament_diameter = 3
; extrusion_multiplier = 1
; perimeters extrusion width = 0.39mm
; infill extrusion width = 0.39mm
; first layer extrusion width = 0.39mm

M107 ; disable fan
G28 ; home all axes
G90 ; use absolute coordinates
G21 ; set units to millimeters
G92 E0 ; reset extrusion distance
M82 ; use absolute distances for extrusion
G1 F420.000 E-0.50000 ; retract
G92 E0 ; reset extrusion distance
G1 Z0.250 F6000.000 ; move to next layer (0)
G1 X126.160 Y123.600 ; move to first skirt point
G1 F420.000 E0.50000 ; compensate retraction
G1 X125.490 Y124.020 F2100.000 E0.51076 ; skirt
G1 X125.010 Y124.250 E0.51801 ; skirt
G1 X124.520 Y124.440 E0.52516 ; skirt
G1 X124.020 Y124.590 E0.53227 ; skirt
G1 X123.500 Y124.700 E0.53950 ; skirt
G1 X123.240 Y124.740 E0.54308 ; skirt
G1 X122.710 Y124.780 E0.55032 ; skirt
G1 X107.160 Y124.780 E0.76197 ; skirt
G1 X106.150 Y124.700 E0.77576 ; skirt
G1 X103.500 Y124.270 E0.81230 ; skirt
G1 X102.920 Y124.120 E0.82045 ; skirt
G1 X102.370 Y123.920 E0.82842 ; skirt
G1 X74.860 Y112.600 E1.23332 ; skirt
G1 X74.380 Y112.350 E1.24069 ; skirt
G1 X73.930 Y112.070 E1.24790 ; skirt
G1 X73.290 Y111.570 E1.25896 ; skirt
G1 X72.910 Y111.190 E1.26627 ; skirt
G1 X72.550 Y110.790 E1.27360 ; skirt
G1 X72.090 Y110.130 E1.28455 ; skirt
G1 X71.710 Y109.410 E1.29563 ; skirt
G1 X71.510 Y108.910 E1.30296 ; skirt
G1 X71.360 Y108.400 E1.31019 ; skirt
G1 X71.210 Y107.610 E1.32114 ; skirt
G1 X71.160 Y107.070 E1.32852 ; skirt
G1 X71.160 Y81.330 E1.67887 ; skirt
G1 X71.200 Y80.800 E1.68610 ; skirt
G1 X71.350 Y80.020 E1.69692 ; skirt
G1 X71.590 Y79.270 E1.70763 ; skirt
G1 X71.920 Y78.550 E1.71841 ; skirt
G1 X72.340 Y77.880 E1.72918 ; skirt
G1 X72.670 Y77.460 E1.73645 ; skirt
G1 X73.220 Y76.890 E1.74723 ; skirt
G1 X73.620 Y76.550 E1.75437 ; skirt
G1 X74.050 Y76.240 E1.76159 ; skirt
G1 X74.500 Y75.970 E1.76873 ; skirt
G1 X75.220 Y75.640 E1.77951 ; skirt
G1 X75.720 Y75.470 E1.78670 ; skirt
G1 X76.230 Y75.340 E1.79386 ; skirt
G1 X76.750 Y75.250 E1.80105 ; skirt
G1 X77.280 Y75.210 E1.80828 ; skirt
G1 X122.710 Y75.210 E2.42663 ; skirt
G1 X123.240 Y75.250 E2.43387 ; skirt
G1 X123.760 Y75.340 E2.44105 ; skirt
G1 X124.270 Y75.470 E2.44822 ; skirt
G1 X124.770 Y75.640 E2.45540 ; skirt
G1 X125.490 Y75.970 E2.46618 ; skirt
G1 X126.160 Y76.390 E2.47695 ; skirt
G1 X126.580 Y76.720 E2.48422 ; skirt
G1 X127.150 Y77.270 E2.49500 ; skirt
G1 X127.490 Y77.670 E2.50214 ; skirt
G1 X127.800 Y78.100 E2.50936 ; skirt
G1 X128.070 Y78.550 E2.51650 ; skirt
G1 X128.190 Y78.790 E2.52015 ; skirt
G1 X128.400 Y79.270 E2.52729 ; skirt
G1 X128.640 Y80.020 E2.53800 ; skirt
G1 X128.790 Y80.800 E2.54881 ; skirt
G1 X128.830 Y81.330 E2.55605 ; skirt
G1 X128.830 Y118.660 E3.06415 ; skirt
G1 X128.790 Y119.190 E3.07139 ; skirt
G1 X128.640 Y119.970 E3.08220 ; skirt
G1 X128.400 Y120.720 E3.09292 ; skirt
G1 X128.070 Y121.440 E3.10370 ; skirt
G1 X127.650 Y122.110 E3.11446 ; skirt
G1 X127.320 Y122.530 E3.12173 ; skirt
G1 X126.770 Y123.100 E3.13251 ; skirt
G1 X126.206 Y123.565 E3.14246 ; skirt
G1 X126.160 Y123.600 E3.14325 ; skirt
G1 F420.000 E2.64325 ; retract
G92 E0 ; reset extrusion distance
G1 X78.317 Y106.033 F6000.000 ; move to first perimeter point
G1 F420.000 E0.50000 ; compensate retraction
G1 X78.317 Y103.967 F2100.000 E0.52812 ; perimeter
G1 X121.683 Y103.967 E1.11839 ; perimeter
G1 X121.683 Y106.083 E1.14719 ; perimeter
G1 X109.927 Y106.083 E1.30720 ; perimeter
G1 X109.891 Y106.053 E1.30785 ; perimeter
G1 X108.102 Y105.401 E1.33376 ; perimeter
G1 X106.198 Y105.401 E1.35967 ; perimeter
G1 X104.409 Y106.053 E1.38558 ; perimeter
G1 X102.951 Y107.276 E1.41150 ; perimeter
G1 X101.999 Y108.925 E1.43741 ; perimeter
G1 X101.668 Y110.800 E1.46333 ; perimeter
G1 X101.999 Y112.675 E1.48924 ; perimeter
G1 X102.951 Y114.324 E1.51515 ; perimeter
G1 X104.409 Y115.547 E1.54107 ; perimeter
G1 X106.198 Y116.199 E1.56697 ; perimeter
G1 X108.102 Y116.199 E1.59289 ; perimeter
G1 X109.891 Y115.547 E1.61880 ; perimeter
G1 X109.927 Y115.517 E1.61945 ; perimeter
G1 X121.683 Y115.517 E1.77946 ; perimeter
G1 X121.683 Y117.633 E1.80826 ; perimeter
G1 X107.226 Y117.633 E2.00504 ; perimeter
G1 X105.042 Y117.287 E2.03514 ; perimeter
G1 X103.141 Y116.318 E2.06418 ; perimeter
G1 X101.632 Y114.809 E2.09323 ; perimeter
G1 X100.663 Y112.908 E2.12228 ; perimeter
G1 X100.329 Y110.800 E2.15133 ; perimeter
G1 X100.663 Y108.692 E2.18037 ; perimeter
G1 X102.018 Y106.033 E2.22099 ; perimeter
G1 X78.375 Y106.033 E2.54280 ; perimeter
G1 X78.317 Y106.033 E2.54359 ; perimeter
G1 X77.932 Y106.418 F6000.000 ; move to first perimeter point
G1 X77.932 Y103.582 F2100.000 E2.58219 ; perimeter
G1 X122.068 Y103.582 E3.18293 ; perimeter
G1 X122.068 Y106.468 E3.22221 ; perimeter
G1 X109.787 Y106.468 E3.38936 ; perimeter
G1 X109.695 Y106.391 E3.39099 ; perimeter
G1 X108.034 Y105.786 E3.41506 ; perimeter
G1 X106.266 Y105.786 E3.43912 ; perimeter
G1 X104.605 Y106.391 E3.46319 ; perimeter
G1 X103.250 Y107.528 E3.48726 ; perimeter
G1 X102.366 Y109.059 E3.51132 ; perimeter
G1 X102.059 Y110.800 E3.53539 ; perimeter
G1 X102.366 Y112.541 E3.55945 ; perimeter
G1 X103.250 Y114.072 E3.58352 ; perimeter
G1 X104.605 Y115.209 E3.60758 ; perimeter
G1 X106.266 Y115.814 E3.63165 ; perimeter
G1 X108.034 Y115.814 E3.65571 ; perimeter
G1 X109.695 Y115.209 E3.67978 ; perimeter
G1 X109.787 Y115.132 E3.68141 ; perimeter
G1 X122.068 Y115.132 E3.84856 ; perimeter
G1 X122.068 Y118.018 E3.88784 ; perimeter
G1 X107.196 Y118.018 E4.09027 ; perimeter
G1 X104.922 Y117.658 E4.12161 ; perimeter
G1 X102.912 Y116.634 E4.15232 ; perimeter
G1 X101.316 Y115.038 E4.18302 ; perimeter
G1 X100.292 Y113.028 E4.21373 ; perimeter
G1 X99.939 Y110.800 E4.24444 ; perimeter
G1 X100.292 Y108.572 E4.27514 ; perimeter
G1 X101.390 Y106.418 E4.30804 ; perimeter
G1 X77.990 Y106.418 E4.62654 ; perimeter
G1 X77.932 Y106.418 E4.62733 ; perimeter
G1 X77.547 Y106.803 F6000.000 ; move to first perimeter point
G1 X77.547 Y103.197 F1050.000 E4.67641 ; perimeter
G1 X122.453 Y103.197 E5.28762 ; perimeter
G1 X122.453 Y106.853 E5.33738 ; perimeter
G1 X109.647 Y106.853 E5.51168 ; perimeter
G1 X109.500 Y106.729 E5.51429 ; perimeter
G1 X107.966 Y106.171 E5.53651 ; perimeter
G1 X106.334 Y106.171 E5.55873 ; perimeter
G1 X104.800 Y106.729 E5.58094 ; perimeter
G1 X103.549 Y107.779 E5.60316 ; perimeter
G1 X102.733 Y109.192 E5.62538 ; perimeter
G1 X102.450 Y110.800 E5.64760 ; perimeter
G1 X102.733 Y112.408 E5.66982 ; perimeter
G1 X103.549 Y113.821 E5.69204 ; perimeter
G1 X104.800 Y114.871 E5.71426 ; perimeter
G1 X106.334 Y115.429 E5.73647 ; perimeter
G1 X107.966 Y115.429 E5.75869 ; perimeter
G1 X109.500 Y114.871 E5.78091 ; perimeter
G1 X109.647 Y114.747 E5.78352 ; perimeter
G1 X122.453 Y114.747 E5.95782 ; perimeter
G1 X122.453 Y118.403 E6.00758 ; perimeter
G1 X107.166 Y118.403 E6.21566 ; perimeter
G1 X104.801 Y118.028 E6.24824 ; perimeter
G1 X102.683 Y116.949 E6.28060 ; perimeter
G1 X101.001 Y115.267 E6.31297 ; perimeter
G1 X99.922 Y113.149 E6.34533 ; perimeter
G1 X99.550 Y110.800 E6.37770 ; perimeter
G1 X99.922 Y108.451 E6.41007 ; perimeter
G1 X100.762 Y106.803 E6.43525 ; perimeter
G1 X77.605 Y106.803 E6.75044 ; perimeter
G1 X77.547 Y106.803 E6.75122 ; perimeter
G1 X77.740 Y106.470 F6000.000 ; move inwards before travel
G1 X78.824 Y105.771 ; move to first fill point
G1 X78.579 Y105.526 F2700.000 E6.75598 ; fill
G1 X78.579 Y104.977 E6.76351 ; fill
G1 X79.373 Y105.771 E6.77891 ; fill
G1 X79.922 Y105.771 E6.78644 ; fill
G1 X78.579 Y104.428 E6.81249 ; fill
G1 X78.929 Y104.229 E6.81801 ; fill
G1 X80.470 Y105.771 E6.84793 ; fill
G1 X81.019 Y105.771 E6.85546 ; fill
G1 X79.477 Y104.229 E6.88537 ; fill
G1 X80.026 Y104.229 E6.89290 ; fill
G1 X81.568 Y105.771 E6.92282 ; fill
G1 X82.116 Y105.771 E6.93035 ; fill
G1 X80.575 Y104.229 E6.96026 ; fill
G1 X81.123 Y104.229 E6.96779 ; fill
G1 X82.665 Y105.771 E6.99771 ; fill
G1 X83.214 Y105.771 E7.00524 ; fill
G1 X81.672 Y104.229 E7.03515 ; fill
G1 X82.221 Y104.229 E7.04268 ; fill
G1 X83.762 Y105.771 E7.07260 ; fill
G1 X84.311 Y105.771 E7.08013 ; fill
G1 X82.769 Y104.229 E7.11004 ; fill
G1 X83.318 Y104.229 E7.11757 ; fill
G1 X84.860 Y105.771 E7.14749 ; fill
G1 X85.408 Y105.771 E7.15502 ; fill
G1 X83.867 Y104.229 E7.18493 ; fill
G1 X84.415 Y104.229 E7.19246 ; fill
G1 X85.957 Y105.771 E7.22238 ; fill
G1 X86.506 Y105.771 E7.22991 ; fill
G1 X84.964 Y104.229 E7.25982 ; fill
G1 X85.513 Y104.229 E7.26735 ; fill
G1 X87.054 Y105.771 E7.29727 ; fill
G1 X87.603 Y105.771 E7.30480 ; fill
G1 X86.061 Y104.229 E7.33471 ; fill
G1 X86.610 Y104.229 E7.34224 ; fill
G1 X88.152 Y105.771 E7.37216 ; fill
G1 X88.700 Y105.771 E7.37969 ; fill
G1 X87.159 Y104.229 E7.40960 ; fill
G1 X87.707 Y104.229 E7.41713 ; fill
G1 X89.249 Y105.771 E7.44705 ; fill
G1 X89.798 Y105.771 E7.45458 ; fill
G1 X88.256 Y104.229 E7.48449 ; fill
G1 X88.805 Y104.229 E7.49202 ; fill
G1 X90.346 Y105.771 E7.52194 ; fill
G1 X90.895 Y105.771 E7.52947 ; fill
G1 X89.353 Y104.229 E7.55938 ; fill
G1 X89.902 Y104.229 E7.56691 ; fill
G1 X91.444 Y105.771 E7.59683 ; fill
G1 X91.992 Y105.771 E7.60436 ; fill
G1 X90.451 Y104.229 E7.63427 ; fill
G1 X90.999 Y104.229 E7.64180 ; fill
G1 X92.541 Y105.771 E7.67172 ; fill
G1 X93.090 Y105.771 E7.67925 ; fill
G1 X91.548 Y104.229 E7.70916 ; fill
G1 X92.097 Y104.229 E7.71669 ; fill
G1 X93.638 Y105.771 E7.74661 ; fill
G1 X94.187 Y105.771 E7.75414 ; fill
G1 X92.645 Y104.229 E7.78405 ; fill
G1 X93.194 Y104.229 E7.79158 ; fill
G1 X94.736 Y105.771 E7.82150 ; fill
G1 X95.284 Y105.771 E7.82903 ; fill
G1 X93.743 Y104.229 E7.85894 ; fill
G1 X94.291 Y104.229 E7.86647 ; fill
G1 X95.833 Y105.771 E7.89639 ; fill
G1 X96.382 Y105.771 E7.90392 ; fill
G1 X94.840 Y104.229 E7.93383 ; fill
G1 X95.389 Y104.229 E7.94136 ; fill
G1 X96.930 Y105.771 E7.97128 ; fill
G1 X97.479 Y105.771 E7.97881 ; fill
G1 X95.937 Y104.229 E8.00873 ; fill
G1 X96.486 Y104.229 E8.01625 ; fill
G1 X98.028 Y105.771 E8.04617 ; fill
G1 X98.576 Y105.771 E8.05370 ; fill
G1 X97.035 Y104.229 E8.08362 ; fill
G1 X97.583 Y104.229 E8.09114 ; fill
G1 X99.125 Y105.771 E8.12106 ; fill
G1 X99.674 Y105.771 E8.12859 ; fill
G1 X98.132 Y104.229 E8.15851 ; fill
G1 X98.681 Y104.229 E8.16604 ; fill
G1 X100.222 Y105.771 E8.19595 ; fill
G1 X100.771 Y105.771 E8.20348 ; fill
G1 X99.229 Y104.229 E8.23340 ; fill
G1 X99.778 Y104.229 E8.24092 ; fill
G1 X101.320 Y105.771 E8.27084 ; fill
G1 X101.868 Y105.771 E8.27837 ; fill
G1 X100.326 Y104.229 E8.30829 ; fill
G1 X100.875 Y104.229 E8.31582 ; fill
G1 X102.417 Y105.771 E8.34573 ; fill
G1 X102.404 Y105.758 F6000.000 ; move to first fill point
G1 X103.328 Y106.682 F2700.000 E8.36366 ; fill
G1 X103.030 Y106.933 E8.36901 ; fill
G1 X102.219 Y106.122 E8.38474 ; fill
G1 X102.034 Y106.485 E8.39034 ; fill
G1 X102.745 Y107.197 E8.40414 ; fill
G1 X102.545 Y107.545 E8.40965 ; fill
G1 X101.849 Y106.849 E8.42315 ; fill
G1 X101.664 Y107.212 E8.42875 ; fill
G1 X102.344 Y107.893 E8.44195 ; fill
G1 X102.143 Y108.240 E8.44746 ; fill
G1 X101.479 Y107.576 E8.46035 ; fill
G1 X101.293 Y107.939 E8.46595 ; fill
G1 X101.942 Y108.588 E8.47854 ; fill
G1 X101.749 Y108.943 E8.48409 ; fill
G1 X101.108 Y108.303 E8.49653 ; fill
G1 X100.923 Y108.666 E8.50213 ; fill
G1 X101.667 Y109.410 E8.51656 ; fill
G1 X101.584 Y109.876 E8.52306 ; fill
G1 X100.841 Y109.133 E8.53749 ; fill
G1 X100.766 Y109.606 E8.54407 ; fill
G1 X101.502 Y110.343 E8.55836 ; fill
G1 X101.420 Y110.809 E8.56486 ; fill
G1 X100.691 Y110.080 E8.57901 ; fill
G1 X100.616 Y110.554 E8.58559 ; fill
G1 X101.489 Y111.427 E8.60254 ; fill
G1 X101.606 Y112.093 E8.61182 ; fill
G1 X100.672 Y111.159 E8.62995 ; fill
G1 X100.776 Y111.811 E8.63900 ; fill
G1 X101.724 Y112.759 E8.65741 ; fill
G1 X101.304 Y113.437 F6000.000 ; move to first fill point
G1 X104.513 Y116.646 F2700.000 E8.71969 ; fill
G1 X105.092 Y116.128 F6000.000 ; move to first fill point
G1 X106.139 Y117.174 F2700.000 E8.74000 ; fill
G1 X105.487 Y117.071 E8.74906 ; fill
G1 X104.230 Y115.814 E8.77346 ; fill
G1 X105.955 Y116.442 F6000.000 ; move to first fill point
G1 X106.791 Y117.278 F2700.000 E8.78969 ; fill
G1 X107.433 Y117.371 E8.79858 ; fill
G1 X106.523 Y116.461 E8.81624 ; fill
G1 X107.071 Y116.461 E8.82377 ; fill
G1 X107.982 Y117.371 E8.84143 ; fill
G1 X108.530 Y117.371 E8.84896 ; fill
G1 X107.620 Y116.461 E8.86662 ; fill
G1 X108.136 Y116.428 E8.87372 ; fill
G1 X109.079 Y117.371 E8.89201 ; fill
G1 X109.628 Y117.371 E8.89954 ; fill
G1 X108.539 Y116.282 E8.92067 ; fill
G1 X108.941 Y116.135 E8.92654 ; fill
G1 X110.176 Y117.371 E8.95051 ; fill
G1 X110.725 Y117.371 E8.95804 ; fill
G1 X109.343 Y115.989 E8.98485 ; fill
G1 X109.745 Y115.843 E8.99072 ; fill
G1 X111.274 Y117.371 E9.02038 ; fill
G1 X111.822 Y117.371 E9.02791 ; fill
G1 X110.231 Y115.779 E9.05879 ; fill
G1 X110.779 Y115.779 E9.06632 ; fill
G1 X112.371 Y117.371 E9.09721 ; fill
G1 X112.920 Y117.371 E9.10474 ; fill
G1 X111.328 Y115.779 E9.13563 ; fill
G1 X111.876 Y115.779 E9.14315 ; fill
G1 X113.468 Y117.371 E9.17404 ; fill
G1 X114.017 Y117.371 E9.18157 ; fill
G1 X112.425 Y115.779 E9.21246 ; fill
G1 X112.974 Y115.779 E9.21998 ; fill
G1 X114.566 Y117.371 E9.25087 ; fill
G1 X115.114 Y117.371 E9.25840 ; fill
G1 X113.522 Y115.779 E9.28929 ; fill
G1 X114.071 Y115.779 E9.29681 ; fill
G1 X115.663 Y117.371 E9.32770 ; fill
G1 X116.212 Y117.371 E9.33523 ; fill
G1 X114.620 Y115.779 E9.36612 ; fill
G1 X115.168 Y115.779 E9.37365 ; fill
G1 X116.760 Y117.371 E9.40453 ; fill
G1 X117.309 Y117.371 E9.41206 ; fill
G1 X115.717 Y115.779 E9.44295 ; fill
G1 X116.266 Y115.779 E9.45048 ; fill
G1 X117.858 Y117.371 E9.48136 ; fill
G1 X118.406 Y117.371 E9.48889 ; fill
G1 X116.814 Y115.779 E9.51978 ; fill
G1 X117.363 Y115.779 E9.52731 ; fill
G1 X118.955 Y117.371 E9.55819 ; fill
G1 X119.504 Y117.371 E9.56572 ; fill
G1 X117.912 Y115.779 E9.59661 ; fill
G1 X118.460 Y115.779 E9.60414 ; fill
G1 X120.052 Y117.371 E9.63503 ; fill
G1 X120.601 Y117.371 E9.64255 ; fill
G1 X119.009 Y115.779 E9.67344 ; fill
G1 X119.558 Y115.779 E9.68097 ; fill
G1 X121.150 Y117.371 E9.71186 ; fill
G1 X121.421 Y117.094 E9.71718 ; fill
G1 X120.106 Y115.779 E9.74268 ; fill
G1 X120.655 Y115.779 E9.75021 ; fill
G1 X121.421 Y116.545 E9.76507 ; fill
G1 F420.000 E9.26507 ; retract
G92 E0 ; reset extrusion distance
G1 X121.121 Y105.821 F6000.000 ; move to first fill point
G1 F420.000 E0.50000 ; compensate retraction
G1 X119.530 Y104.229 F2700.000 E0.53089 ; fill
G1 X118.981 Y104.229 E0.53842 ; fill
G1 X120.573 Y105.821 E0.56930 ; fill
G1 X120.024 Y105.821 E0.57683 ; fill
G1 X118.432 Y104.229 E0.60772 ; fill
G1 X117.884 Y104.229 E0.61525 ; fill
G1 X119.475 Y105.821 E0.64613 ; fill
G1 X118.927 Y105.821 E0.65366 ; fill
G1 X117.335 Y104.229 E0.68455 ; fill
G1 X116.786 Y104.229 E0.69208 ; fill
G1 X118.378 Y105.821 E0.72296 ; fill
G1 X117.829 Y105.821 E0.73049 ; fill
G1 X116.238 Y104.229 E0.76138 ; fill
G1 X115.689 Y104.229 E0.76891 ; fill
G1 X117.281 Y105.821 E0.79979 ; fill
G1 X116.732 Y105.821 E0.80732 ; fill
G1 X115.140 Y104.229 E0.83821 ; fill
G1 X114.592 Y104.229 E0.84574 ; fill
G1 X116.183 Y105.821 E0.87663 ; fill
G1 X115.635 Y105.821 E0.88415 ; fill
G1 X114.043 Y104.229 E0.91504 ; fill
G1 X113.494 Y104.229 E0.92257 ; fill
G1 X115.086 Y105.821 E0.95346 ; fill
G1 X114.537 Y105.821 E0.96098 ; fill
G1 X112.946 Y104.229 E0.99187 ; fill
G1 X112.397 Y104.229 E0.99940 ; fill
G1 X113.989 Y105.821 E1.03028 ; fill
G1 X113.440 Y105.821 E1.03781 ; fill
G1 X111.848 Y104.229 E1.06870 ; fill
G1 X111.300 Y104.229 E1.07623 ; fill
G1 X112.891 Y105.821 E1.10712 ; fill
G1 X112.343 Y105.821 E1.11465 ; fill
G1 X110.751 Y104.229 E1.14553 ; fill
G1 X110.202 Y104.229 E1.15306 ; fill
G1 X111.794 Y105.821 E1.18395 ; fill
G1 X111.245 Y105.821 E1.19148 ; fill
G1 X109.654 Y104.229 E1.22236 ; fill
G1 X109.105 Y104.229 E1.22989 ; fill
G1 X110.697 Y105.821 E1.26078 ; fill
G1 X110.138 Y105.811 E1.26844 ; fill
G1 X108.556 Y104.229 E1.29914 ; fill
G1 X108.008 Y104.229 E1.30667 ; fill
