; generated by Slic3r 0.9.8 on 2013-04-04 at 23:23:45

; layer_height = 0.25
; perimeters = 3
; top_solid_layers = 4
; bottom_solid_layers = 4
; fill_density = 0.15
; perimeter_speed = 70
; infill_speed = 90
; travel_speed = 100
; scale = 1
; nozzle_diameter = 0.35
; filament_diameter = 3
; extrusion_multiplier = 1
; perimeters extrusion width = 0.39mm
; infill extrusion width = 0.39mm
; first layer extrusion width = 0.39mm

M107 ; disable fan
G28 ; home all axes
G90 ; use absolute coordinates
G21 ; set units to millimeters
G92 E0 ; reset extrusion distance
M82 ; use absolute distances for extrusion
G1 F420.000 E-0.50000 ; retract
G92 E0 ; reset extrusion distance
G1 Z0.250 F6000.000 ; move to next layer (0)
G1 X125.010 Y113.450 ; move to first skirt point
G1 F420.000 E0.50000 ; compensate retraction
G1 X124.520 Y113.640 F2100.000 E0.50715 ; skirt
G1 X123.760 Y113.850 E0.51789 ; skirt
G1 X123.240 Y113.940 E0.52507 ; skirt
G1 X122.710 Y113.980 E0.53230 ; skirt
G1 X107.160 Y113.980 E0.74396 ; skirt
G1 X106.150 Y113.900 E0.75775 ; skirt
G1 X103.500 Y113.470 E0.79429 ; skirt
G1 X102.920 Y113.320 E0.80244 ; skirt
G1 X102.370 Y113.120 E0.81041 ; skirt
G1 X74.860 Y101.800 E1.21531 ; skirt
G1 X74.620 Y101.680 E1.21896 ; skirt
G1 X73.930 Y101.270 E1.22989 ; skirt
G1 X73.290 Y100.770 E1.24094 ; skirt
G1 X72.910 Y100.390 E1.24826 ; skirt
G1 X72.550 Y99.990 E1.25558 ; skirt
G1 X72.090 Y99.330 E1.26653 ; skirt
G1 X71.950 Y99.090 E1.27031 ; skirt
G1 X71.710 Y98.610 E1.27762 ; skirt
G1 X71.510 Y98.110 E1.28495 ; skirt
G1 X71.300 Y97.340 E1.29581 ; skirt
G1 X71.210 Y96.810 E1.30313 ; skirt
G1 X71.160 Y96.270 E1.31051 ; skirt
G1 X71.160 Y92.130 E1.36686 ; skirt
G1 X71.200 Y91.600 E1.37409 ; skirt
G1 X71.240 Y91.340 E1.37767 ; skirt
G1 X71.420 Y90.570 E1.38844 ; skirt
G1 X71.590 Y90.070 E1.39562 ; skirt
G1 X71.800 Y89.590 E1.40276 ; skirt
G1 X71.920 Y89.350 E1.40641 ; skirt
G1 X72.190 Y88.900 E1.41355 ; skirt
G1 X72.670 Y88.260 E1.42444 ; skirt
G1 X72.840 Y88.070 E1.42791 ; skirt
G1 X73.410 Y87.520 E1.43869 ; skirt
G1 X74.050 Y87.040 E1.44958 ; skirt
G1 X74.500 Y86.770 E1.45672 ; skirt
G1 X74.740 Y86.650 E1.46038 ; skirt
G1 X75.220 Y86.440 E1.46751 ; skirt
G1 X75.970 Y86.200 E1.47822 ; skirt
G1 X76.750 Y86.050 E1.48904 ; skirt
G1 X77.280 Y86.010 E1.49627 ; skirt
G1 X122.710 Y86.010 E2.11462 ; skirt
G1 X123.240 Y86.050 E2.12186 ; skirt
G1 X124.020 Y86.200 E2.13267 ; skirt
G1 X124.770 Y86.440 E2.14339 ; skirt
G1 X125.490 Y86.770 E2.15417 ; skirt
G1 X126.160 Y87.190 E2.16493 ; skirt
G1 X126.580 Y87.520 E2.17220 ; skirt
G1 X127.150 Y88.070 E2.18298 ; skirt
G1 X127.650 Y88.680 E2.19372 ; skirt
G1 X128.070 Y89.350 E2.20448 ; skirt
G1 X128.400 Y90.070 E2.21526 ; skirt
G1 X128.640 Y90.820 E2.22598 ; skirt
G1 X128.750 Y91.340 E2.23321 ; skirt
G1 X128.790 Y91.600 E2.23679 ; skirt
G1 X128.830 Y92.130 E2.24403 ; skirt
G1 X128.830 Y107.860 E2.45813 ; skirt
G1 X128.790 Y108.390 E2.46537 ; skirt
G1 X128.750 Y108.650 E2.46895 ; skirt
G1 X128.570 Y109.420 E2.47971 ; skirt
G1 X128.400 Y109.920 E2.48690 ; skirt
G1 X128.190 Y110.400 E2.49403 ; skirt
G1 X128.070 Y110.640 E2.49768 ; skirt
G1 X127.800 Y111.090 E2.50482 ; skirt
G1 X127.320 Y111.730 E2.51571 ; skirt
G1 X127.150 Y111.920 E2.51918 ; skirt
G1 X126.580 Y112.470 E2.52996 ; skirt
G1 X125.940 Y112.950 E2.54085 ; skirt
G1 X125.490 Y113.220 E2.54800 ; skirt
G1 X125.062 Y113.426 E2.55446 ; skirt
G1 X125.010 Y113.450 E2.55524 ; skirt
G1 F420.000 E2.05524 ; retract
G92 E0 ; reset extrusion distance
G1 X78.317 Y95.233 F6000.000 ; move to first perimeter point
G1 F420.000 E0.50000 ; compensate retraction
G1 X78.317 Y93.167 F2100.000 E0.52812 ; perimeter
G1 X121.683 Y93.167 E1.11839 ; perimeter
G1 X121.683 Y95.283 E1.14719 ; perimeter
G1 X109.927 Y95.283 E1.30720 ; perimeter
G1 X109.891 Y95.253 E1.30785 ; perimeter
G1 X108.102 Y94.601 E1.33376 ; perimeter
G1 X106.198 Y94.601 E1.35967 ; perimeter
G1 X104.409 Y95.253 E1.38558 ; perimeter
G1 X102.951 Y96.476 E1.41150 ; perimeter
G1 X101.999 Y98.125 E1.43741 ; perimeter
G1 X101.668 Y100.000 E1.46333 ; perimeter
G1 X101.999 Y101.875 E1.48924 ; perimeter
G1 X102.951 Y103.524 E1.51515 ; perimeter
G1 X104.409 Y104.747 E1.54107 ; perimeter
G1 X106.198 Y105.399 E1.56697 ; perimeter
G1 X108.102 Y105.399 E1.59289 ; perimeter
G1 X109.891 Y104.747 E1.61880 ; perimeter
G1 X109.927 Y104.717 E1.61945 ; perimeter
G1 X121.683 Y104.717 E1.77946 ; perimeter
G1 X121.683 Y106.833 E1.80826 ; perimeter
G1 X107.226 Y106.833 E2.00504 ; perimeter
G1 X105.042 Y106.487 E2.03514 ; perimeter
G1 X103.141 Y105.518 E2.06418 ; perimeter
G1 X101.632 Y104.009 E2.09323 ; perimeter
G1 X100.663 Y102.108 E2.12228 ; perimeter
G1 X100.329 Y100.000 E2.15133 ; perimeter
G1 X100.663 Y97.892 E2.18037 ; perimeter
G1 X102.018 Y95.233 E2.22099 ; perimeter
G1 X78.375 Y95.233 E2.54280 ; perimeter
G1 X78.317 Y95.233 E2.54359 ; perimeter
G1 X77.932 Y95.618 F6000.000 ; move to first perimeter point
G1 X77.932 Y92.782 F2100.000 E2.58219 ; perimeter
G1 X122.068 Y92.782 E3.18293 ; perimeter
G1 X122.068 Y95.668 E3.22221 ; perimeter
G1 X109.787 Y95.668 E3.38936 ; perimeter
G1 X109.695 Y95.591 E3.39099 ; perimeter
G1 X108.034 Y94.986 E3.41506 ; perimeter
G1 X106.266 Y94.986 E3.43912 ; perimeter
G1 X104.605 Y95.591 E3.46319 ; perimeter
G1 X103.250 Y96.728 E3.48726 ; perimeter
G1 X102.366 Y98.259 E3.51132 ; perimeter
G1 X102.059 Y100.000 E3.53539 ; perimeter
G1 X102.366 Y101.741 E3.55945 ; perimeter
G1 X103.250 Y103.272 E3.58352 ; perimeter
G1 X104.605 Y104.409 E3.60758 ; perimeter
G1 X106.266 Y105.014 E3.63165 ; perimeter
G1 X108.034 Y105.014 E3.65571 ; perimeter
G1 X109.695 Y104.409 E3.67978 ; perimeter
G1 X109.787 Y104.332 E3.68141 ; perimeter
G1 X122.068 Y104.332 E3.84856 ; perimeter
G1 X122.068 Y107.218 E3.88784 ; perimeter
G1 X107.196 Y107.218 E4.09027 ; perimeter
G1 X104.922 Y106.858 E4.12161 ; perimeter
G1 X102.912 Y105.834 E4.15232 ; perimeter
G1 X101.316 Y104.238 E4.18302 ; perimeter
G1 X100.292 Y102.228 E4.21373 ; perimeter
G1 X99.939 Y100.000 E4.24444 ; perimeter
G1 X100.292 Y97.772 E4.27514 ; perimeter
G1 X101.390 Y95.618 E4.30804 ; perimeter
G1 X77.990 Y95.618 E4.62654 ; perimeter
G1 X77.932 Y95.618 E4.62733 ; perimeter
G1 X77.547 Y96.003 F6000.000 ; move to first perimeter point
G1 X77.547 Y92.397 F1050.000 E4.67641 ; perimeter
G1 X122.453 Y92.397 E5.28762 ; perimeter
G1 X122.453 Y96.053 E5.33738 ; perimeter
G1 X109.647 Y96.053 E5.51168 ; perimeter
G1 X109.500 Y95.929 E5.51429 ; perimeter
G1 X107.966 Y95.371 E5.53651 ; perimeter
G1 X106.334 Y95.371 E5.55873 ; perimeter
G1 X104.800 Y95.929 E5.58094 ; perimeter
G1 X103.549 Y96.979 E5.60316 ; perimeter
G1 X102.733 Y98.392 E5.62538 ; perimeter
G1 X102.450 Y100.000 E5.64760 ; perimeter
G1 X102.733 Y101.608 E5.66982 ; perimeter
G1 X103.549 Y103.021 E5.69204 ; perimeter
G1 X104.800 Y104.071 E5.71426 ; perimeter
G1 X106.334 Y104.629 E5.73647 ; perimeter
G1 X107.966 Y104.629 E5.75869 ; perimeter
G1 X109.500 Y104.071 E5.78091 ; perimeter
G1 X109.647 Y103.947 E5.78352 ; perimeter
G1 X122.453 Y103.947 E5.95782 ; perimeter
G1 X122.453 Y107.603 E6.00758 ; perimeter
G1 X107.166 Y107.603 E6.21566 ; perimeter
G1 X104.801 Y107.228 E6.24824 ; perimeter
G1 X102.683 Y106.149 E6.28060 ; perimeter
G1 X101.001 Y104.467 E6.31297 ; perimeter
G1 X99.922 Y102.349 E6.34533 ; perimeter
G1 X99.550 Y100.000 E6.37770 ; perimeter
G1 X99.922 Y97.651 E6.41007 ; perimeter
G1 X100.762 Y96.003 E6.43525 ; perimeter
G1 X77.605 Y96.003 E6.75044 ; perimeter
G1 X77.547 Y96.003 E6.75122 ; perimeter
G1 X77.740 Y95.670 F6000.000 ; move inwards before travel
G1 X78.824 Y94.971 ; move to first fill point
G1 X78.579 Y94.726 F2700.000 E6.75598 ; fill
G1 X78.579 Y94.177 E6.76351 ; fill
G1 X79.373 Y94.971 E6.77891 ; fill
G1 X79.922 Y94.971 E6.78644 ; fill
G1 X78.579 Y93.628 E6.81249 ; fill
G1 X78.929 Y93.429 E6.81801 ; fill
G1 X80.470 Y94.971 E6.84793 ; fill
G1 X81.019 Y94.971 E6.85546 ; fill
G1 X79.477 Y93.429 E6.88537 ; fill
G1 X80.026 Y93.429 E6.89290 ; fill
G1 X81.568 Y94.971 E6.92282 ; fill
G1 X82.116 Y94.971 E6.93035 ; fill
G1 X80.575 Y93.429 E6.96026 ; fill
G1 X81.123 Y93.429 E6.96779 ; fill
G1 X82.665 Y94.971 E6.99771 ; fill
G1 X83.214 Y94.971 E7.00524 ; fill
G1 X81.672 Y93.429 E7.03515 ; fill
G1 X82.221 Y93.429 E7.04268 ; fill
G1 X83.762 Y94.971 E7.07260 ; fill
G1 X84.311 Y94.971 E7.08013 ; fill
G1 X82.769 Y93.429 E7.11004 ; fill
G1 X83.318 Y93.429 E7.11757 ; fill
G1 X84.860 Y94.971 E7.14749 ; fill
G1 X85.408 Y94.971 E7.15502 ; fill
G1 X83.867 Y93.429 E7.18493 ; fill
G1 X84.415 Y93.429 E7.19246 ; fill
G1 X85.957 Y94.971 E7.22238 ; fill
G1 X86.506 Y94.971 E7.22991 ; fill
G1 X84.964 Y93.429 E7.25982 ; fill
G1 X85.513 Y93.429 E7.26735 ; fill
G1 X87.054 Y94.971 E7.29727 ; fill
G1 X87.603 Y94.971 E7.30480 ; fill
G1 X86.061 Y93.429 E7.33471 ; fill
G1 X86.610 Y93.429 E7.34224 ; fill
G1 X88.152 Y94.971 E7.37216 ; fill
G1 X88.700 Y94.971 E7.37969 ; fill
G1 X87.159 Y93.429 E7.40960 ; fill
G1 X87.707 Y93.429 E7.41713 ; fill
G1 X89.249 Y94.971 E7.44705 ; fill
G1 X89.798 Y94.971 E7.45458 ; fill
G1 X88.256 Y93.429 E7.48449 ; fill
G1 X88.805 Y93.429 E7.49202 ; fill
G1 X90.346 Y94.971 E7.52194 ; fill
G1 X90.895 Y94.971 E7.52947 ; fill
G1 X89.353 Y93.429 E7.55938 ; fill
G1 X89.902 Y93.429 E7.56691 ; fill
G1 X91.444 Y94.971 E7.59683 ; fill
G1 X91.992 Y94.971 E7.60436 ; fill
G1 X90.451 Y93.429 E7.63427 ; fill
G1 X90.999 Y93.429 E7.64180 ; fill
G1 X92.541 Y94.971 E7.67172 ; fill
G1 X93.090 Y94.971 E7.67925 ; fill
G1 X91.548 Y93.429 E7.70916 ; fill
G1 X92.097 Y93.429 E7.71669 ; fill
G1 X93.638 Y94.971 E7.74661 ; fill
G1 X94.187 Y94.971 E7.75414 ; fill
G1 X92.645 Y93.429 E7.78405 ; fill
G1 X93.194 Y93.429 E7.79158 ; fill
G1 X94.736 Y94.971 E7.82150 ; fill
G1 X95.284 Y94.971 E7.82903 ; fill
G1 X93.743 Y93.429 E7.85894 ; fill
G1 X94.291 Y93.429 E7.86647 ; fill
G1 X95.833 Y94.971 E7.89639 ; fill
G1 X96.382 Y94.971 E7.90392 ; fill
G1 X94.840 Y93.429 E7.93383 ; fill
G1 X95.389 Y93.429 E7.94136 ; fill
G1 X96.930 Y94.971 E7.97128 ; fill
G1 X97.479 Y94.971 E7.97881 ; fill
G1 X95.937 Y93.429 E8.00873 ; fill
G1 X96.486 Y93.429 E8.01625 ; fill
G1 X98.028 Y94.971 E8.04617 ; fill
G1 X98.576 Y94.971 E8.05370 ; fill
G1 X97.035 Y93.429 E8.08362 ; fill
G1 X97.583 Y93.429 E8.09114 ; fill
G1 X99.125 Y94.971 E8.12106 ; fill
G1 X99.674 Y94.971 E8.12859 ; fill
G1 X98.132 Y93.429 E8.15851 ; fill
G1 X98.681 Y93.429 E8.16604 ; fill
G1 X100.222 Y94.971 E8.19595 ; fill
G1 X100.771 Y94.971 E8.20348 ; fill
G1 X99.229 Y93.429 E8.23340 ; fill
G1 X99.778 Y93.429 E8.24092 ; fill
G1 X101.320 Y94.971 E8.27084 ; fill
G1 X101.868 Y94.971 E8.27837 ; fill
G1 X100.326 Y93.429 E8.30829 ; fill
G1 X100.875 Y93.429 E8.31582 ; fill
G1 X102.417 Y94.971 E8.34573 ; fill
G1 X102.404 Y94.958 F6000.000 ; move to first fill point
G1 X103.328 Y95.882 F2700.000 E8.36366 ; fill
G1 X103.030 Y96.133 E8.36901 ; fill
G1 X102.219 Y95.322 E8.38474 ; fill
G1 X102.034 Y95.685 E8.39034 ; fill
G1 X102.745 Y96.397 E8.40414 ; fill
G1 X102.545 Y96.745 E8.40965 ; fill
G1 X101.849 Y96.049 E8.42315 ; fill
G1 X101.664 Y96.412 E8.42875 ; fill
G1 X102.344 Y97.093 E8.44195 ; fill
G1 X102.143 Y97.440 E8.44746 ; fill
G1 X101.479 Y96.776 E8.46035 ; fill
G1 X101.293 Y97.139 E8.46595 ; fill
G1 X101.942 Y97.788 E8.47854 ; fill
G1 X101.749 Y98.143 E8.48409 ; fill
G1 X101.108 Y97.503 E8.49653 ; fill
G1 X100.923 Y97.866 E8.50213 ; fill
G1 X101.667 Y98.610 E8.51656 ; fill
G1 X101.584 Y99.076 E8.52306 ; fill
G1 X100.841 Y98.333 E8.53749 ; fill
G1 X100.766 Y98.806 E8.54407 ; fill
G1 X101.502 Y99.543 E8.55836 ; fill
G1 X101.420 Y100.009 E8.56486 ; fill
G1 X100.691 Y99.280 E8.57901 ; fill
G1 X100.616 Y99.754 E8.58559 ; fill
G1 X101.489 Y100.627 E8.60254 ; fill
G1 X101.606 Y101.293 E8.61182 ; fill
G1 X100.672 Y100.359 E8.62995 ; fill
G1 X100.776 Y101.011 E8.63900 ; fill
G1 X101.724 Y101.959 E8.65741 ; fill
G1 X101.304 Y102.637 F6000.000 ; move to first fill point
G1 X104.513 Y105.846 F2700.000 E8.71969 ; fill
G1 X105.092 Y105.328 F6000.000 ; move to first fill point
G1 X106.139 Y106.374 F2700.000 E8.74000 ; fill
G1 X105.487 Y106.271 E8.74906 ; fill
G1 X104.230 Y105.014 E8.77346 ; fill
G1 X105.955 Y105.642 F6000.000 ; move to first fill point
G1 X106.791 Y106.478 F2700.000 E8.78969 ; fill
G1 X107.433 Y106.571 E8.79858 ; fill
G1 X106.523 Y105.661 E8.81624 ; fill
G1 X107.071 Y105.661 E8.82377 ; fill
G1 X107.982 Y106.571 E8.84143 ; fill
G1 X108.530 Y106.571 E8.84896 ; fill
G1 X107.620 Y105.661 E8.86662 ; fill
G1 X108.136 Y105.628 E8.87372 ; fill
G1 X109.079 Y106.571 E8.89201 ; fill
G1 X109.628 Y106.571 E8.89954 ; fill
G1 X108.539 Y105.482 E8.92067 ; fill
G1 X108.941 Y105.335 E8.92654 ; fill
G1 X110.176 Y106.571 E8.95051 ; fill
G1 X110.725 Y106.571 E8.95804 ; fill
G1 X109.343 Y105.189 E8.98485 ; fill
G1 X109.745 Y105.043 E8.99072 ; fill
G1 X111.274 Y106.571 E9.02038 ; fill
G1 X111.822 Y106.571 E9.02791 ; fill
G1 X110.231 Y104.979 E9.05879 ; fill
G1 X110.779 Y104.979 E9.06632 ; fill
G1 X112.371 Y106.571 E9.09721 ; fill
G1 X112.920 Y106.571 E9.10474 ; fill
G1 X111.328 Y104.979 E9.13563 ; fill
G1 X111.876 Y104.979 E9.14315 ; fill
G1 X113.468 Y106.571 E9.17404 ; fill
G1 X114.017 Y106.571 E9.18157 ; fill
G1 X112.425 Y104.979 E9.21246 ; fill
G1 X112.974 Y104.979 E9.21998 ; fill
G1 X114.566 Y106.571 E9.25087 ; fill
G1 X115.114 Y106.571 E9.25840 ; fill
G1 X113.522 Y104.979 E9.28929 ; fill
G1 X114.071 Y104.979 E9.29681 ; fill
G1 X115.663 Y106.571 E9.32770 ; fill
G1 X116.212 Y106.571 E9.33523 ; fill
G1 X114.620 Y104.979 E9.36612 ; fill
G1 X115.168 Y104.979 E9.37365 ; fill
G1 X116.760 Y106.571 E9.40453 ; fill
G1 X117.309 Y106.571 E9.41206 ; fill
G1 X115.717 Y104.979 E9.44295 ; fill
G1 X116.266 Y104.979 E9.45048 ; fill
G1 X117.858 Y106.571 E9.48136 ; fill
G1 X118.406 Y106.571 E9.48889 ; fill
G1 X116.814 Y104.979 E9.51978 ; fill
G1 X117.363 Y104.979 E9.52731 ; fill
G1 X118.955 Y106.571 E9.55819 ; fill
G1 X119.504 Y106.571 E9.56572 ; fill
G1 X117.912 Y104.979 E9.59661 ; fill
G1 X118.460 Y104.979 E9.60414 ; fill
G1 X120.052 Y106.571 E9.63503 ; fill
G1 X120.601 Y106.571 E9.64255 ; fill
G1 X119.009 Y104.979 E9.67344 ; fill
G1 X119.558 Y104.979 E9.68097 ; fill
G1 X121.150 Y106.571 E9.71186 ; fill
G1 X121.421 Y106.294 E9.71718 ; fill
G1 X120.106 Y104.979 E9.74268 ; fill
G1 X120.655 Y104.979 E9.75021 ; fill
G1 X121.421 Y105.745 E9.76507 ; fill
G1 F420.000 E9.26507 ; retract
G92 E0 ; reset extrusion distance
G1 X121.121 Y95.021 F6000.000 ; move to first fill point
G1 F420.000 E0.50000 ; compensate retraction
G1 X119.530 Y93.429 F2700.000 E0.53089 ; fill
G1 X118.981 Y93.429 E0.53842 ; fill
G1 X120.573 Y95.021 E0.56930 ; fill
G1 X120.024 Y95.021 E0.57683 ; fill
G1 X118.432 Y93.429 E0.60772 ; fill
G1 X117.884 Y93.429 E0.61525 ; fill
G1 X119.475 Y95.021 E0.64613 ; fill
G1 X118.927 Y95.021 E0.65366 ; fill
G1 X117.335 Y93.429 E0.68455 ; fill
G1 X116.786 Y93.429 E0.69208 ; fill
G1 X118.378 Y95.021 E0.72296 ; fill
G1 X117.829 Y95.021 E0.73049 ; fill
G1 X116.238 Y93.429 E0.76138 ; fill
G1 X115.689 Y93.429 E0.76891 ; fill
G1 X117.281 Y95.021 E0.79979 ; fill
G1 X116.732 Y95.021 E0.80732 ; fill
G1 X115.140 Y93.429 E0.83821 ; fill
G1 X114.592 Y93.429 E0.84574 ; fill
G1 X116.183 Y95.021 E0.87663 ; fill
G1 X115.635 Y95.021 E0.88415 ; fill
G1 X114.043 Y93.429 E0.91504 ; fill
G1 X113.494 Y93.429 E0.92257 ; fill
G1 X115.086 Y95.021 E0.95346 ; fill
G1 X114.537 Y95.021 E0.96098 ; fill
G1 X112.946 Y93.429 E0.99187 ; fill
G1 X112.397 Y93.429 E0.99940 ; fill
G1 X113.989 Y95.021 E1.03028 ; fill
G1 X113.440 Y95.021 E1.03781 ; fill
G1 X111.848 Y93.429 E1.06870 ; fill
G1 X111.300 Y93.429 E1.07623 ; fill
G1 X112.891 Y95.021 E1.10712 ; fill
G1 X112.343 Y95.021 E1.11465 ; fill
G1 X110.751 Y93.429 E1.14553 ; fill
G1 X110.202 Y93.429 E1.15306 ; fill
G1 X111.794 Y95.021 E1.18395 ; fill
G1 X111.245 Y95.021 E1.19148 ; fill
G1 X109.654 Y93.429 E1.22236 ; fill
G1 X109.105 Y93.429 E1.22989 ; fill
G1 X110.697 Y95.021 E1.26078 ; fill
G1 X110.138 Y95.011 E1.26844 ; fill
G1 X108.556 Y93.429 E1.29914 ; fill
G1 X108.008 Y93.429 E1.30667 ; fill
G1 X109.276 Y94.697 E1.33127 ; fill
G1 X108.413 Y94.383 E1.34387 ; fill
G1 X107.459 Y93.429 E1.36238 ; fill
