; generated by Slic3r 1.2.9 on 2016-05-27 at 22:07:59

; external perimeters extrusion width = 0.40mm
; perimeters extrusion width = 0.56mm
; infill extrusion width = 0.56mm
; solid infill extrusion width = 0.56mm
; top infill extrusion width = 0.56mm

M107 ; disable fan
G28 ; home all axes
G21 ; set units to millimeters
G90 ; use absolute coordinates
M82 ; use absolute distances for extrusion
G92 E0 ; reset extrusion distance
G1 E-0.50000 F420.00000 ; retract
G92 E0 ; reset extrusion distance
G1 Z0.250 F6000.000 ; move to next layer (0)
G1 X69.037 Y69.499 F6000.000 ; move to first skirt point
G1 E0.50000 F420.00000 ; unretract
G1 X70.785 Y68.048 E0.54039 F1800.000 ; skirt
G1 X74.000 Y67.197 E0.59952 ; skirt
G1 X126.000 Y67.197 E1.52396 ; skirt
G1 X128.237 Y67.594 E1.56435 ; skirt
G1 X130.201 Y68.737 E1.60474 F1800.000 ; skirt
G1 X131.652 Y70.485 E1.64514 ; skirt
G1 X132.503 Y73.700 E1.70426 ; skirt
G1 X132.503 Y126.300 E2.63937 ; skirt
G1 X132.106 Y128.537 E2.67976 ; skirt
G1 X130.963 Y130.501 E2.72015 ; skirt
G1 X129.215 Y131.952 E2.76055 ; skirt
G1 X126.000 Y132.803 E2.81967 ; skirt
G1 X74.000 Y132.803 E3.74411 ; skirt
G1 X71.763 Y132.406 E3.78451 ; skirt
G1 X69.799 Y131.263 E3.82490 ; skirt
G1 X68.348 Y129.515 E3.86529 ; skirt
G1 X67.497 Y126.300 E3.92441 ; skirt
G1 X67.497 Y73.700 E4.85953 ; skirt
G1 X67.894 Y71.463 E4.89992 ; skirt
G1 X69.006 Y69.551 E4.93924 ; skirt
G1 E4.43924 F420.00000 ; retract
G92 E0 ; reset extrusion distance
G1 X109.586 Y118.112 F6000.000 ; move to first perimeter point
G1 E0.50000 F420.00000 ; unretract
G1 X105.414 Y118.112 E0.57415 F1500.000 ; perimeter
G1 X105.126 Y117.613 E0.58440 ; perimeter
G1 X103.329 Y114.500 E0.64831 ; perimeter
G1 X105.414 Y110.888 E0.72246 ; perimeter
G1 X109.586 Y110.888 E0.79661 ; perimeter
G1 X111.671 Y114.500 E0.87077 ; perimeter
G1 X109.616 Y118.060 E0.94385 ; perimeter
G1 X109.340 Y117.688 F6000.000 ; move to first perimeter point
G1 X105.660 Y117.688 E0.98894 F1500.000 ; perimeter
G1 X105.494 Y117.401 E0.99300 ; perimeter
G1 X103.819 Y114.500 E1.03403 ; perimeter
G1 X105.660 Y111.312 E1.07912 ; perimeter
G1 X109.340 Y111.312 E1.12421 ; perimeter
G1 X111.181 Y114.500 E1.16930 ; perimeter
G1 X109.370 Y117.636 E1.21366 ; perimeter
G1 X109.271 Y118.082 F6000.000 ; move inwards before travel
G1 X109.876 Y118.615 F6000.000 ; move to first perimeter point
G1 X112.252 Y114.500 E1.29813 F2100.000 ; perimeter
G1 X109.876 Y110.385 E1.38260 ; perimeter
G1 X105.124 Y110.385 E1.46707 ; perimeter
G1 X103.351 Y113.457 E1.53013 ; perimeter
G1 X103.127 Y113.397 E1.53425 ; perimeter
G1 X103.127 Y103.130 E1.71677 ; perimeter
G1 X103.395 Y103.131 E1.72153 ; perimeter
G1 X124.873 Y124.609 E2.26152 ; perimeter
G1 X124.873 Y125.173 E2.27154 ; perimeter
G1 X103.127 Y125.173 E2.65813 ; perimeter
G1 X103.127 Y115.603 E2.82826 ; perimeter
G1 X103.351 Y115.543 E2.83238 ; perimeter
G1 X105.124 Y118.615 E2.89544 ; perimeter
G1 X109.816 Y118.615 E2.97884 ; perimeter
G1 E2.47884 F420.00000 ; retract
G92 E0 ; reset extrusion distance
G1 X102.625 Y125.675 F6000.000 ; move to first perimeter point
G1 E0.50000 F420.00000 ; unretract
G1 X102.625 Y102.626 E0.90977 F2100.000 ; perimeter
G1 X103.604 Y102.629 E0.92717 ; perimeter
G1 X125.375 Y124.401 E1.47455 ; perimeter
G1 X125.375 Y125.675 E1.49721 ; perimeter
G1 X102.685 Y125.675 E1.90061 ; perimeter
G1 X102.200 Y126.100 F6000.000 ; move to first perimeter point
G1 X102.200 Y102.201 E2.19337 F1050.000 ; perimeter
G1 X103.780 Y102.205 E2.21272 ; perimeter
G1 X125.800 Y124.225 E2.59419 ; perimeter
G1 X125.800 Y126.100 E2.61716 ; perimeter
G1 X102.260 Y126.100 E2.90551 ; perimeter
G1 X102.400 Y125.754 F6000.000 ; move inwards before travel
G1 X103.681 Y124.872 F6000.000 ; move to first infill point
G1 X103.428 Y124.619 E2.91195 F2700.000 ; infill
G1 X103.428 Y123.900 E2.92488 ; infill
G1 X104.400 Y124.872 E2.94960 ; infill
G1 X105.119 Y124.872 E2.96253 ; infill
G1 X103.428 Y123.181 E3.00554 ; infill
G1 X103.428 Y122.462 E3.01847 ; infill
G1 X105.838 Y124.872 E3.07976 ; infill
G1 X106.557 Y124.872 E3.09268 ; infill
G1 X103.428 Y121.743 E3.17226 ; infill
G1 X103.428 Y121.024 E3.18519 ; infill
G1 X107.276 Y124.872 E3.28304 ; infill
G1 X107.995 Y124.872 E3.29597 ; infill
G1 X103.428 Y120.305 E3.41211 ; infill
G1 X103.428 Y119.586 E3.42504 ; infill
G1 X108.714 Y124.872 E3.55947 ; infill
G1 X109.433 Y124.872 E3.57239 ; infill
G1 X103.428 Y118.867 E3.72510 ; infill
G1 X104.816 Y118.817 F6000.000 ; move to first infill point
G1 X103.530 Y117.532 E3.75779 F2700.000 ; infill
G1 X103.428 Y118.148 E3.76902 ; infill
G1 X110.152 Y124.872 E3.94001 ; infill
G1 X110.871 Y124.872 E3.95294 ; infill
G1 X104.914 Y118.916 E4.10442 ; infill
G1 X105.633 Y118.916 E4.11734 ; infill
G1 X111.590 Y124.872 E4.26882 ; infill
G1 X112.309 Y124.872 E4.28175 ; infill
G1 X106.352 Y118.916 E4.43322 ; infill
G1 X107.071 Y118.916 E4.44615 ; infill
G1 X113.028 Y124.872 E4.59762 ; infill
G1 X113.747 Y124.872 E4.61055 ; infill
G1 X107.790 Y118.916 E4.76203 ; infill
G1 X108.509 Y118.916 E4.77495 ; infill
G1 X114.466 Y124.872 E4.92643 ; infill
G1 X115.185 Y124.872 E4.93936 ; infill
G1 X109.228 Y118.916 E5.09083 ; infill
G1 X109.947 Y118.916 E5.10376 ; infill
G1 X115.904 Y124.872 E5.25523 ; infill
G1 X116.623 Y124.872 E5.26816 ; infill
G1 X110.247 Y118.496 E5.43031 ; infill
G1 X110.510 Y118.040 E5.43977 ; infill
G1 X117.342 Y124.872 E5.61351 ; infill
G1 X118.061 Y124.872 E5.62644 ; infill
G1 X110.773 Y117.584 E5.81177 ; infill
G1 X111.036 Y117.128 E5.82123 ; infill
G1 X118.780 Y124.872 E6.01815 ; infill
G1 X119.499 Y124.872 E6.03108 ; infill
G1 X111.299 Y116.673 E6.23959 ; infill
G1 X111.562 Y116.217 E6.24906 ; infill
G1 X120.218 Y124.872 E6.46916 ; infill
G1 X120.937 Y124.872 E6.48209 ; infill
G1 X111.826 Y115.761 E6.71379 ; infill
G1 X112.089 Y115.305 E6.72325 ; infill
G1 X121.656 Y124.872 E6.96654 ; infill
G1 X122.375 Y124.872 E6.97946 ; infill
G1 X112.352 Y114.849 E7.23434 ; infill
G1 X112.615 Y114.393 E7.24381 ; infill
G1 X123.094 Y124.872 E7.51027 ; infill
G1 X123.813 Y124.872 E7.52320 ; infill
G1 X111.633 Y112.692 E7.83293 ; infill
G1 X111.945 Y112.286 E7.84215 ; infill
G1 X124.512 Y124.852 E8.16171 ; infill
G1 E7.66171 F420.00000 ; retract
G92 E0 ; reset extrusion distance
G1 X111.622 Y112.209 F6000.000 ; move to first infill point
G1 E0.50000 F420.00000 ; unretract
G1 X110.669 Y110.965 E0.55869 F600.000 ; infill
G1 X110.669 Y110.965 F6000.000 ; move to first infill point
G1 X110.060 Y110.172 E0.57647 F600.000 ; infill
G1 X109.724 Y110.064 F6000.000 ; move to first infill point
G1 X103.448 Y103.788 E0.74127 F2700.000 ; infill
G1 X103.428 Y104.511 E0.75469 ; infill
G1 X109.002 Y110.084 E0.90104 ; infill
G1 X108.259 Y110.084 E0.91483 ; infill
G1 X103.428 Y105.253 E1.04169 ; infill
G1 X103.428 Y105.995 E1.05547 ; infill
G1 X107.517 Y110.084 E1.16284 ; infill
G1 X106.774 Y110.084 E1.17662 ; infill
G1 X103.428 Y106.738 E1.26450 ; infill
G1 X103.428 Y107.480 E1.27828 ; infill
G1 X106.032 Y110.084 E1.34666 ; infill
G1 X105.290 Y110.084 E1.36045 ; infill
G1 X103.428 Y108.223 E1.40934 ; infill
G1 X103.428 Y108.965 E1.42312 ; infill
G1 X104.832 Y110.369 E1.45998 ; infill
G1 X104.560 Y110.839 E1.47007 ; infill
G1 X103.428 Y109.707 E1.49980 ; infill
G1 X103.428 Y110.450 E1.51358 ; infill
G1 X104.288 Y111.310 E1.53617 ; infill
G1 X103.689 Y111.454 E1.54760 ; infill
G1 X103.428 Y111.192 E1.55447 ; infill
G1 X103.677 Y111.794 F6000.000 ; move to first infill point
G1 X103.391 Y112.860 E1.57409 F600.000 ; infill
G1 X103.174 Y113.670 F6000.000 ; move to first infill point
G1 X102.963 Y114.456 E1.58857 F600.000 ; infill
G1 X102.963 Y114.544 E1.59012 ; infill
G1 X103.174 Y115.330 E1.60460 ; infill
G1 X103.391 Y116.140 F6000.000 ; move to first infill point
G1 X103.677 Y117.206 E1.62422 F600.000 ; infill
G1 E1.12422 F420.00000 ; retract
G92 E0 ; reset extrusion distance
G1 X94.586 Y89.112 F6000.000 ; move to first perimeter point
G1 E0.50000 F420.00000 ; unretract
G1 X90.414 Y89.112 E0.57415 F1500.000 ; perimeter
G1 X88.329 Y85.500 E0.64831 ; perimeter
G1 X90.414 Y81.888 E0.72246 ; perimeter
G1 X94.586 Y81.888 E0.79661 ; perimeter
G1 X96.671 Y85.500 E0.87077 ; perimeter
G1 X94.616 Y89.060 E0.94385 ; perimeter
G1 X94.340 Y88.688 F6000.000 ; move to first perimeter point
G1 X90.660 Y88.688 E0.98894 F1500.000 ; perimeter
G1 X88.819 Y85.500 E1.03403 ; perimeter
G1 X90.660 Y82.312 E1.07912 ; perimeter
G1 X94.340 Y82.312 E1.12421 ; perimeter
G1 X96.181 Y85.500 E1.16930 ; perimeter
G1 X94.370 Y88.636 E1.21366 ; perimeter
G1 X94.271 Y89.082 F6000.000 ; move inwards before travel
G1 X94.876 Y89.615 F6000.000 ; move to first perimeter point
G1 X96.649 Y86.543 E1.27672 F2100.000 ; perimeter
G1 X96.873 Y86.603 E1.28083 ; perimeter
G1 X96.873 Y96.873 E1.46341 ; perimeter
G1 X96.609 Y96.873 E1.46810 ; perimeter
G1 X75.127 Y75.391 E2.00819 ; perimeter
G1 X75.127 Y74.827 E2.01821 ; perimeter
G1 X96.873 Y74.827 E2.40480 ; perimeter
G1 X96.873 Y84.397 E2.57493 ; perimeter
G1 X96.649 Y84.457 E2.57905 ; perimeter
G1 X94.876 Y81.385 E2.64211 ; perimeter
G1 X90.124 Y81.385 E2.72658 ; perimeter
G1 X87.748 Y85.500 E2.81105 ; perimeter
G1 X90.124 Y89.615 E2.89552 ; perimeter
G1 X94.816 Y89.615 E2.97893 ; perimeter
G1 E2.47893 F420.00000 ; retract
G92 E0 ; reset extrusion distance
G1 X97.375 Y97.375 F6000.000 ; move to first perimeter point
G1 E0.50000 F420.00000 ; unretract
G1 X96.401 Y97.375 E0.51733 F2100.000 ; perimeter
G1 X74.625 Y75.599 E1.06482 ; perimeter
G1 X74.625 Y74.325 E1.08748 ; perimeter
G1 X97.375 Y74.325 E1.49194 ; perimeter
G1 X97.375 Y97.315 E1.90067 ; perimeter
G1 X97.800 Y97.800 F6000.000 ; move to first perimeter point
G1 X96.225 Y97.800 E1.91996 F1050.000 ; perimeter
G1 X74.200 Y75.775 E2.30152 ; perimeter
G1 X74.200 Y73.900 E2.32448 ; perimeter
G1 X97.800 Y73.900 E2.61357 ; perimeter
G1 X97.800 Y97.740 E2.90561 ; perimeter
G1 X97.454 Y97.600 F6000.000 ; move inwards before travel
G1 E2.40561 F420.00000 ; retract
G92 E0 ; reset extrusion distance
G1 X96.572 Y88.808 F6000.000 ; move to first infill point
G1 E0.50000 F420.00000 ; unretract
G1 X96.311 Y88.546 E0.50687 F2700.000 ; infill
G1 X95.712 Y88.690 E0.51830 ; infill
G1 X96.572 Y89.550 E0.54089 ; infill
G1 X96.572 Y90.293 E0.55467 ; infill
G1 X95.440 Y89.161 E0.58440 ; infill
G1 X95.168 Y89.631 E0.59449 ; infill
G1 X96.572 Y91.035 E0.63135 ; infill
G1 X96.572 Y91.777 E0.64513 ; infill
G1 X94.710 Y89.916 E0.69402 ; infill
G1 X93.968 Y89.916 E0.70781 ; infill
G1 X96.572 Y92.520 E0.77619 ; infill
G1 X96.572 Y93.262 E0.78997 ; infill
G1 X93.226 Y89.916 E0.87785 ; infill
G1 X92.483 Y89.916 E0.89163 ; infill
G1 X96.572 Y94.005 E0.99900 ; infill
G1 X96.572 Y94.747 E1.01278 ; infill
G1 X91.741 Y89.916 E1.13965 ; infill
G1 X90.998 Y89.916 E1.15343 ; infill
G1 X96.572 Y95.489 E1.29979 ; infill
G1 X96.552 Y96.212 E1.31320 ; infill
G1 X90.276 Y89.936 E1.47800 ; infill
G1 X89.940 Y89.828 F6000.000 ; move to first infill point
G1 X89.331 Y89.035 E1.49579 F600.000 ; infill
G1 X89.331 Y89.035 F6000.000 ; move to first infill point
G1 X88.378 Y87.791 E1.55447 F600.000 ; infill
G1 X88.055 Y87.714 F6000.000 ; move to first infill point
G1 X75.488 Y75.148 E1.87403 F2700.000 ; infill
G1 X76.187 Y75.128 E1.88661 ; infill
G1 X88.367 Y87.308 E2.19633 ; infill
G1 X87.385 Y85.607 F6000.000 ; move to first infill point
G1 X76.906 Y75.128 E2.46280 F2700.000 ; infill
G1 X77.625 Y75.128 E2.47573 ; infill
G1 X87.648 Y85.151 E2.73061 ; infill
G1 X87.911 Y84.695 E2.74007 ; infill
G1 X78.344 Y75.128 E2.98336 ; infill
G1 X79.063 Y75.128 E2.99629 ; infill
G1 X88.174 Y84.239 E3.22798 ; infill
G1 X88.438 Y83.783 E3.23745 ; infill
G1 X79.782 Y75.128 E3.45755 ; infill
G1 X80.501 Y75.128 E3.47048 ; infill
G1 X88.701 Y83.327 E3.67899 ; infill
G1 X88.964 Y82.872 E3.68846 ; infill
G1 X81.220 Y75.128 E3.88538 ; infill
G1 X81.939 Y75.128 E3.89831 ; infill
G1 X89.227 Y82.416 E4.08364 ; infill
G1 X89.490 Y81.960 E4.09310 ; infill
G1 X82.658 Y75.128 E4.26684 ; infill
G1 X83.377 Y75.128 E4.27977 ; infill
G1 X89.753 Y81.504 E4.44191 ; infill
G1 X90.053 Y81.084 E4.45118 ; infill
G1 X84.096 Y75.128 E4.60266 ; infill
G1 X84.815 Y75.128 E4.61559 ; infill
G1 X90.772 Y81.084 E4.76706 ; infill
G1 X91.491 Y81.084 E4.77999 ; infill
G1 X85.534 Y75.128 E4.93146 ; infill
G1 X86.253 Y75.128 E4.94439 ; infill
G1 X92.210 Y81.084 E5.09587 ; infill
G1 X92.929 Y81.084 E5.10879 ; infill
G1 X86.972 Y75.128 E5.26027 ; infill
G1 X87.691 Y75.128 E5.27320 ; infill
G1 X93.648 Y81.084 E5.42467 ; infill
G1 X94.367 Y81.084 E5.43760 ; infill
G1 X88.410 Y75.128 E5.58907 ; infill
G1 X89.129 Y75.128 E5.60200 ; infill
G1 X96.470 Y82.468 E5.78867 ; infill
G1 X96.572 Y81.852 E5.79990 ; infill
G1 X89.848 Y75.128 E5.97089 ; infill
G1 X90.567 Y75.128 E5.98382 ; infill
G1 X96.572 Y81.133 E6.13653 ; infill
G1 X96.572 Y80.414 E6.14946 ; infill
G1 X91.286 Y75.128 E6.28388 ; infill
G1 X92.005 Y75.128 E6.29681 ; infill
G1 X96.572 Y79.695 E6.41295 ; infill
G1 X96.572 Y78.976 E6.42588 ; infill
G1 X92.724 Y75.128 E6.52374 ; infill
G1 X93.443 Y75.128 E6.53667 ; infill
G1 X96.572 Y78.257 E6.61624 ; infill
G1 X96.572 Y77.538 E6.62917 ; infill
G1 X94.162 Y75.128 E6.69046 ; infill
G1 X94.881 Y75.128 E6.70339 ; infill
G1 X96.572 Y76.819 E6.74640 ; infill
G1 X96.572 Y76.100 E6.75933 ; infill
G1 X95.600 Y75.128 E6.78405 ; infill
G1 X96.319 Y75.128 E6.79698 ; infill
G1 X96.572 Y75.381 E6.80342 ; infill
G1 E6.30342 F420.00000 ; retract
G92 E0 ; reset extrusion distance
G1 X96.323 Y82.794 F6000.000 ; move to first infill point
G1 E0.50000 F420.00000 ; unretract
G1 X96.609 Y83.860 E0.51962 F600.000 ; infill
G1 X96.826 Y84.670 F6000.000 ; move to first infill point
G1 X97.037 Y85.456 E0.53410 F600.000 ; infill
G1 X97.037 Y85.544 E0.53565 ; infill
G1 X96.826 Y86.330 E0.55013 ; infill
G1 X96.609 Y87.140 F6000.000 ; move to first infill point
G1 X96.323 Y88.206 E0.56975 F600.000 ; infill
G1 E0.06975 F420.00000 ; retract
G92 E0 ; reset extrusion distance
G1 X94.586 Y110.888 F6000.000 ; move to first perimeter point
G1 E0.50000 F420.00000 ; unretract
G1 X96.671 Y114.500 E0.57415 F1500.000 ; perimeter
G1 X94.586 Y118.112 E0.64831 ; perimeter
G1 X90.414 Y118.112 E0.72246 ; perimeter
G1 X88.329 Y114.500 E0.79661 ; perimeter
G1 X90.414 Y110.888 E0.87077 ; perimeter
G1 X94.526 Y110.888 E0.94385 ; perimeter
G1 X94.340 Y111.312 F6000.000 ; move to first perimeter point
G1 X96.181 Y114.500 E0.98894 F1500.000 ; perimeter
G1 X94.340 Y117.688 E1.03403 ; perimeter
G1 X90.660 Y117.688 E1.07912 ; perimeter
G1 X88.819 Y114.500 E1.12421 ; perimeter
G1 X90.660 Y111.312 E1.16930 ; perimeter
G1 X94.280 Y111.312 E1.21366 ; perimeter
G1 X94.716 Y111.175 F6000.000 ; move inwards before travel
G1 X94.876 Y110.385 F6000.000 ; move to first perimeter point
G1 X90.124 Y110.385 E1.29813 F2100.000 ; perimeter
G1 X87.748 Y114.500 E1.38260 ; perimeter
G1 X90.124 Y118.615 E1.46707 ; perimeter
G1 X94.876 Y118.615 E1.55155 ; perimeter
G1 X96.649 Y115.543 E1.61461 ; perimeter
G1 X96.873 Y115.603 E1.61872 ; perimeter
G1 X96.873 Y125.173 E1.78885 ; perimeter
G1 X75.127 Y125.173 E2.17544 ; perimeter
G1 X75.127 Y124.609 E2.18546 ; perimeter
G1 X96.609 Y103.127 E2.72555 ; perimeter
G1 X96.873 Y103.127 E2.73024 ; perimeter
G1 X96.873 Y113.397 E2.91282 ; perimeter
G1 X96.649 Y113.457 E2.91693 ; perimeter
G1 X94.906 Y110.437 E2.97893 ; perimeter
G1 E2.47893 F420.00000 ; retract
G92 E0 ; reset extrusion distance
G1 X97.375 Y102.625 F6000.000 ; move to first perimeter point
G1 E0.50000 F420.00000 ; unretract
G1 X97.375 Y125.675 E0.90980 F2100.000 ; perimeter
G1 X74.625 Y125.675 E1.31426 ; perimeter
G1 X74.625 Y124.401 E1.33692 ; perimeter
G1 X96.401 Y102.625 E1.88441 ; perimeter
G1 X97.315 Y102.625 E1.90067 ; perimeter
G1 X97.800 Y102.200 F6000.000 ; move to first perimeter point
G1 X97.800 Y126.100 E2.19344 F1050.000 ; perimeter
G1 X74.200 Y126.100 E2.48253 ; perimeter
G1 X74.200 Y124.225 E2.50550 ; perimeter
G1 X96.225 Y102.200 E2.88705 ; perimeter
G1 X97.740 Y102.200 E2.90561 ; perimeter
G1 X97.600 Y102.546 F6000.000 ; move inwards before travel
