; generated by Slic3r 1.1.7 on 2015-08-26 at 12:14:06

; perimeters extrusion width = 0.40mm
; infill extrusion width = 0.53mm
; solid infill extrusion width = 0.53mm
; top infill extrusion width = 0.53mm

G21 ; set units to millimeters
M107 ; disable fan
G28 ; home all axes
G90 ; use absolute coordinates
G92 E0 ; reset extrusion distance
M82 ; use absolute distances for extrusion
G1 F420.000 E-0.50000 ; retract
G92 E0 ; reset extrusion distance
G1 Z0.250 F6000.000 ; move to next layer (0)
G1 X69.138 Y69.538 F6000.000 ; move to first skirt point
G1 E0.50000 F420.000 ; compensate retraction
G1 X70.883 Y68.111 E0.53189 F1800.000 ; skirt
G1 X74.000 Y67.300 E0.57745 ; skirt
G1 X126.000 Y67.300 E1.31310 ; skirt
G1 X128.219 Y67.697 E1.34499 ; skirt
G1 X130.162 Y68.838 E1.37688 F1800.000 ; skirt
G1 X131.589 Y70.583 E1.40876 ; skirt
G1 X132.400 Y73.700 E1.45433 ; skirt
G1 X132.400 Y126.300 E2.19847 ; skirt
G1 X132.003 Y128.519 E2.23035 ; skirt
G1 X130.862 Y130.462 E2.26224 ; skirt
G1 X129.117 Y131.889 E2.29412 ; skirt
G1 X126.000 Y132.700 E2.33969 ; skirt
G1 X74.000 Y132.700 E3.07534 ; skirt
G1 X71.781 Y132.303 E3.10723 ; skirt
G1 X69.838 Y131.162 E3.13911 ; skirt
G1 X68.411 Y129.417 E3.17100 ; skirt
G1 X67.600 Y126.300 E3.21657 ; skirt
G1 X67.600 Y73.700 E3.96071 ; skirt
G1 X67.997 Y71.481 E3.99259 ; skirt
G1 X69.108 Y69.590 E4.02363 ; skirt
G1 F420.000 E3.52363 ; retract
G92 E0 ; reset extrusion distance
G1 X99.834 Y71.857 F6000.000 ; move to first brim point
G1 E0.50000 F420.000 ; compensate retraction
G1 X100.166 Y71.857 E0.50469 F1800.000 ; brim
G1 X100.923 Y71.100 E0.51984 ; brim
G1 X127.077 Y71.100 E0.88984 ; brim
G1 X128.600 Y72.623 E0.92031 ; brim
G1 X128.600 Y76.375 E0.97339 ; brim
G1 X128.204 Y77.331 E0.98803 ; brim
G1 X105.700 Y99.834 E1.43826 ; brim
G1 X105.700 Y100.166 E1.44295 ; brim
G1 X128.204 Y122.669 E1.89318 ; brim
G1 X128.600 Y123.625 E1.90781 ; brim
G1 X128.600 Y127.377 E1.96089 ; brim
G1 X127.077 Y128.900 E1.99136 ; brim
G1 X100.923 Y128.900 E2.36137 ; brim
G1 X100.166 Y128.143 E2.37652 ; brim
G1 X99.834 Y128.143 E2.38121 ; brim
G1 X99.077 Y128.900 E2.39636 ; brim
G1 X72.923 Y128.900 E2.76636 ; brim
G1 X71.400 Y127.377 E2.79683 ; brim
G1 X71.400 Y123.625 E2.84991 ; brim
G1 X71.796 Y122.669 E2.86455 ; brim
G1 X94.300 Y100.166 E3.31478 ; brim
G1 X94.300 Y99.834 E3.31946 ; brim
G1 X71.796 Y77.331 E3.76970 ; brim
G1 X71.400 Y76.375 E3.78433 ; brim
G1 X71.400 Y72.623 E3.83741 ; brim
G1 X72.923 Y71.100 E3.86788 ; brim
G1 X99.077 Y71.100 E4.23788 ; brim
G1 X99.792 Y71.815 E4.25219 ; brim
G1 X99.834 Y72.423 F6000.000 ; move to first brim point
G1 X100.166 Y72.423 E4.25687 F1800.000 ; brim
G1 X101.089 Y71.500 E4.27534 ; brim
G1 X126.911 Y71.500 E4.64066 ; brim
G1 X128.200 Y72.789 E4.66644 ; brim
G1 X128.200 Y76.296 E4.71605 ; brim
G1 X127.865 Y77.104 E4.72843 ; brim
G1 X105.135 Y99.834 E5.18320 ; brim
G1 X105.135 Y100.166 E5.18788 ; brim
G1 X127.865 Y122.896 E5.64265 ; brim
G1 X128.200 Y123.704 E5.65503 ; brim
G1 X128.200 Y127.211 E5.70464 ; brim
G1 X126.911 Y128.500 E5.73043 ; brim
G1 X101.089 Y128.500 E6.09574 ; brim
G1 X100.166 Y127.577 E6.11421 ; brim
G1 X99.834 Y127.577 E6.11890 ; brim
G1 X98.911 Y128.500 E6.13736 ; brim
G1 X73.089 Y128.500 E6.50268 ; brim
G1 X71.800 Y127.211 E6.52846 ; brim
G1 X71.800 Y123.704 E6.57807 ; brim
G1 X72.135 Y122.896 E6.59045 ; brim
G1 X94.865 Y100.166 E7.04522 ; brim
G1 X94.865 Y99.834 E7.04991 ; brim
G1 X72.135 Y77.104 E7.50467 ; brim
G1 X71.800 Y76.296 E7.51705 ; brim
G1 X71.800 Y72.789 E7.56666 ; brim
G1 X73.089 Y71.500 E7.59245 ; brim
G1 X98.911 Y71.500 E7.95776 ; brim
G1 X99.792 Y72.381 E7.97538 ; brim
G1 F420.000 E7.47538 ; retract
G92 E0 ; reset extrusion distance
G1 X95.622 Y99.733 F6000.000 ; move to first brim point
G1 E0.50000 F420.000 ; compensate retraction
G1 X95.123 Y99.526 E0.50764 F1800.000 ; brim
G1 X72.474 Y76.878 E0.96077 ; brim
G1 X72.200 Y76.216 E0.97090 ; brim
G1 X72.200 Y72.954 E1.01704 ; brim
G1 X73.254 Y71.900 E1.03814 ; brim
G1 X98.746 Y71.900 E1.39877 ; brim
G1 X99.834 Y72.989 E1.42055 ; brim
G1 X100.166 Y72.989 E1.42524 ; brim
G1 X101.254 Y71.900 E1.44702 ; brim
G1 X126.746 Y71.900 E1.80764 ; brim
G1 X127.800 Y72.954 E1.82874 ; brim
G1 X127.800 Y76.216 E1.87488 ; brim
G1 X127.526 Y76.878 E1.88501 ; brim
G1 X104.877 Y99.526 E2.33814 ; brim
G1 X104.378 Y99.733 E2.34578 ; brim
G1 X104.378 Y100.267 E2.35335 ; brim
G1 X104.877 Y100.474 E2.36099 ; brim
G1 X127.526 Y123.122 E2.81412 ; brim
G1 X127.800 Y123.784 E2.82425 ; brim
G1 X127.800 Y127.046 E2.87039 ; brim
G1 X126.746 Y128.100 E2.89149 ; brim
G1 X101.254 Y128.100 E3.25211 ; brim
G1 X100.166 Y127.011 E3.27389 ; brim
G1 X99.834 Y127.011 E3.27858 ; brim
G1 X98.746 Y128.100 E3.30036 ; brim
G1 X73.254 Y128.100 E3.66099 ; brim
G1 X72.200 Y127.046 E3.68209 ; brim
G1 X72.200 Y123.784 E3.72823 ; brim
G1 X72.474 Y123.122 E3.73836 ; brim
G1 X95.122 Y100.474 E4.19148 ; brim
G1 X95.622 Y100.267 E4.19913 ; brim
G1 X95.622 Y99.793 E4.20584 ; brim
G1 X95.775 Y99.363 F6000.000 ; move to first brim point
G1 X95.349 Y99.187 E4.21236 F1800.000 ; brim
G1 X72.813 Y76.651 E4.66324 ; brim
G1 X72.600 Y76.136 E4.67112 ; brim
G1 X72.600 Y73.120 E4.71379 ; brim
G1 X73.420 Y72.300 E4.73020 ; brim
G1 X98.580 Y72.300 E5.08614 ; brim
G1 X99.400 Y73.120 E5.10254 F1800.000 ; brim
G1 X99.400 Y98.580 E5.46273 ; brim
G1 X98.580 Y99.400 E5.47913 ; brim
G1 X95.864 Y99.400 E5.51756 ; brim
G1 X95.830 Y99.386 E5.51807 ; brim
G1 X95.928 Y98.994 F6000.000 ; move to first brim point
G1 X95.576 Y98.848 E5.52346 F1800.000 ; brim
G1 X73.152 Y76.424 E5.97209 ; brim
G1 X73.000 Y76.057 E5.97772 ; brim
G1 X73.000 Y73.286 E6.01692 ; brim
G1 X73.586 Y72.700 E6.02864 ; brim
G1 X98.414 Y72.700 E6.37989 ; brim
G1 X99.000 Y73.286 E6.39161 ; brim
G1 X99.000 Y98.414 E6.74711 F1800.000 ; brim
G1 X98.414 Y99.000 E6.75883 ; brim
G1 X95.987 Y99.000 E6.79317 ; brim
G1 X96.023 Y98.600 F6000.000 ; move to first brim point
G1 X95.802 Y98.509 E6.79655 F1800.000 ; brim
G1 X73.491 Y76.198 E7.24292 ; brim
G1 X73.400 Y75.977 E7.24630 ; brim
G1 X73.400 Y73.451 E7.28203 ; brim
G1 X73.751 Y73.100 E7.28906 ; brim
G1 X98.249 Y73.100 E7.63563 ; brim
G1 X98.600 Y73.451 E7.64266 F1800.000 ; brim
G1 X98.600 Y98.249 E7.99347 ; brim
G1 X98.249 Y98.600 E8.00050 ; brim
G1 X96.083 Y98.600 E8.03114 ; brim
G1 F420.000 E7.53114 ; retract
G92 E0 ; reset extrusion distance
G1 X98.200 Y98.083 F6000.000 ; move to first brim point
G1 E0.50000 F420.000 ; compensate retraction
G1 X98.083 Y98.200 E0.50234 F1800.000 ; brim
G1 X96.102 Y98.200 E0.53036 ; brim
G1 X96.029 Y98.170 E0.53149 ; brim
G1 X73.830 Y75.971 E0.97561 ; brim
G1 X73.800 Y75.898 E0.97674 ; brim
G1 X73.800 Y73.617 E1.00900 ; brim
G1 X73.917 Y73.500 E1.01134 ; brim
G1 X98.083 Y73.500 E1.35322 ; brim
G1 X98.200 Y73.617 E1.35556 ; brim
G1 X98.200 Y98.023 E1.70083 ; brim
G1 F420.000 E1.20083 ; retract
G92 E0 ; reset extrusion distance
G1 X100.600 Y98.083 F6000.000 ; move to first brim point
G1 E0.50000 F420.000 ; compensate retraction
G1 X100.600 Y73.120 E0.85315 F1800.000 ; brim
G1 X101.420 Y72.300 E0.86956 ; brim
G1 X126.580 Y72.300 E1.22550 ; brim
G1 X127.400 Y73.120 E1.24190 F1800.000 ; brim
G1 X127.400 Y76.136 E1.28458 ; brim
G1 X127.187 Y76.651 E1.29246 ; brim
G1 X104.651 Y99.187 E1.74334 ; brim
G1 X104.136 Y99.400 E1.75121 ; brim
G1 X101.420 Y99.400 E1.78964 ; brim
G1 X100.600 Y98.580 E1.80605 ; brim
G1 X100.600 Y98.143 E1.81223 ; brim
G1 X101.000 Y98.083 F6000.000 ; move to first brim point
G1 X101.000 Y73.286 E2.16304 F1800.000 ; brim
G1 X101.586 Y72.700 E2.17476 ; brim
G1 X126.414 Y72.700 E2.52601 ; brim
G1 X127.000 Y73.286 E2.53773 ; brim
G1 X127.000 Y76.057 E2.57693 F1800.000 ; brim
G1 X126.848 Y76.424 E2.58256 ; brim
G1 X104.424 Y98.848 E3.03118 ; brim
G1 X104.057 Y99.000 E3.03681 ; brim
G1 X101.586 Y99.000 E3.07177 ; brim
G1 X101.000 Y98.414 E3.08349 ; brim
G1 X101.000 Y98.143 E3.08733 ; brim
G1 X101.400 Y98.083 F6000.000 ; move to first brim point
G1 X101.400 Y73.451 E3.43579 F1800.000 ; brim
G1 X101.751 Y73.100 E3.44282 ; brim
G1 X126.249 Y73.100 E3.78938 ; brim
G1 X126.600 Y73.451 E3.79642 F1800.000 ; brim
G1 X126.600 Y75.977 E3.83215 ; brim
G1 X126.509 Y76.198 E3.83552 ; brim
G1 X104.198 Y98.509 E4.28190 ; brim
G1 X103.977 Y98.600 E4.28528 ; brim
G1 X101.751 Y98.600 E4.31676 ; brim
G1 X101.400 Y98.249 E4.32380 ; brim
G1 X101.400 Y98.143 E4.32529 ; brim
G1 X101.917 Y98.200 F6000.000 ; move to first brim point
G1 X101.800 Y98.083 E4.32764 F1800.000 ; brim
G1 X101.800 Y73.617 E4.67375 ; brim
G1 X101.917 Y73.500 E4.67610 ; brim
G1 X126.083 Y73.500 E5.01797 ; brim
G1 X126.200 Y73.617 E5.02032 ; brim
G1 X126.200 Y75.898 E5.05258 ; brim
G1 X126.170 Y75.971 E5.05370 ; brim
G1 X103.971 Y98.170 E5.49783 ; brim
G1 X103.898 Y98.200 E5.49895 ; brim
G1 X101.977 Y98.200 E5.52612 ; brim
G1 F420.000 E5.02612 ; retract
G92 E0 ; reset extrusion distance
G1 X101.917 Y100.600 F6000.000 ; move to first brim point
G1 E0.50000 F420.000 ; compensate retraction
G1 X104.136 Y100.600 E0.53139 F1800.000 ; brim
G1 X104.651 Y100.813 E0.53927 F1800.000 ; brim
G1 X127.187 Y123.349 E0.99015 ; brim
G1 X127.400 Y123.864 E0.99803 ; brim
G1 X127.400 Y126.880 E1.04070 ; brim
G1 X126.580 Y127.700 E1.05711 ; brim
G1 X101.420 Y127.700 E1.41305 ; brim
G1 X100.600 Y126.880 E1.42946 ; brim
G1 X100.600 Y101.420 E1.78964 ; brim
G1 X101.420 Y100.600 E1.80605 ; brim
G1 X101.857 Y100.600 E1.81223 ; brim
G1 X101.917 Y101.000 F6000.000 ; move to first brim point
G1 X104.057 Y101.000 E1.84250 F1800.000 ; brim
G1 X104.424 Y101.152 E1.84813 ; brim
G1 X126.848 Y123.576 E2.29675 F1800.000 ; brim
G1 X127.000 Y123.943 E2.30238 ; brim
G1 X127.000 Y126.714 E2.34158 ; brim
G1 X126.414 Y127.300 E2.35330 ; brim
G1 X101.586 Y127.300 E2.70455 ; brim
G1 X101.000 Y126.714 E2.71627 ; brim
G1 X101.000 Y101.586 E3.07177 ; brim
G1 X101.586 Y101.000 E3.08349 ; brim
G1 X101.857 Y101.000 E3.08733 ; brim
G1 X101.917 Y101.400 F6000.000 ; move to first brim point
G1 X103.977 Y101.400 E3.11647 F1800.000 ; brim
G1 X104.198 Y101.491 E3.11985 F1800.000 ; brim
G1 X126.509 Y123.802 E3.56622 ; brim
G1 X126.600 Y124.023 E3.56960 ; brim
G1 X126.600 Y126.549 E3.60533 ; brim
G1 X126.249 Y126.900 E3.61236 ; brim
G1 X101.751 Y126.900 E3.95893 ; brim
G1 X101.400 Y126.549 E3.96596 ; brim
G1 X101.400 Y101.751 E4.31676 ; brim
G1 X101.751 Y101.400 E4.32380 ; brim
G1 X101.857 Y101.400 E4.32529 ; brim
G1 X101.800 Y101.917 F6000.000 ; move to first brim point
G1 X101.917 Y101.800 E4.32764 F1800.000 ; brim
G1 X103.898 Y101.800 E4.35565 ; brim
G1 X103.971 Y101.830 E4.35678 ; brim
G1 X126.170 Y124.029 E4.80090 ; brim
G1 X126.200 Y124.102 E4.80203 ; brim
G1 X126.200 Y126.383 E4.83429 ; brim
G1 X126.083 Y126.500 E4.83664 ; brim
G1 X101.917 Y126.500 E5.17851 ; brim
G1 X101.800 Y126.383 E5.18085 ; brim
G1 X101.800 Y101.977 E5.52612 ; brim
G1 X100.669 Y100.786 F6000.000 ; move to first brim point
G1 X100.166 Y101.289 E5.53619 F1800.000 ; brim
G1 X99.834 Y101.289 E5.54087 ; brim
G1 X98.711 Y100.166 E5.56334 ; brim
G1 X98.711 Y99.834 E5.56803 ; brim
G1 X99.834 Y98.711 E5.59050 ; brim
G1 X100.166 Y98.711 E5.59519 ; brim
G1 X101.289 Y99.834 E5.61766 F1800.000 ; brim
G1 X101.289 Y100.166 E5.62234 ; brim
G1 X100.711 Y100.743 E5.63390 ; brim
G1 X99.834 Y100.723 F6000.000 ; move to first brim point
G1 X99.277 Y100.166 E5.64505 F1800.000 ; brim
G1 X99.277 Y99.834 E5.64974 ; brim
G1 X99.834 Y99.277 E5.66089 ; brim
G1 X100.166 Y99.277 E5.66558 ; brim
G1 X100.723 Y99.834 E5.67673 ; brim
G1 X100.723 Y100.166 E5.68142 ; brim
G1 X100.166 Y100.723 E5.69257 ; brim
G1 X99.894 Y100.723 E5.69641 ; brim
G1 X99.269 Y101.289 F6000.000 ; move to first brim point
G1 X99.400 Y101.420 E5.69904 F1800.000 ; brim
G1 X99.400 Y126.880 E6.05922 ; brim
G1 X98.580 Y127.700 E6.07563 ; brim
G1 X73.420 Y127.700 E6.43157 ; brim
G1 X72.600 Y126.880 E6.44797 ; brim
G1 X72.600 Y123.864 E6.49065 ; brim
G1 X72.813 Y123.349 E6.49853 ; brim
G1 X95.349 Y100.813 E6.94940 ; brim
G1 X95.864 Y100.600 E6.95728 ; brim
G1 X98.580 Y100.600 E6.99571 ; brim
G1 X99.226 Y101.246 E7.00864 F1800.000 ; brim
G1 X98.986 Y101.572 F6000.000 ; move to first brim point
G1 X99.000 Y101.586 E7.00892 F1800.000 ; brim
G1 X99.000 Y126.714 E7.36442 F1800.000 ; brim
G1 X98.414 Y127.300 E7.37614 ; brim
G1 X73.586 Y127.300 E7.72739 ; brim
G1 X73.000 Y126.714 E7.73911 ; brim
G1 X73.000 Y123.943 E7.77831 ; brim
G1 X73.152 Y123.576 E7.78394 ; brim
G1 X95.576 Y101.152 E8.23256 ; brim
G1 X95.943 Y101.000 E8.23819 ; brim
G1 X98.414 Y101.000 E8.27315 ; brim
G1 X98.943 Y101.529 E8.28374 ; brim
G1 X98.600 Y101.751 F6000.000 ; move to first brim point
G1 X98.600 Y126.549 E8.63454 F1800.000 ; brim
G1 X98.249 Y126.900 E8.64158 ; brim
G1 X73.751 Y126.900 E8.98814 ; brim
G1 X73.400 Y126.549 E8.99517 ; brim
G1 X73.400 Y124.023 E9.03090 ; brim
G1 X73.491 Y123.802 E9.03428 ; brim
G1 X95.802 Y101.491 E9.48065 ; brim
G1 X96.023 Y101.400 E9.48403 ; brim
G1 X98.249 Y101.400 E9.51552 ; brim
G1 X98.558 Y101.709 E9.52170 F1800.000 ; brim
G1 F420.000 E9.02170 ; retract
G92 E0 ; reset extrusion distance
G1 X98.200 Y126.383 F6000.000 ; move to first brim point
G1 E0.50000 F420.000 ; compensate retraction
G1 X98.083 Y126.500 E0.50234 F1800.000 ; brim
G1 X73.917 Y126.500 E0.84422 ; brim
G1 X73.800 Y126.383 E0.84656 ; brim
G1 X73.800 Y124.102 E0.87883 ; brim
G1 X73.830 Y124.029 E0.87995 ; brim
G1 X96.029 Y101.830 E1.32407 ; brim
G1 X96.102 Y101.800 E1.32520 ; brim
G1 X98.083 Y101.800 E1.35322 ; brim
G1 X98.200 Y101.917 E1.35556 ; brim
G1 X98.200 Y126.323 E1.70083 ; brim
G1 F420.000 E1.20083 ; retract
G92 E0 ; reset extrusion distance
G1 X125.800 Y126.100 F6000.000 ; move to first perimeter point
G1 E0.50000 F420.000 ; compensate retraction
G1 X102.200 Y126.100 E0.83387 F1050.000 ; perimeter
G1 X102.200 Y102.200 E1.17199 ; perimeter
G1 X103.775 Y102.200 E1.19427 ; perimeter
G1 X125.800 Y124.225 E1.63492 ; perimeter
G1 X125.800 Y126.040 E1.66060 ; perimeter
G1 X125.454 Y125.900 F6000.000 ; move inwards before travel
G1 X125.400 Y125.700 F6000.000 ; move to first perimeter point
G1 X102.600 Y125.700 E1.98316 F2100.000 ; perimeter
G1 X102.600 Y102.600 E2.30995 ; perimeter
G1 X103.609 Y102.600 E2.32423 ; perimeter
G1 X125.400 Y124.391 E2.76020 ; perimeter
G1 X125.400 Y125.640 E2.77787 ; perimeter
G1 F420.000 E2.27787 ; retract
G92 E0 ; reset extrusion distance
G1 X109.802 Y118.488 F6000.000 ; move to first perimeter point
G1 E0.50000 F420.000 ; compensate retraction
G1 X112.105 Y114.500 E0.56514 F2100.000 ; perimeter
G1 X109.802 Y110.512 E0.63029 ; perimeter
G1 X105.198 Y110.512 E0.69543 ; perimeter
G1 X103.237 Y113.908 E0.75090 ; perimeter
G1 X103.000 Y113.844 E0.75437 ; perimeter
G1 X103.000 Y103.000 E0.90779 ; perimeter
G1 X103.444 Y103.000 E0.91407 ; perimeter
G1 X125.000 Y124.556 E1.34534 ; perimeter
G1 X125.000 Y125.300 E1.35587 ; perimeter
G1 X103.000 Y125.300 E1.66710 ; perimeter
G1 X103.000 Y115.156 E1.81061 ; perimeter
G1 X103.237 Y115.092 E1.81409 ; perimeter
G1 X105.198 Y118.488 E1.86956 ; perimeter
G1 X109.742 Y118.488 E1.93385 ; perimeter
G1 F420.000 E1.43385 ; retract
G92 E0 ; reset extrusion distance
G1 X104.967 Y110.112 F6000.000 ; move to first perimeter point
G1 E0.50000 F420.000 ; compensate retraction
G1 X103.637 Y112.415 E0.53762 F2100.000 ; perimeter
G1 X103.400 Y112.351 E0.54109 ; perimeter
G1 X103.400 Y103.522 E0.66600 ; perimeter
G1 X109.990 Y110.112 E0.79785 ; perimeter
G1 X105.027 Y110.112 E0.86807 ; perimeter
G1 F420.000 E0.36807 ; retract
G92 E0 ; reset extrusion distance
G1 X110.033 Y118.888 F6000.000 ; move to first perimeter point
G1 E0.50000 F420.000 ; compensate retraction
G1 X112.567 Y114.500 E0.57168 F2100.000 ; perimeter
G1 X110.630 Y111.145 E0.62648 ; perimeter
G1 X110.852 Y110.974 E0.63045 ; perimeter
G1 X124.778 Y124.900 E0.90906 ; perimeter
G1 X103.400 Y124.900 E1.21150 ; perimeter
G1 X103.400 Y116.649 E1.32823 ; perimeter
G1 X103.637 Y116.585 E1.33171 ; perimeter
G1 X104.967 Y118.888 E1.36933 ; perimeter
G1 X109.973 Y118.888 E1.44015 ; perimeter
G1 X109.340 Y117.688 F6000.000 ; move to first perimeter point
G1 X105.660 Y117.688 E1.49223 F1050.000 ; perimeter
