; generated by Slic3r 1.2.9 on 2016-06-08 at 18:40:15

; external perimeters extrusion width = 0.35mm
; perimeters extrusion width = 0.44mm
; infill extrusion width = 0.44mm
; solid infill extrusion width = 0.44mm
; top infill extrusion width = 0.44mm

G28 ; home all axes
G21 ; set units to millimeters
G90 ; use absolute coordinates
M82 ; use absolute distances for extrusion
G92 E0 ; reset extrusion distance
G1 E-0.50000 F420.00000 ; retract
G92 E0 ; reset extrusion distance
G1 Z0.250 F6000.000 ; move to next layer (0)
G1 X69.153 Y69.544 F6000.000 ; move to first skirt point
G1 E0.50000 F420.00000 ; unretract
G1 X70.897 Y68.120 E0.53064 F1800.000 ; skirt
G1 X74.000 Y67.315 E0.57427 ; skirt
G1 X126.000 Y67.315 E1.28205 ; skirt
G1 X128.216 Y67.712 E1.31269 ; skirt
G1 X130.156 Y68.853 E1.34333 F1800.000 ; skirt
G1 X131.580 Y70.597 E1.37397 ; skirt
G1 X132.385 Y73.700 E1.41761 ; skirt
G1 X132.385 Y126.300 E2.13355 ; skirt
G1 X131.988 Y128.516 E2.16419 ; skirt
G1 X130.847 Y130.456 E2.19483 ; skirt
G1 X129.103 Y131.880 E2.22547 ; skirt
G1 X126.000 Y132.685 E2.26910 ; skirt
G1 X74.000 Y132.685 E2.97688 ; skirt
G1 X71.784 Y132.288 E3.00752 ; skirt
G1 X69.844 Y131.147 E3.03817 ; skirt
G1 X68.420 Y129.403 E3.06881 ; skirt
G1 X67.615 Y126.300 E3.11244 ; skirt
G1 X67.615 Y73.700 E3.82838 ; skirt
G1 X68.012 Y71.484 E3.85902 ; skirt
G1 X69.127 Y69.589 E3.88895 ; skirt
G1 E3.38895 F420.00000 ; retract
G92 E0 ; reset extrusion distance
G1 X125.825 Y126.125 F6000.000 ; move to first perimeter point
G1 E0.50000 F420.00000 ; unretract
G1 X102.175 Y126.125 E0.74788 F1050.000 ; perimeter
G1 X102.175 Y102.175 E0.99890 ; perimeter
G1 X103.790 Y102.180 E1.01583 ; perimeter
G1 X125.825 Y124.215 E1.34244 ; perimeter
G1 X125.825 Y126.073 E1.36192 ; perimeter
G1 X125.522 Y125.950 F6000.000 ; move inwards before travel
G1 X125.484 Y125.784 F6000.000 ; move to first perimeter point
G1 X102.516 Y125.784 E1.67455 F2100.000 ; perimeter
G1 X102.516 Y102.517 E1.99124 ; perimeter
G1 X103.649 Y102.520 E2.00667 ; perimeter
G1 X125.484 Y124.356 E2.42698 ; perimeter
G1 X125.484 Y125.732 E2.44571 ; perimeter
G1 E1.94571 F420.00000 ; retract
G92 E0 ; reset extrusion distance
G1 X109.745 Y118.388 F6000.000 ; move to first perimeter point
G1 E0.50000 F420.00000 ; unretract
G1 X111.990 Y114.500 E0.56111 F2100.000 ; perimeter
G1 X109.745 Y110.612 E0.62222 ; perimeter
G1 X105.255 Y110.612 E0.68333 ; perimeter
G1 X103.072 Y114.394 E0.74277 ; perimeter
G1 X102.900 Y114.348 E0.74518 ; perimeter
G1 X102.900 Y102.903 E0.90096 ; perimeter
G1 X103.489 Y102.905 E0.90897 ; perimeter
G1 X125.100 Y124.515 E1.32496 ; perimeter
G1 X125.100 Y125.400 E1.33700 ; perimeter
G1 X102.900 Y125.400 E1.63915 ; perimeter
G1 X102.900 Y114.652 E1.78544 ; perimeter
G1 X103.072 Y114.606 E1.78785 ; perimeter
G1 X105.255 Y118.388 E1.84729 ; perimeter
G1 X109.692 Y118.388 E1.90768 ; perimeter
G1 X109.326 Y117.663 F6000.000 ; move to first perimeter point
G1 X105.674 Y117.663 E1.94596 F1500.000 ; perimeter
G1 X105.516 Y117.389 E1.94928 ; perimeter
G1 X103.848 Y114.500 E1.98424 ; perimeter
G1 X105.674 Y111.337 E2.02252 ; perimeter
G1 X109.326 Y111.337 E2.06080 ; perimeter
G1 X111.152 Y114.500 E2.09907 ; perimeter
G1 X109.352 Y117.617 E2.13680 ; perimeter
G1 X109.265 Y118.007 F6000.000 ; move inwards before travel
G1 X109.523 Y118.003 F6000.000 ; move to first perimeter point
G1 X105.477 Y118.003 E2.19186 F1500.000 ; perimeter
G1 X105.221 Y117.559 E2.19885 ; perimeter
G1 X103.455 Y114.500 E2.24693 ; perimeter
G1 X105.477 Y110.997 E2.30199 ; perimeter
G1 X109.523 Y110.997 E2.35705 ; perimeter
G1 X111.545 Y114.500 E2.41211 ; perimeter
G1 X109.549 Y117.958 E2.46646 ; perimeter
G1 E1.96646 F420.00000 ; retract
G92 E0 ; reset extrusion distance
G1 X103.321 Y115.880 F6000.000 ; move to first infill point
G1 E0.50000 F420.00000 ; unretract
G1 X103.103 Y115.064 E0.51149 F600.000 ; infill
G1 X103.103 Y113.936 F6000.000 ; move to first infill point
G1 X103.321 Y113.120 E0.52298 F600.000 ; infill
G1 X103.700 Y112.914 F6000.000 ; move to first infill point
G1 X103.126 Y112.340 E0.53413 F2700.000 ; infill
G1 X103.126 Y111.791 E0.54167 ; infill
G1 X103.901 Y112.566 E0.55673 ; infill
G1 X104.102 Y112.218 E0.56225 ; infill
G1 X103.126 Y111.242 E0.58121 ; infill
G1 X103.126 Y110.692 E0.58875 ; infill
G1 X104.303 Y111.870 E0.61161 ; infill
G1 X104.504 Y111.521 E0.61714 ; infill
G1 X103.126 Y110.143 E0.64390 ; infill
G1 X103.126 Y109.594 E0.65145 ; infill
G1 X104.705 Y111.173 E0.68212 ; infill
G1 X104.906 Y110.825 E0.68764 ; infill
G1 X103.126 Y109.045 E0.72222 ; infill
G1 X103.126 Y108.496 E0.72976 ; infill
G1 X105.107 Y110.477 E0.76824 ; infill
G1 X105.566 Y110.386 E0.77466 ; infill
G1 X103.126 Y107.947 E0.82205 ; infill
G1 X103.126 Y107.397 E0.82959 ; infill
G1 X106.115 Y110.386 E0.88764 ; infill
G1 X106.664 Y110.386 E0.89519 ; infill
G1 X103.126 Y106.848 E0.96391 ; infill
G1 X103.126 Y106.299 E0.97145 ; infill
G1 X107.213 Y110.386 E1.05084 ; infill
G1 X107.762 Y110.386 E1.05838 ; infill
G1 X103.126 Y105.750 E1.14843 ; infill
G1 X103.126 Y105.201 E1.15597 ; infill
G1 X108.312 Y110.386 E1.25669 ; infill
G1 X108.861 Y110.386 E1.26424 ; infill
G1 X103.126 Y104.652 E1.37562 ; infill
G1 X103.126 Y104.102 E1.38316 ; infill
G1 X109.410 Y110.386 E1.50522 ; infill
G1 X110.652 Y111.628 F6000.000 ; move to first infill point
G1 X124.198 Y125.174 E1.76832 F2700.000 ; infill
G1 X124.747 Y125.174 E1.77586 ; infill
G1 X103.126 Y103.553 E2.19580 ; infill
G1 X103.251 Y103.130 E2.20187 ; infill
G1 X124.874 Y124.752 E2.62184 ; infill
G1 E2.12184 F420.00000 ; retract
G92 E0 ; reset extrusion distance
G1 X112.091 Y114.715 F6000.000 ; move to first infill point
G1 E0.50000 F420.00000 ; unretract
G1 X122.550 Y125.174 E0.70314 F2700.000 ; infill
G1 X122.001 Y125.174 E0.71068 ; infill
G1 X111.890 Y115.063 E0.90706 ; infill
G1 X111.689 Y115.412 E0.91258 ; infill
G1 X121.452 Y125.174 E1.10220 ; infill
G1 X120.903 Y125.174 E1.10974 ; infill
G1 X111.488 Y115.760 E1.29260 ; infill
G1 X111.287 Y116.108 E1.29812 ; infill
G1 X120.353 Y125.174 E1.47421 ; infill
G1 X119.804 Y125.174 E1.48175 ; infill
G1 X111.086 Y116.456 E1.65108 ; infill
G1 X110.885 Y116.804 E1.65661 ; infill
G1 X119.255 Y125.174 E1.81917 ; infill
G1 X118.706 Y125.174 E1.82672 ; infill
G1 X110.684 Y117.152 E1.98252 ; infill
G1 X110.483 Y117.501 E1.98804 ; infill
G1 X118.157 Y125.174 E2.13709 ; infill
G1 X117.608 Y125.174 E2.14463 ; infill
G1 X110.282 Y117.849 E2.28691 ; infill
G1 X110.081 Y118.197 E2.29243 ; infill
G1 X117.058 Y125.174 E2.42795 ; infill
G1 X116.509 Y125.174 E2.43549 ; infill
G1 X109.880 Y118.545 E2.56425 ; infill
G1 X109.400 Y118.614 E2.57091 ; infill
G1 X115.960 Y125.174 E2.69834 ; infill
G1 X115.411 Y125.174 E2.70588 ; infill
G1 X108.851 Y118.614 E2.83330 ; infill
G1 X108.301 Y118.614 E2.84084 ; infill
G1 X114.862 Y125.174 E2.96826 ; infill
G1 X114.313 Y125.174 E2.97581 ; infill
G1 X107.752 Y118.614 E3.10323 ; infill
G1 X107.203 Y118.614 E3.11077 ; infill
G1 X113.763 Y125.174 E3.23819 ; infill
G1 X113.214 Y125.174 E3.24574 ; infill
G1 X106.654 Y118.614 E3.37316 ; infill
G1 X106.105 Y118.614 E3.38070 ; infill
G1 X112.665 Y125.174 E3.50812 ; infill
G1 X112.116 Y125.174 E3.51566 ; infill
G1 X105.556 Y118.614 E3.64309 ; infill
G1 X105.146 Y118.753 E3.64903 ; infill
G1 X103.126 Y116.733 E3.68826 ; infill
G1 X103.126 Y117.282 E3.69580 ; infill
G1 X111.018 Y125.174 E3.84908 ; infill
G1 X111.567 Y125.174 E3.85662 ; infill
G1 X105.006 Y118.614 E3.98405 ; infill
G1 X104.395 Y117.454 F6000.000 ; move to first infill point
G1 X103.126 Y116.184 E4.00870 F2700.000 ; infill
G1 X103.126 Y117.832 F6000.000 ; move to first infill point
G1 X110.468 Y125.174 E4.15132 F2700.000 ; infill
G1 X109.919 Y125.174 E4.15886 ; infill
G1 X103.126 Y118.381 E4.29081 ; infill
G1 X103.126 Y118.930 E4.29835 ; infill
G1 X109.370 Y125.174 E4.41963 ; infill
G1 X108.821 Y125.174 E4.42717 ; infill
G1 X103.126 Y119.479 E4.53778 ; infill
G1 X103.126 Y120.028 E4.54533 ; infill
G1 X108.272 Y125.174 E4.64527 ; infill
G1 X107.723 Y125.174 E4.65281 ; infill
G1 X103.126 Y120.577 E4.74209 ; infill
G1 X103.126 Y121.127 E4.74964 ; infill
G1 X107.173 Y125.174 E4.82825 ; infill
G1 X106.624 Y125.174 E4.83579 ; infill
G1 X103.126 Y121.676 E4.90374 ; infill
G1 X103.126 Y122.225 E4.91128 ; infill
G1 X106.075 Y125.174 E4.96856 ; infill
G1 X105.526 Y125.174 E4.97611 ; infill
G1 X103.126 Y122.774 E5.02272 ; infill
G1 X103.126 Y123.323 E5.03026 ; infill
G1 X104.977 Y125.174 E5.06621 ; infill
G1 X104.428 Y125.174 E5.07375 ; infill
G1 X103.126 Y123.872 E5.09903 ; infill
G1 X103.126 Y124.422 E5.10658 ; infill
G1 X103.878 Y125.174 E5.12119 ; infill
G1 X103.329 Y125.174 E5.12873 ; infill
G1 X103.126 Y124.971 E5.13268 ; infill
G1 E4.63268 F420.00000 ; retract
G92 E0 ; reset extrusion distance
G1 X112.152 Y114.227 F6000.000 ; move to first infill point
G1 E0.50000 F420.00000 ; unretract
G1 X123.099 Y125.174 E0.71262 F2700.000 ; infill
G1 X123.648 Y125.174 E0.72017 ; infill
G1 X111.402 Y112.928 E0.95803 ; infill
G1 E0.45803 F420.00000 ; retract
G92 E0 ; reset extrusion distance
G1 X97.825 Y97.825 F6000.000 ; move to first perimeter point
G1 E0.50000 F420.00000 ; unretract
G1 X96.215 Y97.825 E0.51688 F1050.000 ; perimeter
G1 X74.175 Y75.785 E0.84356 ; perimeter
G1 X74.175 Y73.875 E0.86359 ; perimeter
G1 X97.825 Y73.875 E1.11147 ; perimeter
G1 X97.825 Y97.773 E1.36194 ; perimeter
G1 X97.522 Y97.650 F6000.000 ; move inwards before travel
G1 X97.484 Y97.484 F6000.000 ; move to first perimeter point
G1 X96.356 Y97.484 E1.37731 F2100.000 ; perimeter
G1 X74.516 Y75.644 E1.79771 ; perimeter
G1 X74.516 Y74.216 E1.81715 ; perimeter
G1 X97.484 Y74.216 E2.12978 ; perimeter
G1 X97.484 Y97.432 E2.44578 ; perimeter
G1 E1.94578 F420.00000 ; retract
G92 E0 ; reset extrusion distance
G1 X90.255 Y89.388 F6000.000 ; move to first perimeter point
G1 E0.50000 F420.00000 ; unretract
G1 X94.745 Y89.388 E0.56111 F2100.000 ; perimeter
G1 X96.928 Y85.606 E0.62055 ; perimeter
G1 X97.100 Y85.652 E0.62296 ; perimeter
G1 X97.100 Y97.100 E0.77878 ; perimeter
G1 X96.515 Y97.100 E0.78673 ; perimeter
G1 X74.900 Y75.485 E1.20279 ; perimeter
G1 X74.900 Y74.600 E1.21483 ; perimeter
G1 X97.100 Y74.600 E1.51699 ; perimeter
G1 X97.100 Y85.348 E1.66327 ; perimeter
G1 X96.928 Y85.394 E1.66568 ; perimeter
G1 X94.745 Y81.612 E1.72512 ; perimeter
G1 X90.255 Y81.612 E1.78623 ; perimeter
G1 X88.010 Y85.500 E1.84734 ; perimeter
G1 X90.229 Y89.343 E1.90774 ; perimeter
G1 X90.674 Y88.663 F6000.000 ; move to first perimeter point
G1 X88.848 Y85.500 E1.94602 F1500.000 ; perimeter
G1 X90.674 Y82.337 E1.98430 ; perimeter
G1 X94.326 Y82.337 E2.02257 ; perimeter
G1 X96.152 Y85.500 E2.06085 ; perimeter
G1 X94.326 Y88.663 E2.09913 ; perimeter
G1 X90.726 Y88.663 E2.13686 ; perimeter
G1 X90.345 Y88.783 F6000.000 ; move inwards before travel
G1 X90.477 Y89.003 F6000.000 ; move to first perimeter point
G1 X88.455 Y85.500 E2.19192 F1500.000 ; perimeter
G1 X90.477 Y81.997 E2.24698 ; perimeter
G1 X94.523 Y81.997 E2.30204 ; perimeter
G1 X96.545 Y85.500 E2.35711 ; perimeter
G1 X94.523 Y89.003 E2.41217 ; perimeter
G1 X90.530 Y89.003 E2.46652 ; perimeter
G1 X90.590 Y89.614 F6000.000 ; move to first infill point
G1 X96.874 Y95.898 E2.58857 F2700.000 ; infill
G1 X96.874 Y95.348 E2.59611 ; infill
G1 X91.139 Y89.614 E2.70750 ; infill
G1 X91.688 Y89.614 E2.71504 ; infill
G1 X96.874 Y94.799 E2.81576 ; infill
G1 X96.874 Y94.250 E2.82330 ; infill
G1 X92.238 Y89.614 E2.91336 ; infill
G1 X92.787 Y89.614 E2.92090 ; infill
G1 X96.874 Y93.701 E3.00028 ; infill
G1 X96.874 Y93.152 E3.00783 ; infill
G1 X93.336 Y89.614 E3.07655 ; infill
G1 X93.885 Y89.614 E3.08409 ; infill
G1 X96.874 Y92.603 E3.14214 ; infill
G1 X96.874 Y92.053 E3.14969 ; infill
G1 X94.434 Y89.614 E3.19707 ; infill
G1 X94.893 Y89.523 E3.20349 ; infill
G1 X96.874 Y91.504 E3.24197 ; infill
G1 X96.874 Y90.955 E3.24952 ; infill
G1 X95.094 Y89.175 E3.28409 ; infill
G1 X95.295 Y88.827 E3.28961 ; infill
G1 X96.874 Y90.406 E3.32029 ; infill
G1 X96.874 Y89.857 E3.32783 ; infill
G1 X95.496 Y88.479 E3.35460 ; infill
G1 X95.697 Y88.130 E3.36012 ; infill
G1 X96.874 Y89.308 E3.38298 ; infill
G1 X96.874 Y88.758 E3.39053 ; infill
G1 X95.898 Y87.782 E3.40949 ; infill
G1 X96.099 Y87.434 E3.41501 ; infill
G1 X96.874 Y88.209 E3.43006 ; infill
G1 X96.874 Y87.660 E3.43761 ; infill
G1 X96.300 Y87.086 E3.44876 ; infill
G1 E2.94876 F420.00000 ; retract
G92 E0 ; reset extrusion distance
G1 X95.605 Y82.546 F6000.000 ; move to first infill point
G1 E0.50000 F420.00000 ; unretract
G1 X96.874 Y83.816 E0.52466 F2700.000 ; infill
G1 X96.874 Y83.267 E0.53220 ; infill
G1 X88.433 Y74.826 E0.69615 ; infill
G1 X88.982 Y74.826 E0.70369 ; infill
G1 X96.874 Y82.718 E0.85697 ; infill
G1 X96.874 Y82.168 E0.86451 ; infill
G1 X89.532 Y74.826 E1.00712 ; infill
G1 X90.081 Y74.826 E1.01466 ; infill
G1 X96.874 Y81.619 E1.14661 ; infill
G1 X96.874 Y81.070 E1.15415 ; infill
G1 X90.630 Y74.826 E1.27543 ; infill
G1 X91.179 Y74.826 E1.28298 ; infill
G1 X96.874 Y80.521 E1.39359 ; infill
G1 X96.874 Y79.972 E1.40113 ; infill
G1 X91.728 Y74.826 E1.50108 ; infill
G1 X92.277 Y74.826 E1.50862 ; infill
G1 X96.874 Y79.423 E1.59790 ; infill
G1 X96.874 Y78.873 E1.60544 ; infill
G1 X92.827 Y74.826 E1.68406 ; infill
G1 X93.376 Y74.826 E1.69160 ; infill
G1 X96.874 Y78.324 E1.75955 ; infill
G1 X96.874 Y77.775 E1.76709 ; infill
G1 X93.925 Y74.826 E1.82437 ; infill
G1 X94.474 Y74.826 E1.83191 ; infill
G1 X96.874 Y77.226 E1.87853 ; infill
G1 X96.874 Y76.677 E1.88607 ; infill
G1 X95.023 Y74.826 E1.92202 ; infill
G1 X95.572 Y74.826 E1.92956 ; infill
G1 X96.874 Y76.128 E1.95484 ; infill
G1 X96.874 Y75.578 E1.96238 ; infill
G1 X96.122 Y74.826 E1.97700 ; infill
G1 X96.671 Y74.826 E1.98454 ; infill
G1 X96.874 Y75.029 E1.98849 ; infill
G1 E1.48849 F420.00000 ; retract
G92 E0 ; reset extrusion distance
G1 X94.444 Y81.386 F6000.000 ; move to first infill point
G1 E0.50000 F420.00000 ; unretract
G1 X87.884 Y74.826 E0.62742 F2700.000 ; infill
G1 X87.335 Y74.826 E0.63496 ; infill
G1 X93.895 Y81.386 E0.76239 ; infill
G1 X93.346 Y81.386 E0.76993 ; infill
G1 X86.786 Y74.826 E0.89735 ; infill
G1 X86.237 Y74.826 E0.90489 ; infill
G1 X92.797 Y81.386 E1.03232 ; infill
G1 X92.248 Y81.386 E1.03986 ; infill
G1 X85.687 Y74.826 E1.16728 ; infill
G1 X85.138 Y74.826 E1.17482 ; infill
G1 X91.699 Y81.386 E1.30224 ; infill
G1 X91.149 Y81.386 E1.30979 ; infill
G1 X84.589 Y74.826 E1.43721 ; infill
G1 X84.040 Y74.826 E1.44475 ; infill
G1 X90.600 Y81.386 E1.57217 ; infill
G1 X90.120 Y81.455 E1.57884 ; infill
G1 X83.491 Y74.826 E1.70760 ; infill
G1 X82.942 Y74.826 E1.71514 ; infill
G1 X89.919 Y81.803 E1.85066 ; infill
G1 X89.718 Y82.151 E1.85618 ; infill
G1 X82.392 Y74.826 E1.99846 ; infill
G1 X81.843 Y74.826 E2.00600 ; infill
G1 X89.517 Y82.499 E2.15504 ; infill
G1 X89.316 Y82.848 E2.16056 ; infill
G1 X81.294 Y74.826 E2.31637 ; infill
G1 X80.745 Y74.826 E2.32391 ; infill
G1 X89.115 Y83.196 E2.48648 ; infill
G1 X88.914 Y83.544 E2.49200 ; infill
G1 X80.196 Y74.826 E2.66133 ; infill
G1 X79.647 Y74.826 E2.66887 ; infill
G1 X88.713 Y83.892 E2.84497 ; infill
G1 X88.512 Y84.240 E2.85049 ; infill
G1 X79.097 Y74.826 E3.03334 ; infill
G1 X78.548 Y74.826 E3.04088 ; infill
G1 X88.311 Y84.588 E3.23050 ; infill
G1 X88.110 Y84.937 E3.23602 ; infill
G1 X77.999 Y74.826 E3.43240 ; infill
G1 X77.450 Y74.826 E3.43994 ; infill
G1 X87.909 Y85.285 E3.64308 ; infill
G1 X87.848 Y85.773 F6000.000 ; move to first infill point
G1 X76.901 Y74.826 E3.85571 F2700.000 ; infill
G1 X76.352 Y74.826 E3.86325 ; infill
G1 X88.598 Y87.072 E4.10111 ; infill
G1 X89.348 Y88.372 F6000.000 ; move to first infill point
G1 X75.802 Y74.826 E4.36421 F2700.000 ; infill
G1 X75.253 Y74.826 E4.37175 ; infill
G1 X96.874 Y96.447 E4.79170 ; infill
G1 X96.752 Y96.874 E4.79780 ; infill
G1 X75.126 Y75.248 E5.21784 ; infill
G1 E4.71784 F420.00000 ; retract
G92 E0 ; reset extrusion distance
G1 X96.679 Y84.120 F6000.000 ; move to first infill point
G1 E0.50000 F420.00000 ; unretract
G1 X96.897 Y84.936 E0.51149 F600.000 ; infill
