; generated by Slic3r 1.1.6 on 2014-08-10 at 18:27:11

; perimeters extrusion width = 0.35mm
; infill extrusion width = 0.39mm
; solid infill extrusion width = 0.39mm
; top infill extrusion width = 0.39mm

G21 ; set units to millimeters
M107 ; disable fan
G28 ; home all axes
G90 ; use absolute coordinates
G92 E0 ; reset extrusion distance
M82 ; use absolute distances for extrusion
G1 F420.000 E-0.50000 ; retract
G92 E0 ; reset extrusion distance
G1 Z0.250 F6000.000 ; move to next layer (0)
G1 X82.188 Y79.262 F6000.000 ; move to first skirt point
G1 E0.50000 F420.000 ; compensate retraction
G1 X83.930 Y77.847 E0.52974 F1800.000 ; skirt
G1 X87.000 Y77.055 E0.57173 ; skirt
G1 X113.000 Y77.055 E0.91616 ; skirt
G1 X115.210 Y77.452 E0.94590 ; skirt
G1 X117.143 Y78.593 E0.97564 ; skirt
G1 X118.559 Y80.335 E1.00538 ; skirt
G1 X119.350 Y83.405 E1.04737 ; skirt
G1 X119.330 Y117.685 E1.50149 ; skirt
G1 X119.125 Y119.296 E1.52300 ; skirt
G1 X118.671 Y120.854 E1.54449 ; skirt
G1 X118.432 Y121.429 E1.55275 ; skirt
G1 X117.978 Y122.321 E1.56600 ; skirt
G1 X117.653 Y122.853 E1.57426 ; skirt
G1 X117.064 Y123.663 E1.58752 ; skirt
G1 X116.660 Y124.136 E1.59576 ; skirt
G1 X115.953 Y124.844 E1.60903 ; skirt
G1 X114.669 Y125.838 E1.63054 ; skirt
G1 X114.138 Y126.163 E1.63878 ; skirt
G1 X113.246 Y126.618 E1.65205 ; skirt
G1 X111.719 Y127.166 E1.67354 ; skirt
G1 X110.123 Y127.469 E1.69505 ; skirt
G1 X109.504 Y127.518 E1.70329 ; skirt
G1 X109.000 Y127.537 E1.70997 ; skirt
G1 X90.503 Y127.518 E1.95500 ; skirt
G1 X88.891 Y127.313 E1.97652 ; skirt
G1 X87.334 Y126.858 E1.99801 ; skirt
G1 X85.867 Y126.166 E2.01950 ; skirt
G1 X84.525 Y125.252 E2.04102 ; skirt
G1 X83.339 Y124.135 E2.06259 ; skirt
G1 X82.350 Y122.858 E2.08399 ; skirt
G1 X81.567 Y121.428 E2.10559 ; skirt
G1 X81.021 Y119.907 E2.12700 ; skirt
G1 X80.719 Y118.311 E2.14851 ; skirt
G1 X80.650 Y117.188 E2.16342 ; skirt
G1 X80.650 Y83.405 E2.61094 ; skirt
G1 X81.047 Y81.196 E2.64068 ; skirt
G1 X82.161 Y79.307 E2.66972 ; skirt
G1 F420.000 E2.16972 ; retract
G92 E0 ; reset extrusion distance
G1 X95.053 Y117.187 F6000.000 ; move to first perimeter point
G1 E0.50000 F420.000 ; compensate retraction
G1 X95.018 Y117.363 E0.50237 F2100.000 ; perimeter
G1 X94.310 Y118.423 E0.51925 ; perimeter
G1 X93.250 Y119.131 E0.53614 ; perimeter
G1 X92.000 Y119.380 E0.55303 ; perimeter
G1 X90.750 Y119.131 E0.56992 ; perimeter
G1 X89.690 Y118.423 E0.58680 ; perimeter
G1 X88.982 Y117.363 E0.60369 ; perimeter
G1 X88.947 Y117.187 E0.60606 ; perimeter
G1 X88.750 Y117.187 E0.60866 ; perimeter
G1 X88.750 Y114.326 E0.64656 ; perimeter
G1 X88.982 Y113.162 E0.66229 ; perimeter
G1 X89.690 Y112.102 E0.67918 ; perimeter
G1 X90.750 Y111.394 E0.69606 ; perimeter
G1 X92.000 Y111.145 E0.71295 ; perimeter
G1 X93.250 Y111.394 E0.72984 ; perimeter
G1 X94.310 Y112.102 E0.74672 ; perimeter
G1 X95.018 Y113.162 E0.76361 ; perimeter
G1 X95.250 Y114.327 E0.77934 ; perimeter
G1 X95.250 Y117.187 E0.81724 ; perimeter
G1 X95.106 Y117.187 E0.81915 ; perimeter
G1 X94.766 Y116.837 F6000.000 ; move to first perimeter point
G1 X94.689 Y117.226 E0.82440 F2100.000 ; perimeter
G1 X94.058 Y118.170 E0.83944 ; perimeter
G1 X93.114 Y118.801 E0.85448 ; perimeter
G1 X92.000 Y119.023 E0.86953 ; perimeter
G1 X90.886 Y118.801 E0.88457 ; perimeter
G1 X89.942 Y118.170 E0.89961 ; perimeter
G1 X89.311 Y117.226 E0.91465 ; perimeter
G1 X89.234 Y116.837 E0.91990 ; perimeter
G1 X89.100 Y116.837 E0.92168 ; perimeter
G1 X89.100 Y114.361 E0.95449 ; perimeter
G1 X89.311 Y113.299 E0.96883 ; perimeter
G1 X89.942 Y112.355 E0.98387 ; perimeter
G1 X90.886 Y111.724 E0.99892 ; perimeter
G1 X92.000 Y111.502 E1.01396 ; perimeter
G1 X93.114 Y111.724 E1.02900 ; perimeter
G1 X94.058 Y112.355 E1.04405 ; perimeter
G1 X94.689 Y113.299 E1.05909 ; perimeter
G1 X94.900 Y114.361 E1.07343 ; perimeter
G1 X94.900 Y116.837 E1.10624 ; perimeter
G1 X94.819 Y116.837 E1.10732 ; perimeter
G1 X94.479 Y116.488 F6000.000 ; move to first perimeter point
G1 X94.359 Y117.090 E1.11545 F1050.000 ; perimeter
G1 X93.806 Y117.918 E1.12865 ; perimeter
G1 X92.977 Y118.472 E1.14185 ; perimeter
G1 X92.000 Y118.666 E1.15505 ; perimeter
G1 X91.023 Y118.472 E1.16825 ; perimeter
G1 X90.194 Y117.918 E1.18144 ; perimeter
G1 X89.641 Y117.090 E1.19464 ; perimeter
G1 X89.521 Y116.488 E1.20278 ; perimeter
G1 X89.450 Y116.488 E1.20372 ; perimeter
G1 X89.450 Y114.395 E1.23143 ; perimeter
G1 X89.641 Y113.435 E1.24440 ; perimeter
G1 X90.194 Y112.607 E1.25760 ; perimeter
G1 X91.023 Y112.053 E1.27080 ; perimeter
G1 X92.000 Y111.859 E1.28399 ; perimeter
G1 X92.977 Y112.053 E1.29719 ; perimeter
G1 X93.806 Y112.607 E1.31039 ; perimeter
G1 X94.359 Y113.435 E1.32359 ; perimeter
G1 X94.550 Y114.395 E1.33655 ; perimeter
G1 X94.550 Y116.488 E1.36427 ; perimeter
G1 X94.531 Y116.488 E1.36452 ; perimeter
G1 X94.613 Y116.811 F6000.000 ; move inwards before travel
G1 F420.000 E0.86452 ; retract
G92 E0 ; reset extrusion distance
G1 X94.625 Y108.084 F6000.000 ; move to first perimeter point
G1 E0.50000 F420.000 ; compensate retraction
G1 X94.625 Y92.741 E0.70325 F2100.000 ; perimeter
G1 X105.375 Y92.741 E0.84566 ; perimeter
G1 X105.375 Y108.084 E1.04891 ; perimeter
G1 X94.678 Y108.084 E1.19062 ; perimeter
G1 X94.975 Y107.734 F6000.000 ; move to first perimeter point
G1 X94.975 Y93.091 E1.38460 F2100.000 ; perimeter
G1 X105.025 Y93.091 E1.51774 ; perimeter
G1 X105.025 Y107.734 E1.71172 ; perimeter
G1 X95.028 Y107.734 E1.84415 ; perimeter
G1 X95.325 Y107.384 F6000.000 ; move to first perimeter point
G1 X95.325 Y93.441 E2.02886 F1050.000 ; perimeter
G1 X104.675 Y93.441 E2.15272 ; perimeter
G1 X104.675 Y107.384 E2.33743 ; perimeter
G1 X95.378 Y107.384 E2.46059 ; perimeter
G1 X94.975 Y107.384 F6000.000 ; move inwards before travel
G1 F420.000 E1.96059 ; retract
G92 E0 ; reset extrusion distance
G1 X104.947 Y117.187 F6000.000 ; move to first perimeter point
G1 E0.50000 F420.000 ; compensate retraction
G1 X104.750 Y117.187 E0.50261 F2100.000 ; perimeter
G1 X104.750 Y114.326 E0.54051 ; perimeter
G1 X104.982 Y113.162 E0.55623 ; perimeter
G1 X105.690 Y112.102 E0.57312 ; perimeter
G1 X106.750 Y111.394 E0.59001 ; perimeter
G1 X108.000 Y111.145 E0.60689 ; perimeter
G1 X109.250 Y111.394 E0.62378 ; perimeter
G1 X110.310 Y112.102 E0.64067 ; perimeter
G1 X111.018 Y113.162 E0.65755 ; perimeter
G1 X111.231 Y114.233 E0.67201 ; perimeter
G1 X111.250 Y114.327 E0.67328 ; perimeter
G1 X111.250 Y117.187 E0.71118 ; perimeter
G1 X111.053 Y117.187 E0.71379 ; perimeter
G1 X111.018 Y117.363 E0.71615 ; perimeter
G1 X110.310 Y118.423 E0.73304 ; perimeter
G1 X109.250 Y119.131 E0.74993 ; perimeter
G1 X108.000 Y119.380 E0.76681 ; perimeter
G1 X106.750 Y119.131 E0.78370 ; perimeter
G1 X105.690 Y118.423 E0.80059 ; perimeter
G1 X104.982 Y117.363 E0.81748 ; perimeter
G1 X104.957 Y117.239 E0.81915 ; perimeter
G1 X105.234 Y116.837 F6000.000 ; move to first perimeter point
G1 X105.100 Y116.837 E0.82092 F2100.000 ; perimeter
G1 X105.100 Y114.361 E0.85373 ; perimeter
G1 X105.311 Y113.299 E0.86808 ; perimeter
G1 X105.942 Y112.355 E0.88312 ; perimeter
G1 X106.886 Y111.724 E0.89816 ; perimeter
G1 X108.000 Y111.502 E0.91320 ; perimeter
G1 X109.114 Y111.724 E0.92825 ; perimeter
G1 X110.058 Y112.355 E0.94329 ; perimeter
G1 X110.689 Y113.299 E0.95833 ; perimeter
G1 X110.888 Y114.301 E0.97186 ; perimeter
G1 X110.900 Y116.837 E1.00547 ; perimeter
G1 X110.766 Y116.837 E1.00724 ; perimeter
G1 X110.689 Y117.226 E1.01249 ; perimeter
G1 X110.058 Y118.170 E1.02754 ; perimeter
G1 X109.114 Y118.801 E1.04258 ; perimeter
G1 X108.000 Y119.023 E1.05762 ; perimeter
G1 X106.886 Y118.801 E1.07267 ; perimeter
G1 X105.942 Y118.170 E1.08771 ; perimeter
G1 X105.311 Y117.226 E1.10275 ; perimeter
G1 X105.244 Y116.889 E1.10730 ; perimeter
G1 X105.521 Y116.488 F6000.000 ; move to first perimeter point
G1 X105.450 Y116.488 E1.10825 F1050.000 ; perimeter
G1 X105.450 Y114.395 E1.13596 ; perimeter
G1 X105.641 Y113.435 E1.14893 ; perimeter
G1 X106.194 Y112.607 E1.16213 ; perimeter
G1 X107.023 Y112.053 E1.17533 ; perimeter
G1 X108.000 Y111.859 E1.18852 ; perimeter
G1 X108.977 Y112.053 E1.20172 ; perimeter
G1 X109.806 Y112.607 E1.21492 ; perimeter
G1 X110.359 Y113.435 E1.22812 ; perimeter
G1 X110.545 Y114.369 E1.24073 ; perimeter
G1 X110.550 Y116.488 E1.26879 ; perimeter
G1 X110.479 Y116.488 E1.26974 ; perimeter
G1 X110.359 Y117.090 E1.27787 ; perimeter
G1 X109.806 Y117.918 E1.29107 ; perimeter
G1 X108.977 Y118.472 E1.30426 ; perimeter
G1 X108.000 Y118.666 E1.31746 ; perimeter
G1 X107.023 Y118.472 E1.33066 ; perimeter
G1 X106.194 Y117.918 E1.34386 ; perimeter
G1 X105.641 Y117.090 E1.35706 ; perimeter
G1 X105.531 Y116.539 E1.36450 ; perimeter
G1 X105.462 Y116.527 F6000.000 ; move inwards before travel
G1 F420.000 E0.86450 ; retract
G92 E0 ; reset extrusion distance
G1 X112.125 Y84.280 F6000.000 ; move to first perimeter point
G1 E0.50000 F420.000 ; compensate retraction
G1 X112.125 Y117.153 E0.93547 F2100.000 ; perimeter
G1 X112.084 Y117.676 E0.94242 ; perimeter
G1 X111.969 Y118.152 E0.94891 ; perimeter
G1 X111.782 Y118.605 E0.95540 ; perimeter
G1 X111.526 Y119.023 E0.96189 ; perimeter
G1 X111.208 Y119.395 E0.96838 ; perimeter
G1 X110.835 Y119.714 E0.97487 ; perimeter
G1 X110.418 Y119.969 E0.98136 ; perimeter
G1 X109.965 Y120.157 E0.98785 ; perimeter
G1 X109.488 Y120.271 E0.99434 ; perimeter
G1 X108.966 Y120.313 E1.00129 ; perimeter
G1 X91.034 Y120.313 E1.23883 ; perimeter
G1 X90.512 Y120.271 E1.24577 ; perimeter
G1 X90.035 Y120.157 E1.25226 ; perimeter
G1 X89.582 Y119.969 E1.25876 ; perimeter
G1 X89.165 Y119.714 E1.26524 ; perimeter
G1 X88.792 Y119.395 E1.27174 ; perimeter
G1 X88.474 Y119.023 E1.27823 ; perimeter
G1 X88.218 Y118.605 E1.28472 ; perimeter
G1 X88.031 Y118.152 E1.29121 ; perimeter
G1 X87.916 Y117.676 E1.29770 ; perimeter
G1 X87.875 Y117.153 E1.30464 ; perimeter
G1 X87.875 Y84.280 E1.74012 ; perimeter
G1 X112.073 Y84.280 E2.06066 ; perimeter
G1 X112.475 Y83.930 F6000.000 ; move to first perimeter point
G1 X112.475 Y117.167 E2.50095 F2100.000 ; perimeter
G1 X112.431 Y117.731 E2.50845 ; perimeter
G1 X112.303 Y118.261 E2.51567 ; perimeter
G1 X112.095 Y118.764 E2.52289 ; perimeter
G1 X111.810 Y119.229 E2.53011 ; perimeter
G1 X111.456 Y119.644 E2.53733 ; perimeter
G1 X111.042 Y119.998 E2.54455 ; perimeter
G1 X110.577 Y120.282 E2.55177 ; perimeter
G1 X110.073 Y120.491 E2.55899 ; perimeter
G1 X109.543 Y120.618 E2.56621 ; perimeter
G1 X108.979 Y120.663 E2.57370 ; perimeter
G1 X91.021 Y120.663 E2.81161 ; perimeter
G1 X90.457 Y120.618 E2.81910 ; perimeter
G1 X89.927 Y120.491 E2.82632 ; perimeter
G1 X89.423 Y120.282 E2.83354 ; perimeter
G1 X88.958 Y119.998 E2.84076 ; perimeter
G1 X88.544 Y119.644 E2.84798 ; perimeter
G1 X88.190 Y119.229 E2.85520 ; perimeter
G1 X87.905 Y118.764 E2.86242 ; perimeter
G1 X87.697 Y118.261 E2.86964 ; perimeter
G1 X87.569 Y117.731 E2.87686 ; perimeter
G1 X87.525 Y117.167 E2.88436 ; perimeter
G1 X87.525 Y83.930 E3.32465 ; perimeter
G1 X112.423 Y83.930 E3.65447 ; perimeter
G1 X112.825 Y83.580 F6000.000 ; move to first perimeter point
G1 X112.825 Y117.181 E4.09958 F1050.000 ; perimeter
G1 X112.777 Y117.786 E4.10762 ; perimeter
G1 X112.637 Y118.369 E4.11557 ; perimeter
G1 X112.408 Y118.924 E4.12352 ; perimeter
G1 X112.094 Y119.435 E4.13147 ; perimeter
G1 X111.704 Y119.892 E4.13942 ; perimeter
G1 X111.248 Y120.282 E4.14737 ; perimeter
G1 X110.736 Y120.595 E4.15532 ; perimeter
G1 X110.182 Y120.825 E4.16327 ; perimeter
G1 X109.598 Y120.965 E4.17122 ; perimeter
G1 X108.993 Y121.013 E4.17926 ; perimeter
G1 X91.007 Y121.013 E4.41753 ; perimeter
G1 X90.402 Y120.965 E4.42557 ; perimeter
G1 X89.818 Y120.825 E4.43352 ; perimeter
G1 X89.264 Y120.595 E4.44147 ; perimeter
G1 X88.752 Y120.282 E4.44942 ; perimeter
G1 X88.296 Y119.892 E4.45737 ; perimeter
G1 X87.906 Y119.435 E4.46532 ; perimeter
G1 X87.592 Y118.924 E4.47327 ; perimeter
G1 X87.363 Y118.369 E4.48122 ; perimeter
G1 X87.223 Y117.786 E4.48917 ; perimeter
G1 X87.175 Y117.181 E4.49721 ; perimeter
G1 X87.175 Y83.580 E4.94232 ; perimeter
G1 X112.773 Y83.580 E5.28141 ; perimeter
G1 X112.650 Y83.883 F6000.000 ; move inwards before travel
G1 X111.843 Y84.522 F6000.000 ; move to first fill point
G1 X111.883 Y84.562 E5.28223 F2700.000 ; fill
G1 X111.883 Y85.110 E5.29022 ; fill
G1 X111.295 Y84.522 E5.30233 ; fill
G1 X110.747 Y84.522 E5.31032 ; fill
G1 X111.883 Y85.658 E5.33372 ; fill
G1 X111.883 Y86.206 E5.34171 ; fill
G1 X110.199 Y84.522 E5.37641 ; fill
G1 X109.651 Y84.522 E5.38439 ; fill
G1 X111.883 Y86.754 E5.43038 ; fill
G1 X111.883 Y87.302 E5.43836 ; fill
G1 X109.103 Y84.522 E5.49564 ; fill
G1 X108.555 Y84.522 E5.50363 ; fill
G1 X111.883 Y87.851 E5.57220 ; fill
G1 X111.883 Y88.399 E5.58018 ; fill
G1 X108.007 Y84.522 E5.66004 ; fill
G1 X107.458 Y84.522 E5.66803 ; fill
G1 X111.883 Y88.947 E5.75918 ; fill
G1 X111.883 Y89.495 E5.76716 ; fill
G1 X106.910 Y84.522 E5.86961 ; fill
G1 X106.362 Y84.522 E5.87759 ; fill
G1 X111.883 Y90.043 E5.99133 ; fill
G1 X111.883 Y90.591 E5.99931 ; fill
G1 X105.814 Y84.522 E6.12434 ; fill
G1 X105.266 Y84.522 E6.13232 ; fill
G1 X111.883 Y91.139 E6.26864 ; fill
G1 X111.883 Y91.687 E6.27663 ; fill
G1 X104.718 Y84.522 E6.42423 ; fill
G1 X104.170 Y84.522 E6.43222 ; fill
G1 X111.883 Y92.236 E6.59112 ; fill
G1 X111.883 Y92.784 E6.59910 ; fill
G1 X103.621 Y84.522 E6.76929 ; fill
G1 X103.073 Y84.522 E6.77728 ; fill
G1 X111.883 Y93.332 E6.95876 ; fill
G1 X111.883 Y93.880 E6.96674 ; fill
G1 X102.525 Y84.522 E7.15952 ; fill
G1 X101.977 Y84.522 E7.16750 ; fill
G1 X111.883 Y94.428 E7.37157 ; fill
G1 X111.883 Y94.976 E7.37955 ; fill
G1 X101.429 Y84.522 E7.59491 ; fill
G1 X100.881 Y84.522 E7.60289 ; fill
G1 X111.883 Y95.524 E7.82954 ; fill
G1 X111.883 Y96.073 E7.83752 ; fill
G1 X100.333 Y84.522 E8.07546 ; fill
G1 X99.785 Y84.522 E8.08344 ; fill
G1 X111.883 Y96.621 E8.33267 ; fill
G1 X111.883 Y97.169 E8.34066 ; fill
G1 X99.236 Y84.522 E8.60118 ; fill
G1 X98.688 Y84.522 E8.60916 ; fill
G1 X111.883 Y97.717 E8.88097 ; fill
G1 X111.883 Y98.265 E8.88896 ; fill
G1 X98.140 Y84.522 E9.17206 ; fill
G1 X97.592 Y84.522 E9.18005 ; fill
G1 X111.883 Y98.813 E9.47444 ; fill
G1 X111.883 Y99.361 E9.48242 ; fill
G1 X105.617 Y93.094 E9.61152 ; fill
G1 X105.617 Y93.643 E9.61950 ; fill
G1 X111.883 Y99.909 E9.74860 ; fill
G1 X111.883 Y100.458 E9.75658 ; fill
G1 X105.617 Y94.191 E9.88567 ; fill
G1 X105.617 Y94.739 E9.89366 ; fill
G1 X111.883 Y101.006 E10.02275 ; fill
G1 X111.883 Y101.554 E10.03073 ; fill
G1 X105.617 Y95.287 E10.15983 ; fill
G1 X105.617 Y95.835 E10.16781 ; fill
G1 X111.883 Y102.102 E10.29691 ; fill
G1 X111.883 Y102.650 E10.30489 ; fill
G1 X105.617 Y96.383 E10.43398 ; fill
G1 X105.617 Y96.931 E10.44197 ; fill
G1 X111.883 Y103.198 E10.57106 ; fill
G1 X111.883 Y103.746 E10.57905 ; fill
G1 X105.617 Y97.479 E10.70814 ; fill
G1 X105.617 Y98.028 E10.71612 ; fill
G1 X111.883 Y104.294 E10.84522 ; fill
G1 X111.883 Y104.843 E10.85320 ; fill
G1 X105.617 Y98.576 E10.98230 ; fill
G1 X105.617 Y99.124 E10.99028 ; fill
G1 X111.883 Y105.391 E11.11937 ; fill
G1 X111.883 Y105.939 E11.12736 ; fill
G1 X105.617 Y99.672 E11.25645 ; fill
G1 X105.617 Y100.220 E11.26444 ; fill
G1 X111.883 Y106.487 E11.39353 ; fill
G1 X111.883 Y107.035 E11.40151 ; fill
G1 X105.617 Y100.768 E11.53061 ; fill
G1 X105.617 Y101.316 E11.53859 ; fill
G1 X111.883 Y107.583 E11.66769 ; fill
G1 X111.883 Y108.131 E11.67567 ; fill
G1 X105.617 Y101.865 E11.80476 ; fill
G1 X105.617 Y102.413 E11.81275 ; fill
G1 X111.883 Y108.680 E11.94184 ; fill
G1 X111.883 Y109.228 E11.94982 ; fill
G1 X105.617 Y102.961 E12.07892 ; fill
G1 X105.617 Y103.509 E12.08690 ; fill
G1 X111.883 Y109.776 E12.21600 ; fill
G1 X111.883 Y110.324 E12.22398 ; fill
G1 X105.617 Y104.057 E12.35307 ; fill
G1 X105.617 Y104.605 E12.36106 ; fill
G1 X111.883 Y110.872 E12.49015 ; fill
G1 X111.883 Y111.420 E12.49814 ; fill
G1 X105.617 Y105.153 E12.62723 ; fill
G1 X105.617 Y105.701 E12.63521 ; fill
G1 X111.883 Y111.968 E12.76431 ; fill
G1 X111.883 Y112.516 E12.77229 ; fill
G1 X105.617 Y106.250 E12.90139 ; fill
G1 X105.617 Y106.798 E12.90937 ; fill
G1 X111.883 Y113.065 E13.03846 ; fill
G1 X111.883 Y113.613 E13.04645 ; fill
