; generated by Slic3r 0.9.7 on 2013-02-11 at 18:46:03

; layer_height = 0.25
; perimeters = 3
; top_solid_layers = 4
; bottom_solid_layers = 3
; fill_density = 0.15
; perimeter_speed = 70
; infill_speed = 90
; travel_speed = 100
; scale = 1
; nozzle_diameter = 0.35
; filament_diameter = 2.9
; extrusion_multiplier = 1
; perimeters extrusion width = 0.39mm
; infill extrusion width = 0.39mm
; first layer extrusion width = 0.39mm

M107
G28 ; home all axes
G90 ; use absolute coordinates
G21 ; set units to millimeters
G92 E0
M82 ; use absolute distances for extrusion
G1 F420.000 E-0.50000
G92 E0
G1 Z0.250 F6000.000
G1 X75.240 Y51.442
G1 F420.000 E0.50000
G1 X75.580 Y51.032 F2100.000 E0.50776
G1 X78.980 Y47.252 E0.58181
G1 X79.560 Y46.692 E0.59356
G1 X79.970 Y46.362 E0.60122
G1 X84.080 Y43.372 E0.67526
G1 X84.580 Y43.042 E0.68398
G1 X85.090 Y42.772 E0.69239
G1 X89.880 Y40.642 E0.76875
G1 X90.380 Y40.442 E0.77659
G1 X91.150 Y40.232 E0.78822
G1 X96.120 Y39.172 E0.86224
G1 X96.650 Y39.082 E0.87007
G1 X97.180 Y39.032 E0.87782
G1 X102.810 Y39.032 E0.95983
G1 X103.080 Y39.052 E0.96377
G1 X103.870 Y39.172 E0.97541
G1 X108.840 Y40.232 E1.04943
G1 X109.610 Y40.442 E1.06106
G1 X110.100 Y40.632 E1.06871
G1 X114.740 Y42.692 E1.14266
G1 X115.220 Y42.932 E1.15048
G1 X115.910 Y43.372 E1.16240
G1 X120.020 Y46.362 E1.23643
G1 X120.630 Y46.872 E1.24801
G1 X121.010 Y47.252 E1.25584
G1 X124.410 Y51.032 E1.32989
G1 X124.750 Y51.442 E1.33765
G1 X125.190 Y52.112 E1.34933
G1 X127.860 Y56.742 E1.42718
G1 X128.090 Y57.232 E1.43506
G1 X128.270 Y57.732 E1.44280
G1 X129.840 Y62.562 E1.51678
G1 X129.990 Y63.072 E1.52452
G1 X130.090 Y63.602 E1.53238
G1 X130.120 Y63.862 E1.53619
G1 X130.650 Y68.912 E1.61015
G1 X130.680 Y69.582 E1.61992
G1 X130.680 Y130.402 E2.50583
G1 X130.650 Y131.072 E2.51560
G1 X130.120 Y136.132 E2.58970
G1 X130.040 Y136.662 E2.59751
G1 X129.920 Y137.182 E2.60528
G1 X128.270 Y142.262 E2.68309
G1 X127.980 Y143.012 E2.69480
G1 X127.730 Y143.482 E2.70255
G1 X125.050 Y148.112 E2.78048
G1 X124.750 Y148.552 E2.78823
G1 X124.410 Y148.962 E2.79599
G1 X121.010 Y152.742 E2.87005
G1 X120.430 Y153.302 E2.88179
G1 X120.010 Y153.642 E2.88966
G1 X115.900 Y156.622 E2.96361
G1 X115.460 Y156.912 E2.97128
G1 X114.990 Y157.172 E2.97911
G1 X114.750 Y157.282 E2.98295
G1 X110.110 Y159.352 E3.05696
G1 X109.610 Y159.552 E3.06480
G1 X108.840 Y159.762 E3.07643
G1 X103.870 Y160.822 E3.15045
G1 X103.340 Y160.912 E3.15828
G1 X102.810 Y160.962 E3.16604
G1 X97.180 Y160.962 E3.24804
G1 X96.910 Y160.942 E3.25199
G1 X96.120 Y160.822 E3.26362
G1 X91.150 Y159.762 E3.33765
G1 X90.380 Y159.552 E3.34927
G1 X89.880 Y159.352 E3.35711
G1 X85.000 Y157.172 E3.43497
G1 X84.530 Y156.912 E3.44279
G1 X84.090 Y156.622 E3.45047
G1 X79.980 Y153.642 E3.52441
G1 X79.360 Y153.122 E3.53620
G1 X78.980 Y152.742 E3.54403
G1 X75.580 Y148.962 E3.61808
G1 X75.240 Y148.552 E3.62584
G1 X74.800 Y147.882 E3.63752
G1 X72.130 Y143.252 E3.71537
G1 X71.900 Y142.762 E3.72325
G1 X71.720 Y142.262 E3.73099
G1 X70.150 Y137.432 E3.80497
G1 X70.000 Y136.922 E3.81271
G1 X69.900 Y136.392 E3.82057
G1 X69.870 Y136.132 E3.82438
G1 X69.340 Y131.072 E3.89849
G1 X69.310 Y130.402 E3.90826
G1 X69.310 Y69.582 E4.79416
G1 X69.340 Y68.912 E4.80393
G1 X69.870 Y63.862 E4.87789
G1 X69.900 Y63.602 E4.88171
G1 X70.000 Y63.072 E4.88956
G1 X70.150 Y62.562 E4.89730
G1 X71.720 Y57.732 E4.97128
G1 X71.900 Y57.232 E4.97902
G1 X72.130 Y56.742 E4.98691
G1 X74.800 Y52.112 E5.06476
G1 X75.207 Y51.490 E5.07559
G1 X75.240 Y51.442 E5.07643
G1 F420.000 E4.57643
G92 E0
G1 X106.904 Y70.569 F6000.000
G1 F420.000 E0.50000
G1 X123.362 Y70.569 F2100.000 E0.73973
G1 X122.952 Y74.470 E0.79686
G1 X121.437 Y79.135 E0.86832
G1 X119.475 Y82.532 E0.92545
G1 X106.186 Y72.877 E1.16471
G1 X106.793 Y71.411 E1.18782
G1 X106.897 Y70.626 E1.19935
G1 X106.904 Y70.569 E1.20019
G1 X107.242 Y70.954 F6000.000
G1 X122.935 Y70.954 F1050.000 E1.42878
G1 X122.574 Y74.389 E1.47910
G1 X121.083 Y78.978 E1.54937
G1 X119.356 Y81.969 E1.59969
G1 X106.658 Y72.744 E1.82831
G1 X107.168 Y71.512 E1.84773
G1 X107.234 Y71.011 E1.85509
G1 X107.242 Y70.954 E1.85593
G1 X107.476 Y70.648 F6000.000
G1 F420.000 E1.35593
G92 E0
G1 X105.074 Y74.486 F6000.000
G1 F420.000 E0.50000
G1 X118.326 Y84.114 F2100.000 E0.73859
G1 X115.701 Y87.029 E0.79572
G1 X111.733 Y89.913 E0.86717
G1 X108.149 Y91.508 E0.92431
G1 X103.109 Y75.994 E1.16190
G1 X105.028 Y74.522 E1.19714
G1 X105.074 Y74.486 E1.19798
G1 X105.080 Y74.967 F6000.000
G1 X117.754 Y84.174 F1050.000 E1.42616
G1 X115.442 Y86.742 E1.47648
G1 X111.539 Y89.577 E1.54675
G1 X108.383 Y90.982 E1.59707
G1 X103.559 Y76.134 E1.82448
G1 X105.035 Y75.002 E1.85157
G1 X105.080 Y74.967 E1.85241
G1 X103.662 Y73.658 F6000.000
G1 X102.736 Y74.330 F1500.000 E1.86907
G1 X101.691 Y74.795 E1.88574
G1 X100.572 Y75.033 E1.90240
G1 X99.428 Y75.033 E1.91907
G1 X98.309 Y74.795 E1.93573
G1 X97.264 Y74.330 E1.95240
G1 X96.339 Y73.658 E1.96905
G1 X95.649 Y72.892 E1.98407
G1 X95.573 Y72.807 E1.98572
G1 X95.001 Y71.817 E2.00238
G1 X94.647 Y70.729 E2.01905
G1 X94.528 Y69.591 E2.03571
G1 X94.647 Y68.453 E2.05237
G1 X95.001 Y67.365 E2.06904
G1 X95.573 Y66.375 E2.08570
G1 X96.339 Y65.524 E2.10237
G1 X97.264 Y64.852 E2.11903
G1 X98.309 Y64.387 E2.13569
G1 X99.428 Y64.149 E2.15236
G1 X100.572 Y64.149 E2.16902
G1 X101.691 Y64.387 E2.18569
G1 X102.736 Y64.852 E2.20235
G1 X103.662 Y65.524 E2.21901
G1 X104.427 Y66.375 E2.23567
G1 X104.999 Y67.365 E2.25234
G1 X105.353 Y68.453 E2.26900
G1 X105.472 Y69.591 E2.28566
G1 X105.353 Y70.729 E2.30233
G1 X104.999 Y71.817 E2.31899
G1 X104.427 Y72.807 E2.33565
G1 X103.700 Y73.615 E2.35148
G1 X103.662 Y73.658 E2.35232
G1 X103.403 Y73.370 F6000.000
G1 X102.543 Y73.995 F1500.000 E2.36780
G1 X101.572 Y74.427 E2.38329
G1 X100.532 Y74.648 E2.39877
G1 X99.468 Y74.648 E2.41426
G1 X98.429 Y74.427 E2.42975
G1 X97.457 Y73.995 E2.44523
G1 X96.597 Y73.370 E2.46071
G1 X95.935 Y72.634 E2.47514
G1 X95.886 Y72.580 E2.47620
G1 X95.354 Y71.659 E2.49168
G1 X95.026 Y70.648 E2.50717
G1 X94.915 Y69.591 E2.52265
G1 X95.026 Y68.534 E2.53814
G1 X95.354 Y67.523 E2.55363
G1 X95.886 Y66.602 E2.56911
G1 X96.597 Y65.812 E2.58460
G1 X97.457 Y65.187 E2.60008
G1 X98.429 Y64.755 E2.61556
G1 X99.468 Y64.534 E2.63105
G1 X100.531 Y64.534 E2.64653
G1 X101.572 Y64.755 E2.66202
G1 X102.543 Y65.187 E2.67751
G1 X103.403 Y65.812 E2.69299
G1 X104.114 Y66.602 E2.70848
G1 X104.646 Y67.523 E2.72396
G1 X104.974 Y68.534 E2.73945
G1 X105.085 Y69.591 E2.75493
G1 X104.974 Y70.648 E2.77042
G1 X104.646 Y71.659 E2.78590
G1 X104.114 Y72.580 E2.80139
G1 X103.441 Y73.327 E2.81603
G1 X103.403 Y73.370 E2.81687
G1 X103.144 Y73.083 F6000.000
G1 X102.349 Y73.660 F1500.000 E2.83118
G1 X101.452 Y74.059 E2.84549
G1 X100.491 Y74.264 E2.85979
G1 X99.509 Y74.264 E2.87410
G1 X98.548 Y74.059 E2.88841
G1 X97.651 Y73.660 E2.90271
G1 X96.856 Y73.083 E2.91702
G1 X96.221 Y72.377 E2.93086
G1 X95.708 Y71.502 E2.94562
G1 X95.404 Y70.568 E2.95993
G1 X95.302 Y69.591 E2.97424
G1 X95.404 Y68.614 E2.98854
G1 X95.708 Y67.680 E3.00285
G1 X96.199 Y66.829 E3.01716
G1 X96.856 Y66.099 E3.03147
G1 X97.651 Y65.522 E3.04577
G1 X98.548 Y65.123 E3.06008
G1 X99.509 Y64.918 E3.07439
G1 X100.491 Y64.918 E3.08869
G1 X101.452 Y65.123 E3.10300
G1 X102.349 Y65.522 E3.11731
G1 X103.144 Y66.099 E3.13161
G1 X103.801 Y66.829 E3.14592
G1 X104.292 Y67.680 E3.16023
G1 X104.596 Y68.614 E3.17453
G1 X104.698 Y69.591 E3.18884
G1 X104.596 Y70.568 E3.20315
G1 X104.292 Y71.502 E3.21745
G1 X103.801 Y72.353 E3.23176
G1 X103.182 Y73.040 E3.24523
G1 X103.144 Y73.083 E3.24607
G1 F420.000 E2.74607
G92 E0
G1 X106.904 Y68.613 F6000.000
G1 F420.000 E0.50000
G1 X106.793 Y67.771 F2100.000 E0.51237
G1 X106.186 Y66.305 E0.53548
G1 X119.475 Y56.650 E0.77475
G1 X121.437 Y60.047 E0.83188
G1 X122.952 Y64.712 E0.90333
G1 X123.362 Y68.613 E0.96046
G1 X106.962 Y68.613 E1.19935
G1 X106.904 Y68.613 E1.20019
G1 X107.242 Y68.228 F6000.000
G1 X107.168 Y67.670 F1050.000 E1.20839
G1 X106.658 Y66.438 E1.22781
G1 X119.356 Y57.213 E1.45643
G1 X121.083 Y60.204 E1.50675
G1 X122.574 Y64.793 E1.57703
G1 X122.935 Y68.228 E1.62734
G1 X107.299 Y68.228 E1.85509
G1 X107.242 Y68.228 E1.85593
G1 X106.908 Y68.036 F6000.000
G1 F420.000 E1.35593
G92 E0
G1 X105.074 Y64.696 F6000.000
G1 F420.000 E0.50000
G1 X103.109 Y63.188 F2100.000 E0.53608
G1 X108.149 Y47.674 E0.77368
G1 X111.733 Y49.269 E0.83081
G1 X115.701 Y52.153 E0.90226
G1 X118.326 Y55.068 E0.95940
G1 X105.121 Y64.662 E1.19714
G1 X105.074 Y64.696 E1.19798
G1 X105.080 Y64.215 F6000.000
G1 X103.559 Y63.048 F1050.000 E1.22592
G1 X108.383 Y48.200 E1.45333
G1 X111.539 Y49.605 E1.50364
G1 X115.442 Y52.440 E1.57392
G1 X117.754 Y55.008 E1.62424
G1 X105.127 Y64.181 E1.85157
G1 X105.080 Y64.215 E1.85241
G1 X104.698 Y64.256 F6000.000
G1 F420.000 E1.35241
G92 E0
G1 X101.205 Y62.717 F6000.000
G1 F420.000 E0.50000
G1 X100.000 Y62.558 F2100.000 E0.51771
G1 X98.795 Y62.717 E0.53542
G1 X93.711 Y47.070 E0.77506
G1 X97.547 Y46.254 E0.83219
G1 X102.453 Y46.254 E0.90364
G1 X106.289 Y47.070 E0.96077
G1 X101.223 Y62.662 E1.19958
G1 X101.205 Y62.717 E1.20042
G1 X100.938 Y62.293 F6000.000
G1 X100.000 Y62.170 F1050.000 E1.21420
G1 X99.062 Y62.293 E1.22798
G1 X94.209 Y47.357 E1.45674
G1 X97.588 Y46.639 E1.50705
G1 X102.412 Y46.639 E1.57733
G1 X105.791 Y47.357 E1.62765
G1 X100.956 Y62.238 E1.85556
G1 X100.938 Y62.293 E1.85640
G1 X100.652 Y62.551 F6000.000
G1 F420.000 E1.35640
G92 E0
G1 X96.891 Y63.188 F6000.000
G1 F420.000 E0.50000
G1 X94.926 Y64.696 F2100.000 E0.53608
G1 X81.674 Y55.068 E0.77467
G1 X84.299 Y52.153 E0.83180
G1 X84.397 Y52.082 E0.83356
G1 X88.267 Y49.269 E0.90326
G1 X91.850 Y47.674 E0.96039
G1 X96.873 Y63.133 E1.19714
G1 X96.891 Y63.188 E1.19798
G1 X96.441 Y63.048 F6000.000
G1 X94.920 Y64.215 F1050.000 E1.22592
G1 X82.246 Y55.008 E1.45410
G1 X84.558 Y52.440 E1.50441
G1 X84.623 Y52.393 E1.50559
G1 X88.461 Y49.605 E1.57469
G1 X91.617 Y48.200 E1.62500
G1 X96.423 Y62.993 E1.85157
G1 X96.441 Y63.048 E1.85241
G1 X96.361 Y63.424 F6000.000
G1 F420.000 E1.35241
G92 E0
G1 X93.814 Y66.305 F6000.000
G1 F420.000 E0.50000
G1 X93.207 Y67.771 F2100.000 E0.52311
G1 X93.096 Y68.613 E0.53548
G1 X76.638 Y68.613 E0.77521
G1 X77.048 Y64.712 E0.83234
G1 X77.085 Y64.597 E0.83410
G1 X78.563 Y60.047 E0.90380
G1 X80.525 Y56.650 E0.96093
G1 X93.767 Y66.271 E1.19935
G1 X93.814 Y66.305 E1.20019
G1 X93.342 Y66.438 F6000.000
G1 X92.832 Y67.670 F1050.000 E1.21962
G1 X92.758 Y68.228 E1.22781
G1 X77.065 Y68.228 E1.45640
G1 X77.426 Y64.793 E1.50672
G1 X77.451 Y64.716 E1.50789
G1 X78.917 Y60.204 E1.57699
G1 X80.644 Y57.213 E1.62731
G1 X93.295 Y66.404 E1.85509
G1 X93.342 Y66.438 E1.85593
G1 X93.499 Y66.790 F6000.000
G1 F420.000 E1.35593
G92 E0
G1 X93.096 Y70.569 F6000.000
G1 F420.000 E0.50000
G1 X93.207 Y71.411 F2100.000 E0.51237
G1 X93.814 Y72.877 E0.53548
G1 X80.525 Y82.532 E0.77475
G1 X78.563 Y79.135 E0.83188
G1 X77.048 Y74.470 E0.90333
G1 X76.638 Y70.569 E0.96046
G1 X93.038 Y70.569 E1.19935
G1 X93.096 Y70.569 E1.20019
G1 X92.758 Y70.954 F6000.000
G1 X92.832 Y71.512 F1050.000 E1.20839
G1 X93.342 Y72.744 E1.22781
G1 X80.644 Y81.969 E1.45643
G1 X78.917 Y78.978 E1.50675
G1 X77.451 Y74.466 E1.57585
G1 X77.426 Y74.389 E1.57703
G1 X77.065 Y70.954 E1.62734
G1 X92.701 Y70.954 E1.85509
G1 X92.758 Y70.954 E1.85593
G1 X93.092 Y71.146 F6000.000
G1 F420.000 E1.35593
G92 E0
G1 X94.926 Y74.486 F6000.000
G1 F420.000 E0.50000
G1 X96.891 Y75.994 F2100.000 E0.53608
G1 X91.850 Y91.508 E0.77368
G1 X88.267 Y89.913 E0.83081
G1 X84.397 Y87.100 E0.90050
G1 X84.299 Y87.029 E0.90226
G1 X81.674 Y84.114 E0.95940
G1 X94.879 Y74.520 E1.19714
G1 X94.926 Y74.486 E1.19798
G1 X94.920 Y74.967 F6000.000
G1 X96.441 Y76.134 F1050.000 E1.22592
G1 X91.617 Y90.982 E1.45333
G1 X88.461 Y89.577 E1.50364
G1 X84.623 Y86.789 E1.57275
G1 X84.558 Y86.742 E1.57392
G1 X82.246 Y84.174 E1.62424
G1 X94.873 Y75.001 E1.85157
G1 X94.920 Y74.967 E1.85241
G1 X95.302 Y74.926 F6000.000
G1 F420.000 E1.35241
G92 E0
G1 X98.795 Y76.465 F6000.000
G1 F420.000 E0.50000
G1 X100.000 Y76.624 F2100.000 E0.51771
G1 X101.205 Y76.465 E0.53542
G1 X106.289 Y92.112 E0.77506
G1 X102.453 Y92.928 E0.83219
G1 X97.547 Y92.928 E0.90364
G1 X93.711 Y92.112 E0.96077
G1 X98.777 Y76.520 E1.19958
G1 X98.795 Y76.465 E1.20042
G1 X99.062 Y76.889 F6000.000
G1 X100.000 Y77.012 F1050.000 E1.21420
G1 X100.938 Y76.889 E1.22798
G1 X105.791 Y91.825 E1.45674
G1 X102.412 Y92.543 E1.50705
G1 X97.588 Y92.543 E1.57733
G1 X94.209 Y91.825 E1.62765
G1 X99.044 Y76.943 E1.85556
G1 X99.062 Y76.889 E1.85640
G1 X99.348 Y76.631 F6000.000
G1 F420.000 E1.35640
G92 E0
G1 X80.663 Y56.275 F6000.000
G1 F420.000 E0.50000
G1 X80.962 Y55.759 F2100.000 E0.50869
G1 X81.361 Y55.316 E0.51737
G1 X94.932 Y65.176 E0.76172
G1 X97.341 Y63.327 E0.80595
G1 X92.183 Y47.453 E1.04908
G1 X92.728 Y47.210 E1.05777
G1 X93.311 Y47.086 E1.06646
G1 X98.528 Y63.140 E1.31234
G1 X100.000 Y62.946 E1.33397
G1 X101.472 Y63.140 E1.35560
G1 X106.689 Y47.086 E1.60148
G1 X107.272 Y47.210 E1.61016
G1 X107.817 Y47.453 E1.61885
G1 X102.659 Y63.327 E1.86198
G1 X105.068 Y65.176 E1.90621
G1 X118.639 Y55.316 E2.15056
G1 X119.038 Y55.759 E2.15925
G1 X119.337 Y56.275 E2.16793
G1 X105.715 Y66.172 E2.41319
G1 X106.418 Y67.871 E2.43998
G1 X106.567 Y68.998 E2.45653
G1 X123.470 Y68.998 E2.70275
G1 X123.533 Y69.591 E2.71144
G1 X123.470 Y70.184 E2.72013
G1 X106.567 Y70.184 E2.96635
G1 X106.418 Y71.311 E2.98290
G1 X105.715 Y73.010 E3.00969
G1 X119.337 Y82.907 E3.25494
G1 X119.038 Y83.423 E3.26363
G1 X118.639 Y83.866 E3.27232
G1 X105.068 Y74.006 E3.51667
G1 X102.659 Y75.855 E3.56090
G1 X107.817 Y91.729 E3.80403
G1 X107.272 Y91.972 E3.81272
G1 X106.689 Y92.096 E3.82140
G1 X101.472 Y76.042 E4.06728
G1 X100.000 Y76.236 E4.08891
G1 X98.528 Y76.042 E4.11054
G1 X93.311 Y92.096 E4.35642
G1 X92.728 Y91.972 E4.36511
G1 X92.183 Y91.729 E4.37380
G1 X97.341 Y75.855 E4.61693
G1 X94.932 Y74.006 E4.66116
G1 X81.361 Y83.866 E4.90551
G1 X80.962 Y83.423 E4.91419
G1 X80.663 Y82.907 E4.92288
G1 X94.285 Y73.010 E5.16814
G1 X93.582 Y71.311 E5.19492
G1 X93.433 Y70.184 E5.21148
G1 X76.530 Y70.184 E5.45770
G1 X76.467 Y69.591 E5.46638
G1 X76.530 Y68.998 E5.47507
G1 X93.433 Y68.998 E5.72129
G1 X93.582 Y67.871 E5.73784
G1 X94.285 Y66.172 E5.76463
G1 X80.710 Y56.309 E6.00905
G1 X80.663 Y56.275 E6.00989
G1 X80.648 Y55.531 F6000.000
G1 X83.995 Y51.815 F2100.000 E6.08273
G1 X88.040 Y48.876 E6.15557
G1 X92.608 Y46.842 E6.22840
G1 X97.500 Y45.802 E6.30124
G1 X102.500 Y45.802 E6.37408
G1 X102.662 Y45.837 E6.37649
G1 X107.392 Y46.842 E6.44692
G1 X111.960 Y48.876 E6.51976
G1 X116.005 Y51.815 E6.59260
G1 X119.352 Y55.531 E6.66544
G1 X121.852 Y59.862 E6.73828
G1 X123.397 Y64.618 E6.81111
G1 X123.920 Y69.591 E6.88395
G1 X123.397 Y74.564 E6.95679
G1 X121.852 Y79.320 E7.02963
G1 X119.352 Y83.651 E7.10247
G1 X116.005 Y87.367 E7.17531
G1 X111.960 Y90.306 E7.24815
G1 X107.392 Y92.340 E7.32098
G1 X102.500 Y93.380 E7.39382
G1 X97.500 Y93.380 E7.46666
G1 X92.608 Y92.340 E7.53950
G1 X88.040 Y90.306 E7.61234
G1 X83.995 Y87.367 E7.68518
G1 X80.648 Y83.651 E7.75802
G1 X78.148 Y79.320 E7.83085
G1 X76.603 Y74.564 E7.90369
G1 X76.080 Y69.591 E7.97653
G1 X76.603 Y64.618 E8.04937
G1 X78.148 Y59.862 E8.12221
G1 X80.620 Y55.581 E8.19421
G1 X80.648 Y55.531 E8.19505
G1 X80.335 Y55.304 F6000.000
G1 X83.736 Y51.528 F1050.000 E8.26906
G1 X87.847 Y48.541 E8.34308
G1 X92.489 Y46.474 E8.41710
G1 X97.459 Y45.417 E8.49112
G1 X102.541 Y45.417 E8.56513
G1 X102.742 Y45.460 E8.56813
G1 X107.511 Y46.474 E8.63915
G1 X112.153 Y48.541 E8.71317
G1 X116.264 Y51.528 E8.78718
G1 X119.665 Y55.304 E8.86120
G1 X122.205 Y59.705 E8.93522
G1 X123.776 Y64.537 E9.00923
G1 X124.307 Y69.591 E9.08325
G1 X123.776 Y74.645 E9.15727
G1 X122.205 Y79.477 E9.23129
G1 X119.665 Y83.878 E9.30530
G1 X116.264 Y87.654 E9.37932
G1 X112.153 Y90.641 E9.45334
G1 X107.511 Y92.708 E9.52735
G1 X102.541 Y93.765 E9.60137
G1 X97.459 Y93.765 E9.67539
G1 X92.489 Y92.708 E9.74940
G1 X87.847 Y90.641 E9.82342
G1 X83.736 Y87.654 E9.89744
G1 X80.335 Y83.878 E9.97146
G1 X77.795 Y79.477 E10.04547
G1 X76.224 Y74.645 E10.11949
G1 X75.693 Y69.591 E10.19351
G1 X76.224 Y64.537 E10.26752
G1 X77.795 Y59.705 E10.34154
G1 X80.307 Y55.354 E10.41472
