; generated by Slic3r 0.9.9 on 2013-07-01 at 23:25:06

; layer_height = 0.25
; perimeters = 3
; top_solid_layers = 4
; bottom_solid_layers = 4
; fill_density = 0.15
; perimeter_speed = 70
; infill_speed = 90
; travel_speed = 100
; nozzle_diameter = 0.35
; filament_diameter = 3.0
; extrusion_multiplier = 1
; perimeters extrusion width = 0.39mm
; infill extrusion width = 0.39mm
; solid infill extrusion width = 0.39mm
; top infill extrusion width = 0.39mm

G21 ; set units to millimeters
M107 ; disable fan
G28 ; home all axes
G90 ; use absolute coordinates
G92 E0 ; reset extrusion distance
M82 ; use absolute distances for extrusion
G1 F420.000 E-0.50000 ; retract
G92 E0 ; reset extrusion distance
G1 Z0.250 F6000.000 ; move to next layer (0)
G1 X85.930 Y84.965 ; move to first skirt point
G1 F420.000 E0.50000 ; compensate retraction
G1 X86.320 Y84.595 F2100.000 E0.50732 ; skirt
G1 X86.740 Y84.265 E0.51459 ; skirt
G1 X89.140 Y82.525 E0.55494 ; skirt
G1 X89.560 Y82.245 E0.56181 ; skirt
G1 X90.340 Y81.835 E0.57380 ; skirt
G1 X93.020 Y80.645 E0.61371 ; skirt
G1 X93.760 Y80.375 E0.62443 ; skirt
G1 X94.280 Y80.245 E0.63173 ; skirt
G1 X97.180 Y79.625 E0.67209 ; skirt
G1 X97.710 Y79.535 E0.67941 ; skirt
G1 X98.240 Y79.485 E0.68666 ; skirt
G1 X101.750 Y79.485 E0.73443 ; skirt
G1 X102.280 Y79.535 E0.74168 ; skirt
G1 X102.810 Y79.625 E0.74900 ; skirt
G1 X105.710 Y80.245 E0.78936 ; skirt
G1 X106.480 Y80.455 E0.80022 ; skirt
G1 X106.980 Y80.655 E0.80755 ; skirt
G1 X109.700 Y81.865 E0.84807 ; skirt
G1 X110.170 Y82.095 E0.85520 ; skirt
G1 X110.850 Y82.525 E0.86615 ; skirt
G1 X113.250 Y84.265 E0.90649 ; skirt
G1 X113.670 Y84.595 E0.91376 ; skirt
G1 X114.060 Y84.965 E0.92108 ; skirt
G1 X116.410 Y87.575 E0.96888 ; skirt
G1 X116.740 Y88.005 E0.97626 ; skirt
G1 X117.020 Y88.455 E0.98348 ; skirt
G1 X118.500 Y91.025 E1.02384 ; skirt
G1 X118.750 Y91.495 E1.03109 ; skirt
G1 X118.860 Y91.745 E1.03481 ; skirt
G1 X119.040 Y92.245 E1.04204 ; skirt
G1 X119.960 Y95.075 E1.08254 ; skirt
G1 X120.110 Y95.585 E1.08978 ; skirt
G1 X120.210 Y96.115 E1.09712 ; skirt
G1 X120.550 Y99.325 E1.14106 ; skirt
G1 X120.580 Y100.125 E1.15195 ; skirt
G1 X120.550 Y100.665 E1.15931 ; skirt
G1 X120.240 Y103.615 E1.19969 ; skirt
G1 X120.210 Y103.875 E1.20325 ; skirt
G1 X120.110 Y104.405 E1.21059 ; skirt
G1 X119.960 Y104.915 E1.21783 ; skirt
G1 X119.040 Y107.745 E1.25833 ; skirt
G1 X118.750 Y108.495 E1.26928 ; skirt
G1 X118.500 Y108.965 E1.27652 ; skirt
G1 X117.020 Y111.535 E1.31689 ; skirt
G1 X116.740 Y111.985 E1.32410 ; skirt
G1 X116.410 Y112.415 E1.33148 ; skirt
G1 X114.060 Y115.025 E1.37928 ; skirt
G1 X113.870 Y115.215 E1.38294 ; skirt
G1 X113.250 Y115.725 E1.39387 ; skirt
G1 X110.850 Y117.465 E1.43422 ; skirt
G1 X110.430 Y117.745 E1.44109 ; skirt
G1 X109.650 Y118.155 E1.45308 ; skirt
G1 X106.970 Y119.345 E1.49299 ; skirt
G1 X106.480 Y119.535 E1.50015 ; skirt
G1 X105.710 Y119.745 E1.51101 ; skirt
G1 X102.810 Y120.365 E1.55137 ; skirt
G1 X102.280 Y120.455 E1.55869 ; skirt
G1 X101.750 Y120.505 E1.56594 ; skirt
G1 X98.240 Y120.505 E1.61371 ; skirt
G1 X97.710 Y120.455 E1.62096 ; skirt
G1 X97.180 Y120.365 E1.62827 ; skirt
G1 X94.280 Y119.745 E1.66864 ; skirt
G1 X93.760 Y119.615 E1.67593 ; skirt
G1 X93.260 Y119.445 E1.68312 ; skirt
G1 X90.290 Y118.125 E1.72736 ; skirt
G1 X89.820 Y117.895 E1.73448 ; skirt
G1 X89.140 Y117.465 E1.74543 ; skirt
G1 X86.740 Y115.725 E1.78578 ; skirt
G1 X86.320 Y115.395 E1.79305 ; skirt
G1 X85.930 Y115.025 E1.80037 ; skirt
G1 X83.580 Y112.415 E1.84817 ; skirt
G1 X83.250 Y111.985 E1.85555 ; skirt
G1 X82.970 Y111.535 E1.86276 ; skirt
G1 X81.490 Y108.965 E1.90313 ; skirt
G1 X81.240 Y108.495 E1.91038 ; skirt
G1 X81.130 Y108.245 E1.91409 ; skirt
G1 X80.950 Y107.745 E1.92133 ; skirt
G1 X80.030 Y104.915 E1.96183 ; skirt
G1 X79.880 Y104.405 E1.96907 ; skirt
G1 X79.780 Y103.875 E1.97641 ; skirt
G1 X79.750 Y103.615 E1.97997 ; skirt
G1 X79.440 Y100.665 E2.02034 ; skirt
G1 X79.410 Y100.125 E2.02770 ; skirt
G1 X79.440 Y99.325 E2.03860 ; skirt
G1 X79.780 Y96.115 E2.08254 ; skirt
G1 X79.880 Y95.585 E2.08988 ; skirt
G1 X80.030 Y95.075 E2.09711 ; skirt
G1 X80.950 Y92.245 E2.13762 ; skirt
G1 X81.130 Y91.745 E2.14485 ; skirt
G1 X81.240 Y91.495 E2.14857 ; skirt
G1 X81.490 Y91.025 E2.15581 ; skirt
G1 X82.970 Y88.455 E2.19618 ; skirt
G1 X83.250 Y88.005 E2.20339 ; skirt
G1 X83.580 Y87.575 E2.21077 ; skirt
G1 X85.891 Y85.008 E2.25779 ; skirt
G1 F420.000 E1.75779 ; retract
G92 E0 ; reset extrusion distance
G1 X91.194 Y90.220 F6000.000 ; move to first perimeter point
G1 F420.000 E0.50000 ; compensate retraction
G1 X92.620 Y89.184 F1500.000 E0.52400 ; perimeter
G1 X95.695 Y94.509 E0.60769 ; perimeter
G1 X95.024 Y95.024 E0.61921 ; perimeter
G1 X93.905 Y96.481 E0.64421 ; perimeter
G1 X93.202 Y98.178 E0.66922 ; perimeter
G1 X93.092 Y99.017 E0.68073 ; perimeter
G1 X86.943 Y99.017 E0.76442 ; perimeter
G1 X87.127 Y97.264 E0.78842 ; perimeter
G1 X87.977 Y94.647 E0.82587 ; perimeter
G1 X89.353 Y92.264 E0.86332 ; perimeter
G1 X91.155 Y90.263 E0.89998 ; perimeter
G1 X91.453 Y90.507 F6000.000 ; move to first perimeter point
G1 X92.501 Y89.746 F1500.000 E0.91761 ; perimeter
G1 X95.193 Y94.409 E0.99089 ; perimeter
G1 X94.749 Y94.749 E0.99850 ; perimeter
G1 X93.569 Y96.287 E1.02489 ; perimeter
G1 X92.827 Y98.078 E1.05127 ; perimeter
G1 X92.754 Y98.632 E1.05889 ; perimeter
G1 X87.370 Y98.632 E1.13216 ; perimeter
G1 X87.506 Y97.344 E1.14979 ; perimeter
G1 X88.331 Y94.805 E1.18614 ; perimeter
G1 X89.666 Y92.492 E1.22249 ; perimeter
G1 X91.414 Y90.550 E1.25805 ; perimeter
G1 X91.386 Y90.128 F6000.000 ; move inwards before travel
G1 F420.000 E0.75805 ; retract
G92 E0 ; reset extrusion distance
G1 X94.322 Y88.201 F6000.000 ; move to first perimeter point
G1 F420.000 E0.50000 ; compensate retraction
G1 X95.933 Y87.484 F1500.000 E0.52400 ; perimeter
G1 X98.624 Y86.912 E0.56145 ; perimeter
G1 X101.376 Y86.912 E0.59889 ; perimeter
G1 X104.067 Y87.484 E0.63634 ; perimeter
G1 X105.678 Y88.201 E0.66034 ; perimeter
G1 X102.603 Y93.526 E0.74403 ; perimeter
G1 X101.822 Y93.202 E0.75555 ; perimeter
G1 X100.000 Y92.962 E0.78055 ; perimeter
G1 X98.178 Y93.202 E0.80556 ; perimeter
G1 X97.397 Y93.526 E0.81708 ; perimeter
G1 X94.351 Y88.251 E0.89998 ; perimeter
G1 X94.869 Y88.379 F6000.000 ; move to first perimeter point
G1 X96.053 Y87.852 F1500.000 E0.91761 ; perimeter
G1 X98.665 Y87.296 E0.95396 ; perimeter
G1 X101.335 Y87.296 E0.99031 ; perimeter
G1 X103.947 Y87.852 E1.02665 ; perimeter
G1 X105.131 Y88.379 E1.04428 ; perimeter
G1 X102.439 Y93.041 E1.11756 ; perimeter
G1 X101.922 Y92.827 E1.12517 ; perimeter
G1 X100.000 Y92.574 E1.15156 ; perimeter
G1 X98.078 Y92.827 E1.17795 ; perimeter
G1 X97.561 Y93.041 E1.18556 ; perimeter
G1 X94.898 Y88.429 E1.25805 ; perimeter
G1 X94.701 Y88.033 F6000.000 ; move inwards before travel
G1 F420.000 E0.75805 ; retract
G92 E0 ; reset extrusion distance
G1 X104.305 Y94.509 F6000.000 ; move to first perimeter point
G1 F420.000 E0.50000 ; compensate retraction
G1 X107.380 Y89.184 F1500.000 E0.58369 ; perimeter
G1 X108.806 Y90.220 E0.60769 ; perimeter
G1 X110.647 Y92.264 E0.64514 ; perimeter
G1 X112.023 Y94.647 E0.68259 ; perimeter
G1 X112.873 Y97.264 E0.72003 ; perimeter
G1 X113.057 Y99.017 E0.74403 ; perimeter
G1 X106.908 Y99.017 E0.82772 ; perimeter
G1 X106.798 Y98.178 E0.83924 ; perimeter
G1 X106.095 Y96.481 E0.86424 ; perimeter
G1 X104.976 Y95.024 E0.88925 ; perimeter
G1 X104.351 Y94.544 E0.89998 ; perimeter
G1 X104.807 Y94.409 F6000.000 ; move to first perimeter point
G1 X107.499 Y89.746 F1500.000 E0.97326 ; perimeter
G1 X108.547 Y90.507 E0.99089 ; perimeter
G1 X110.334 Y92.492 E1.02724 ; perimeter
G1 X111.669 Y94.805 E1.06358 ; perimeter
G1 X112.494 Y97.344 E1.09993 ; perimeter
G1 X112.630 Y98.632 E1.11756 ; perimeter
G1 X107.246 Y98.632 E1.19084 ; perimeter
G1 X107.173 Y98.078 E1.19845 ; perimeter
G1 X106.431 Y96.287 E1.22484 ; perimeter
G1 X105.251 Y94.749 E1.25122 ; perimeter
G1 X104.853 Y94.444 E1.25805 ; perimeter
G1 X104.483 Y94.202 F6000.000 ; move inwards before travel
G1 F420.000 E0.75805 ; retract
G92 E0 ; reset extrusion distance
G1 X106.908 Y100.983 F6000.000 ; move to first perimeter point
G1 F420.000 E0.50000 ; compensate retraction
G1 X113.057 Y100.983 F1500.000 E0.58369 ; perimeter
G1 X112.873 Y102.736 E0.60769 ; perimeter
G1 X112.023 Y105.353 E0.64514 ; perimeter
G1 X110.647 Y107.736 E0.68259 ; perimeter
G1 X108.806 Y109.780 E0.72003 ; perimeter
G1 X107.380 Y110.816 E0.74403 ; perimeter
G1 X104.305 Y105.491 E0.82772 ; perimeter
G1 X104.976 Y104.976 E0.83924 ; perimeter
G1 X106.095 Y103.519 E0.86424 ; perimeter
G1 X106.798 Y101.822 E0.88925 ; perimeter
G1 X106.901 Y101.040 E0.89998 ; perimeter
G1 X107.246 Y101.368 F6000.000 ; move to first perimeter point
G1 X112.630 Y101.368 F1500.000 E0.97326 ; perimeter
G1 X112.494 Y102.656 E0.99089 ; perimeter
G1 X111.669 Y105.195 E1.02724 ; perimeter
G1 X110.334 Y107.508 E1.06358 ; perimeter
G1 X108.547 Y109.493 E1.09993 ; perimeter
G1 X107.499 Y110.254 E1.11756 ; perimeter
G1 X104.807 Y105.591 E1.19084 ; perimeter
G1 X105.251 Y105.251 E1.19845 ; perimeter
G1 X106.431 Y103.713 E1.22484 ; perimeter
G1 X107.173 Y101.922 E1.25122 ; perimeter
G1 X107.238 Y101.425 E1.25805 ; perimeter
G1 X107.263 Y100.983 F6000.000 ; move inwards before travel
G1 X105.360 Y101.025 ; move to first perimeter point
G1 X105.348 Y101.137 F1500.000 E1.25959 ; perimeter
G1 X104.995 Y102.224 E1.27514 ; perimeter
G1 X104.423 Y103.214 E1.29070 ; perimeter
G1 X103.658 Y104.063 E1.30626 ; perimeter
G1 X102.734 Y104.735 E1.32181 ; perimeter
G1 X101.690 Y105.200 E1.33737 ; perimeter
G1 X100.572 Y105.437 E1.35293 ; perimeter
G1 X99.428 Y105.437 E1.36849 ; perimeter
G1 X98.310 Y105.200 E1.38405 ; perimeter
G1 X97.266 Y104.735 E1.39960 ; perimeter
G1 X96.342 Y104.063 E1.41516 ; perimeter
G1 X95.577 Y103.213 E1.43072 ; perimeter
G1 X95.005 Y102.224 E1.44627 ; perimeter
G1 X94.652 Y101.137 E1.46183 ; perimeter
G1 X94.533 Y100.000 E1.47739 ; perimeter
G1 X94.652 Y98.863 E1.49295 ; perimeter
G1 X95.005 Y97.776 E1.50851 ; perimeter
G1 X95.577 Y96.786 E1.52406 ; perimeter
G1 X96.342 Y95.937 E1.53962 ; perimeter
G1 X97.266 Y95.265 E1.55518 ; perimeter
G1 X98.310 Y94.800 E1.57073 ; perimeter
G1 X99.428 Y94.563 E1.58629 ; perimeter
G1 X100.571 Y94.563 E1.60185 ; perimeter
G1 X101.689 Y94.800 E1.61740 ; perimeter
G1 X102.734 Y95.265 E1.63297 ; perimeter
G1 X103.658 Y95.937 E1.64852 ; perimeter
G1 X104.423 Y96.786 E1.66408 ; perimeter
G1 X104.995 Y97.776 E1.67964 ; perimeter
G1 X105.348 Y98.863 E1.69519 ; perimeter
G1 X105.467 Y100.000 E1.71075 ; perimeter
G1 X105.366 Y100.967 E1.72399 ; perimeter
G1 X104.977 Y100.984 F6000.000 ; move to first perimeter point
G1 X104.969 Y101.056 F1500.000 E1.72498 ; perimeter
G1 X104.641 Y102.066 E1.73943 ; perimeter
G1 X104.110 Y102.986 E1.75389 ; perimeter
G1 X103.399 Y103.776 E1.76834 ; perimeter
G1 X102.540 Y104.400 E1.78280 ; perimeter
G1 X101.570 Y104.832 E1.79725 ; perimeter
G1 X100.531 Y105.053 E1.81171 ; perimeter
G1 X99.469 Y105.053 E1.82617 ; perimeter
G1 X98.430 Y104.832 E1.84063 ; perimeter
G1 X97.460 Y104.400 E1.85508 ; perimeter
G1 X96.601 Y103.776 E1.86954 ; perimeter
G1 X95.890 Y102.986 E1.88400 ; perimeter
G1 X95.359 Y102.066 E1.89845 ; perimeter
G1 X95.031 Y101.056 E1.91291 ; perimeter
G1 X94.920 Y100.000 E1.92736 ; perimeter
G1 X95.031 Y98.944 E1.94182 ; perimeter
G1 X95.359 Y97.934 E1.95628 ; perimeter
G1 X95.890 Y97.014 E1.97073 ; perimeter
G1 X96.601 Y96.224 E1.98519 ; perimeter
G1 X97.460 Y95.600 E1.99965 ; perimeter
G1 X98.430 Y95.168 E2.01410 ; perimeter
G1 X99.469 Y94.947 E2.02856 ; perimeter
G1 X100.531 Y94.947 E2.04301 ; perimeter
G1 X101.570 Y95.168 E2.05747 ; perimeter
G1 X102.540 Y95.600 E2.07193 ; perimeter
G1 X103.399 Y96.224 E2.08638 ; perimeter
G1 X104.110 Y97.014 E2.10084 ; perimeter
G1 X104.641 Y97.934 E2.11530 ; perimeter
G1 X104.969 Y98.944 E2.12975 ; perimeter
G1 X105.080 Y100.000 E2.14421 ; perimeter
G1 X104.983 Y100.927 E2.15690 ; perimeter
G1 X104.594 Y100.944 F6000.000 ; move to first perimeter point
G1 X104.288 Y101.909 F1500.000 E2.17068 ; perimeter
G1 X103.797 Y102.759 E2.18403 ; perimeter
G1 X103.141 Y103.488 E2.19739 ; perimeter
G1 X102.347 Y104.065 E2.21074 ; perimeter
G1 X101.450 Y104.464 E2.22410 ; perimeter
G1 X100.491 Y104.668 E2.23745 ; perimeter
G1 X99.509 Y104.668 E2.25081 ; perimeter
G1 X98.550 Y104.464 E2.26416 ; perimeter
G1 X97.653 Y104.065 E2.27752 ; perimeter
G1 X96.859 Y103.488 E2.29087 ; perimeter
G1 X96.203 Y102.759 E2.30423 ; perimeter
G1 X95.712 Y101.909 E2.31758 ; perimeter
G1 X95.409 Y100.976 E2.33094 ; perimeter
G1 X95.307 Y100.000 E2.34429 ; perimeter
G1 X95.409 Y99.024 E2.35765 ; perimeter
G1 X95.712 Y98.091 E2.37101 ; perimeter
G1 X96.203 Y97.241 E2.38436 ; perimeter
G1 X96.859 Y96.512 E2.39772 ; perimeter
G1 X97.653 Y95.935 E2.41107 ; perimeter
G1 X98.550 Y95.536 E2.42443 ; perimeter
G1 X99.509 Y95.332 E2.43778 ; perimeter
G1 X100.491 Y95.332 E2.45114 ; perimeter
G1 X101.450 Y95.536 E2.46449 ; perimeter
G1 X102.347 Y95.935 E2.47785 ; perimeter
G1 X103.141 Y96.512 E2.49120 ; perimeter
G1 X103.797 Y97.241 E2.50456 ; perimeter
G1 X104.288 Y98.091 E2.51791 ; perimeter
G1 X104.591 Y99.024 E2.53127 ; perimeter
G1 X104.693 Y100.000 E2.54462 ; perimeter
G1 X104.600 Y100.887 E2.55676 ; perimeter
G1 X104.872 Y101.210 F6000.000 ; move inwards before travel
G1 F420.000 E2.05676 ; retract
G92 E0 ; reset extrusion distance
G1 X95.695 Y105.491 F6000.000 ; move to first perimeter point
G1 F420.000 E0.50000 ; compensate retraction
G1 X92.620 Y110.816 F1500.000 E0.58369 ; perimeter
G1 X91.194 Y109.780 E0.60769 ; perimeter
G1 X89.353 Y107.736 E0.64514 ; perimeter
G1 X88.024 Y105.434 E0.68131 ; perimeter
G1 X87.977 Y105.353 E0.68259 ; perimeter
G1 X87.127 Y102.736 E0.72003 ; perimeter
G1 X86.943 Y100.983 E0.74403 ; perimeter
G1 X93.092 Y100.983 E0.82772 ; perimeter
G1 X93.202 Y101.821 E0.83924 ; perimeter
G1 X93.905 Y103.519 E0.86424 ; perimeter
G1 X95.024 Y104.976 E0.88925 ; perimeter
G1 X95.649 Y105.456 E0.89998 ; perimeter
G1 X95.193 Y105.591 F6000.000 ; move to first perimeter point
G1 X92.501 Y110.254 F1500.000 E0.97326 ; perimeter
G1 X91.453 Y109.493 E0.99089 ; perimeter
G1 X89.666 Y107.508 E1.02724 ; perimeter
G1 X88.357 Y105.241 E1.06286 ; perimeter
G1 X87.506 Y102.656 E1.09992 ; perimeter
G1 X87.370 Y101.368 E1.11755 ; perimeter
G1 X92.754 Y101.368 E1.19083 ; perimeter
G1 X92.827 Y101.922 E1.19844 ; perimeter
G1 X93.569 Y103.713 E1.22482 ; perimeter
G1 X94.749 Y105.251 E1.25121 ; perimeter
G1 X95.147 Y105.556 E1.25803 ; perimeter
G1 X95.517 Y105.798 F6000.000 ; move inwards before travel
G1 X97.397 Y106.474 ; move to first perimeter point
G1 X98.178 Y106.798 F1500.000 E1.26955 ; perimeter
G1 X100.000 Y107.038 E1.29456 ; perimeter
G1 X101.822 Y106.798 E1.31956 ; perimeter
G1 X102.603 Y106.474 E1.33108 ; perimeter
G1 X105.678 Y111.799 E1.41477 ; perimeter
G1 X104.067 Y112.516 E1.43877 ; perimeter
G1 X101.376 Y113.088 E1.47622 ; perimeter
G1 X98.624 Y113.088 E1.51366 ; perimeter
G1 X95.933 Y112.516 E1.55111 ; perimeter
G1 X94.322 Y111.799 E1.57511 ; perimeter
G1 X97.368 Y106.524 E1.65802 ; perimeter
G1 X97.561 Y106.959 F6000.000 ; move to first perimeter point
G1 X98.078 Y107.173 F1500.000 E1.66563 ; perimeter
G1 X100.000 Y107.426 E1.69201 ; perimeter
G1 X101.922 Y107.173 E1.71840 ; perimeter
G1 X102.439 Y106.959 E1.72601 ; perimeter
G1 X105.131 Y111.621 E1.79929 ; perimeter
G1 X103.947 Y112.148 E1.81692 ; perimeter
G1 X101.335 Y112.704 E1.85327 ; perimeter
G1 X98.665 Y112.704 E1.88961 ; perimeter
G1 X96.053 Y112.148 E1.92596 ; perimeter
G1 X94.869 Y111.621 E1.94359 ; perimeter
G1 X97.533 Y107.009 E2.01609 ; perimeter
G1 X97.724 Y106.610 F6000.000 ; move inwards before travel
G1 F420.000 E1.51609 ; retract
G92 E0 ; reset extrusion distance
G1 X92.895 Y88.889 F6000.000 ; move to first perimeter point
G1 F420.000 E0.50000 ; compensate retraction
G1 X93.381 Y88.536 F2100.000 E0.50818 ; perimeter
G1 X93.930 Y88.291 E0.51637 ; perimeter
G1 X97.232 Y94.011 E0.60625 ; perimeter
G1 X98.279 Y93.577 E0.62167 ; perimeter
