; generated by Slic3r 0.9.9 on 2015-05-09 at 12:24:38

; layer_height = 0.25
; perimeters = 3
; top_solid_layers = 4
; bottom_solid_layers = 4
; fill_density = 0.15
; perimeter_speed = 70
; infill_speed = 90
; travel_speed = 100
; nozzle_diameter = 0.35
; filament_diameter = 3.0
; extrusion_multiplier = 1
; perimeters extrusion width = 0.39mm
; infill extrusion width = 0.39mm
; solid infill extrusion width = 0.39mm
; top infill extrusion width = 0.39mm

G21 ; set units to millimeters
G28 ; home all axes
G90 ; use absolute coordinates
G92 E0 ; reset extrusion distance
M82 ; use absolute distances for extrusion
G1 F420.000 E-0.50000 ; retract
G92 E0 ; reset extrusion distance
G1 Z0.250 F6000.000 ; move to next layer (0)
G1 X77.700 Y75.832 ; move to first skirt point
G1 F420.000 E0.50000 ; compensate retraction
G1 X78.090 Y75.472 F2100.000 E0.50722 ; skirt
G1 X78.500 Y75.142 E0.51439 ; skirt
G1 X83.200 Y71.722 E0.59350 ; skirt
G1 X83.660 Y71.442 E0.60083 ; skirt
G1 X89.450 Y68.852 E0.68717 ; skirt
G1 X89.700 Y68.762 E0.69078 ; skirt
G1 X90.460 Y68.552 E0.70152 ; skirt
G1 X95.880 Y67.392 E0.77696 ; skirt
G1 X96.410 Y67.302 E0.78428 ; skirt
G1 X96.950 Y67.252 E0.79166 ; skirt
G1 X103.040 Y67.252 E0.87455 ; skirt
G1 X103.580 Y67.302 E0.88193 ; skirt
G1 X104.110 Y67.392 E0.88925 ; skirt
G1 X109.530 Y68.552 E0.96469 ; skirt
G1 X110.040 Y68.682 E0.97185 ; skirt
G1 X110.540 Y68.852 E0.97904 ; skirt
G1 X116.090 Y71.322 E1.06173 ; skirt
G1 X116.330 Y71.442 E1.06538 ; skirt
G1 X116.790 Y71.722 E1.07271 ; skirt
G1 X121.490 Y75.142 E1.15183 ; skirt
G1 X122.100 Y75.642 E1.16256 ; skirt
G1 X122.470 Y76.022 E1.16978 ; skirt
G1 X126.180 Y80.132 E1.24514 ; skirt
G1 X126.680 Y80.762 E1.25609 ; skirt
G1 X126.970 Y81.222 E1.26349 ; skirt
G1 X129.740 Y86.022 E1.33892 ; skirt
G1 X129.870 Y86.252 E1.34252 ; skirt
G1 X130.100 Y86.742 E1.34989 ; skirt
G1 X130.200 Y86.992 E1.35355 ; skirt
G1 X131.990 Y92.512 E1.43254 ; skirt
G1 X132.140 Y93.022 E1.43977 ; skirt
G1 X132.240 Y93.552 E1.44711 ; skirt
G1 X132.270 Y93.812 E1.45068 ; skirt
G1 X132.850 Y99.322 E1.52609 ; skirt
G1 X132.880 Y100.122 E1.53698 ; skirt
G1 X132.850 Y100.662 E1.54434 ; skirt
G1 X132.270 Y106.172 E1.61976 ; skirt
G1 X132.240 Y106.432 E1.62332 ; skirt
G1 X132.140 Y106.962 E1.63066 ; skirt
G1 X131.990 Y107.472 E1.63790 ; skirt
G1 X130.200 Y112.992 E1.71688 ; skirt
G1 X129.990 Y113.492 E1.72426 ; skirt
G1 X129.740 Y113.962 E1.73151 ; skirt
G1 X126.820 Y119.022 E1.81103 ; skirt
G1 X126.650 Y119.262 E1.81503 ; skirt
G1 X126.280 Y119.732 E1.82317 ; skirt
G1 X122.480 Y123.962 E1.90057 ; skirt
G1 X122.110 Y124.342 E1.90778 ; skirt
G1 X121.490 Y124.852 E1.91871 ; skirt
G1 X116.790 Y128.272 E1.99783 ; skirt
G1 X116.330 Y128.552 E2.00516 ; skirt
G1 X110.540 Y131.142 E2.09149 ; skirt
G1 X110.290 Y131.232 E2.09511 ; skirt
G1 X109.520 Y131.452 E2.10601 ; skirt
G1 X104.100 Y132.602 E2.18142 ; skirt
G1 X103.570 Y132.682 E2.18872 ; skirt
G1 X103.040 Y132.732 E2.19596 ; skirt
G1 X96.950 Y132.732 E2.27886 ; skirt
G1 X96.160 Y132.652 E2.28966 ; skirt
G1 X95.890 Y132.602 E2.29340 ; skirt
G1 X90.470 Y131.452 E2.36882 ; skirt
G1 X89.700 Y131.232 E2.37972 ; skirt
G1 X89.450 Y131.142 E2.38333 ; skirt
G1 X83.900 Y128.672 E2.46602 ; skirt
G1 X83.660 Y128.552 E2.46967 ; skirt
G1 X83.200 Y128.272 E2.47700 ; skirt
G1 X78.500 Y124.852 E2.55612 ; skirt
G1 X78.080 Y124.522 E2.56339 ; skirt
G1 X77.510 Y123.962 E2.57426 ; skirt
G1 X73.710 Y119.732 E2.65166 ; skirt
G1 X73.340 Y119.262 E2.65980 ; skirt
G1 X73.170 Y119.022 E2.66380 ; skirt
G1 X70.250 Y113.962 E2.74332 ; skirt
G1 X70.120 Y113.732 E2.74692 ; skirt
G1 X69.890 Y113.242 E2.75428 ; skirt
G1 X69.790 Y112.992 E2.75795 ; skirt
G1 X68.000 Y107.472 E2.83693 ; skirt
G1 X67.850 Y106.962 E2.84417 ; skirt
G1 X67.750 Y106.432 E2.85151 ; skirt
G1 X67.720 Y106.172 E2.85507 ; skirt
G1 X67.140 Y100.662 E2.93048 ; skirt
G1 X67.110 Y99.862 E2.94138 ; skirt
G1 X67.140 Y99.322 E2.94874 ; skirt
G1 X67.720 Y93.812 E3.02415 ; skirt
G1 X67.750 Y93.552 E3.02772 ; skirt
G1 X67.850 Y93.022 E3.03506 ; skirt
G1 X68.000 Y92.512 E3.04229 ; skirt
G1 X69.790 Y86.992 E3.12128 ; skirt
G1 X69.890 Y86.742 E3.12494 ; skirt
G1 X70.000 Y86.492 E3.12866 ; skirt
G1 X70.250 Y86.022 E3.13591 ; skirt
G1 X73.170 Y80.962 E3.21542 ; skirt
G1 X73.340 Y80.722 E3.21943 ; skirt
G1 X73.710 Y80.252 E3.22757 ; skirt
G1 X77.661 Y75.875 E3.30783 ; skirt
G1 F420.000 E2.80783 ; retract
G92 E0 ; reset extrusion distance
G1 X106.908 Y100.983 F6000.000 ; move to first perimeter point
G1 F420.000 E0.50000 ; compensate retraction
G1 X125.357 Y100.983 F2100.000 E0.75111 ; perimeter
G1 X124.904 Y105.294 E0.81011 ; perimeter
G1 X123.259 Y110.356 E0.88255 ; perimeter
G1 X123.196 Y110.465 E0.88426 ; perimeter
G1 X120.598 Y114.965 E0.95500 ; perimeter
G1 X117.036 Y118.921 E1.02745 ; perimeter
G1 X113.530 Y121.469 E1.08645 ; perimeter
G1 X104.305 Y105.491 E1.33755 ; perimeter
G1 X104.976 Y104.976 E1.34907 ; perimeter
G1 X106.095 Y103.519 E1.37408 ; perimeter
G1 X106.798 Y101.822 E1.39908 ; perimeter
G1 X106.901 Y101.040 E1.40981 ; perimeter
G1 X107.246 Y101.368 F6000.000 ; move to first perimeter point
G1 X124.930 Y101.368 F1050.000 E1.65051 ; perimeter
G1 X124.526 Y105.213 E1.70314 ; perimeter
G1 X122.906 Y110.198 E1.77448 ; perimeter
G1 X122.863 Y110.272 E1.77565 ; perimeter
G1 X120.285 Y114.738 E1.84583 ; perimeter
G1 X116.777 Y118.633 E1.91718 ; perimeter
G1 X113.649 Y120.906 E1.96981 ; perimeter
G1 X104.807 Y105.591 E2.21050 ; perimeter
G1 X105.251 Y105.251 E2.21812 ; perimeter
G1 X106.431 Y103.713 E2.24450 ; perimeter
G1 X107.173 Y101.922 E2.27089 ; perimeter
G1 X107.238 Y101.425 E2.27771 ; perimeter
G1 X107.263 Y100.983 F6000.000 ; move inwards before travel
G1 F420.000 E1.77771 ; retract
G92 E0 ; reset extrusion distance
G1 X95.695 Y94.509 F6000.000 ; move to first perimeter point
G1 F420.000 E0.50000 ; compensate retraction
G1 X95.024 Y95.024 F2100.000 E0.51152 ; perimeter
G1 X93.905 Y96.481 E0.53652 ; perimeter
G1 X93.202 Y98.178 E0.56153 ; perimeter
G1 X93.092 Y99.017 E0.57304 ; perimeter
G1 X74.643 Y99.017 E0.82415 ; perimeter
G1 X75.096 Y94.706 E0.88315 ; perimeter
G1 X76.741 Y89.644 E0.95560 ; perimeter
G1 X79.402 Y85.035 E1.02804 ; perimeter
G1 X82.964 Y81.079 E1.10049 ; perimeter
G1 X86.470 Y78.531 E1.15949 ; perimeter
G1 X95.666 Y94.459 E1.40981 ; perimeter
G1 X95.193 Y94.409 F6000.000 ; move to first perimeter point
G1 X94.749 Y94.749 F1050.000 E1.41742 ; perimeter
G1 X93.569 Y96.287 E1.44381 ; perimeter
G1 X92.827 Y98.078 E1.47019 ; perimeter
G1 X92.754 Y98.632 E1.47781 ; perimeter
G1 X75.070 Y98.632 E1.71850 ; perimeter
G1 X75.474 Y94.787 E1.77113 ; perimeter
G1 X77.094 Y89.802 E1.84248 ; perimeter
G1 X79.715 Y85.262 E1.91383 ; perimeter
G1 X83.223 Y81.367 E1.98517 ; perimeter
G1 X86.351 Y79.094 E2.03780 ; perimeter
G1 X95.164 Y94.359 E2.27771 ; perimeter
G1 X95.413 Y94.724 F6000.000 ; move inwards before travel
G1 F420.000 E1.77771 ; retract
G92 E0 ; reset extrusion distance
G1 X97.397 Y93.526 F6000.000 ; move to first perimeter point
G1 F420.000 E0.50000 ; compensate retraction
G1 X88.173 Y77.549 F2100.000 E0.75111 ; perimeter
G1 X92.132 Y75.786 E0.81011 ; perimeter
G1 X97.339 Y74.679 E0.88255 ; perimeter
G1 X102.661 Y74.679 E0.95500 ; perimeter
G1 X107.868 Y75.786 E1.02745 ; perimeter
G1 X111.827 Y77.549 E1.08645 ; perimeter
G1 X102.603 Y93.526 E1.33755 ; perimeter
G1 X101.822 Y93.202 E1.34907 ; perimeter
G1 X100.000 Y92.962 E1.37408 ; perimeter
G1 X98.178 Y93.202 E1.39908 ; perimeter
G1 X97.450 Y93.504 E1.40981 ; perimeter
G1 X97.561 Y93.041 F6000.000 ; move to first perimeter point
G1 X88.720 Y77.726 F1050.000 E1.65051 ; perimeter
G1 X92.252 Y76.154 E1.70314 ; perimeter
G1 X97.379 Y75.064 E1.77449 ; perimeter
G1 X102.621 Y75.064 E1.84583 ; perimeter
G1 X107.748 Y76.154 E1.91718 ; perimeter
G1 X111.280 Y77.726 E1.96981 ; perimeter
G1 X102.439 Y93.041 E2.21050 ; perimeter
G1 X101.922 Y92.827 E2.21812 ; perimeter
G1 X100.000 Y92.574 E2.24450 ; perimeter
G1 X98.078 Y92.827 E2.27089 ; perimeter
G1 X97.615 Y93.019 E2.27771 ; perimeter
G1 X97.220 Y93.219 F6000.000 ; move inwards before travel
G1 F420.000 E1.77771 ; retract
G92 E0 ; reset extrusion distance
G1 X104.305 Y94.509 F6000.000 ; move to first perimeter point
G1 F420.000 E0.50000 ; compensate retraction
G1 X113.530 Y78.531 F2100.000 E0.75111 ; perimeter
G1 X117.036 Y81.079 E0.81011 ; perimeter
G1 X120.598 Y85.035 E0.88255 ; perimeter
G1 X123.259 Y89.644 E0.95500 ; perimeter
G1 X124.904 Y94.706 E1.02745 ; perimeter
G1 X125.357 Y99.017 E1.08645 ; perimeter
G1 X106.908 Y99.017 E1.33755 ; perimeter
G1 X106.798 Y98.178 E1.34907 ; perimeter
G1 X106.095 Y96.481 E1.37408 ; perimeter
G1 X104.976 Y95.024 E1.39908 ; perimeter
G1 X104.351 Y94.544 E1.40981 ; perimeter
G1 X104.807 Y94.409 F6000.000 ; move to first perimeter point
G1 X113.649 Y79.094 F1050.000 E1.65051 ; perimeter
G1 X116.777 Y81.367 E1.70314 ; perimeter
G1 X120.285 Y85.262 E1.77449 ; perimeter
G1 X122.906 Y89.802 E1.84583 ; perimeter
G1 X124.526 Y94.787 E1.91718 ; perimeter
G1 X124.930 Y98.632 E1.96981 ; perimeter
G1 X107.246 Y98.632 E2.21050 ; perimeter
G1 X107.173 Y98.078 E2.21812 ; perimeter
G1 X106.431 Y96.287 E2.24450 ; perimeter
G1 X105.251 Y94.749 E2.27089 ; perimeter
G1 X104.853 Y94.444 E2.27771 ; perimeter
G1 X104.483 Y94.202 F6000.000 ; move inwards before travel
G1 X103.567 Y95.871 ; move to first perimeter point
G1 X103.658 Y95.937 F1500.000 E2.27924 ; perimeter
G1 X104.423 Y96.786 E2.29481 ; perimeter
G1 X104.995 Y97.777 E2.31037 ; perimeter
G1 X105.348 Y98.863 E2.32592 ; perimeter
G1 X105.467 Y100.000 E2.34147 ; perimeter
G1 X105.348 Y101.136 E2.35703 ; perimeter
G1 X104.995 Y102.224 E2.37259 ; perimeter
G1 X104.423 Y103.213 E2.38815 ; perimeter
G1 X103.658 Y104.063 E2.40371 ; perimeter
G1 X102.734 Y104.735 E2.41926 ; perimeter
G1 X101.689 Y105.200 E2.43482 ; perimeter
G1 X100.572 Y105.437 E2.45038 ; perimeter
G1 X99.428 Y105.437 E2.46594 ; perimeter
G1 X98.310 Y105.200 E2.48150 ; perimeter
G1 X97.266 Y104.735 E2.49705 ; perimeter
G1 X96.342 Y104.063 E2.51261 ; perimeter
G1 X95.577 Y103.214 E2.52817 ; perimeter
G1 X95.005 Y102.224 E2.54372 ; perimeter
G1 X94.652 Y101.137 E2.55928 ; perimeter
G1 X94.640 Y101.025 E2.56082 ; perimeter
G1 X94.533 Y100.000 E2.57484 ; perimeter
G1 X94.652 Y98.863 E2.59040 ; perimeter
G1 X95.005 Y97.776 E2.60596 ; perimeter
G1 X95.577 Y96.787 E2.62151 ; perimeter
G1 X96.342 Y95.937 E2.63707 ; perimeter
G1 X97.266 Y95.265 E2.65262 ; perimeter
G1 X98.310 Y94.800 E2.66818 ; perimeter
G1 X99.429 Y94.563 E2.68375 ; perimeter
G1 X100.571 Y94.563 E2.69930 ; perimeter
G1 X101.690 Y94.800 E2.71486 ; perimeter
G1 X102.734 Y95.265 E2.73042 ; perimeter
G1 X103.520 Y95.837 E2.74365 ; perimeter
G1 X103.341 Y96.182 F6000.000 ; move to first perimeter point
G1 X103.399 Y96.224 F1500.000 E2.74463 ; perimeter
G1 X104.110 Y97.014 E2.75909 ; perimeter
G1 X104.641 Y97.934 E2.77355 ; perimeter
G1 X104.969 Y98.944 E2.78800 ; perimeter
G1 X105.080 Y100.000 E2.80246 ; perimeter
G1 X104.969 Y101.056 E2.81691 ; perimeter
G1 X104.641 Y102.066 E2.83138 ; perimeter
G1 X104.110 Y102.986 E2.84583 ; perimeter
G1 X103.399 Y103.776 E2.86029 ; perimeter
G1 X102.540 Y104.400 E2.87474 ; perimeter
G1 X101.570 Y104.832 E2.88920 ; perimeter
G1 X100.531 Y105.053 E2.90365 ; perimeter
G1 X99.469 Y105.053 E2.91811 ; perimeter
G1 X98.430 Y104.832 E2.93257 ; perimeter
G1 X97.460 Y104.400 E2.94703 ; perimeter
G1 X96.601 Y103.776 E2.96148 ; perimeter
G1 X95.890 Y102.986 E2.97594 ; perimeter
G1 X95.359 Y102.066 E2.99039 ; perimeter
G1 X95.031 Y101.056 E3.00485 ; perimeter
G1 X95.023 Y100.984 E3.00584 ; perimeter
G1 X94.920 Y100.000 E3.01930 ; perimeter
G1 X95.031 Y98.944 E3.03376 ; perimeter
G1 X95.359 Y97.934 E3.04822 ; perimeter
G1 X95.890 Y97.014 E3.06267 ; perimeter
G1 X96.601 Y96.224 E3.07713 ; perimeter
G1 X97.460 Y95.600 E3.09159 ; perimeter
G1 X98.430 Y95.168 E3.10604 ; perimeter
G1 X99.469 Y94.947 E3.12050 ; perimeter
G1 X100.531 Y94.947 E3.13496 ; perimeter
G1 X101.570 Y95.168 E3.14942 ; perimeter
G1 X102.540 Y95.600 E3.16387 ; perimeter
G1 X103.294 Y96.148 E3.17656 ; perimeter
G1 X103.115 Y96.493 F6000.000 ; move to first perimeter point
G1 X103.797 Y97.241 F1500.000 E3.19034 ; perimeter
G1 X104.288 Y98.091 E3.20369 ; perimeter
G1 X104.591 Y99.024 E3.21705 ; perimeter
G1 X104.693 Y100.000 E3.23040 ; perimeter
G1 X104.591 Y100.976 E3.24376 ; perimeter
G1 X104.288 Y101.909 E3.25711 ; perimeter
G1 X103.797 Y102.759 E3.27047 ; perimeter
G1 X103.141 Y103.488 E3.28382 ; perimeter
G1 X102.347 Y104.065 E3.29718 ; perimeter
G1 X101.450 Y104.464 E3.31054 ; perimeter
G1 X100.491 Y104.668 E3.32389 ; perimeter
G1 X99.509 Y104.668 E3.33725 ; perimeter
G1 X98.550 Y104.464 E3.35060 ; perimeter
G1 X97.653 Y104.065 E3.36396 ; perimeter
G1 X96.860 Y103.488 E3.37731 ; perimeter
G1 X96.203 Y102.759 E3.39067 ; perimeter
G1 X95.712 Y101.909 E3.40402 ; perimeter
G1 X95.406 Y100.944 E3.41780 ; perimeter
G1 X95.307 Y100.000 E3.43072 ; perimeter
G1 X95.409 Y99.024 E3.44408 ; perimeter
G1 X95.712 Y98.091 E3.45743 ; perimeter
G1 X96.203 Y97.241 E3.47079 ; perimeter
G1 X96.859 Y96.512 E3.48414 ; perimeter
G1 X97.653 Y95.935 E3.49750 ; perimeter
G1 X98.550 Y95.536 E3.51085 ; perimeter
G1 X99.509 Y95.332 E3.52421 ; perimeter
G1 X100.491 Y95.332 E3.53757 ; perimeter
G1 X101.450 Y95.536 E3.55092 ; perimeter
G1 X102.347 Y95.935 E3.56428 ; perimeter
G1 X103.068 Y96.459 E3.57641 ; perimeter
G1 X103.484 Y96.386 F6000.000 ; move inwards before travel
G1 F420.000 E3.07641 ; retract
G92 E0 ; reset extrusion distance
G1 X93.092 Y100.983 F6000.000 ; move to first perimeter point
G1 F420.000 E0.50000 ; compensate retraction
G1 X93.202 Y101.821 F2100.000 E0.51152 ; perimeter
G1 X93.905 Y103.519 E0.53652 ; perimeter
G1 X95.024 Y104.976 E0.56153 ; perimeter
G1 X95.695 Y105.491 E0.57304 ; perimeter
G1 X86.470 Y121.469 E0.82415 ; perimeter
G1 X82.964 Y118.921 E0.88315 ; perimeter
G1 X79.402 Y114.965 E0.95560 ; perimeter
G1 X76.741 Y110.356 E1.02804 ; perimeter
G1 X75.096 Y105.294 E1.10049 ; perimeter
G1 X74.643 Y100.983 E1.15949 ; perimeter
G1 X93.034 Y100.983 E1.40981 ; perimeter
G1 X92.754 Y101.368 F6000.000 ; move to first perimeter point
G1 X92.827 Y101.922 F1050.000 E1.41742 ; perimeter
G1 X93.569 Y103.713 E1.44381 ; perimeter
G1 X94.749 Y105.251 E1.47019 ; perimeter
G1 X95.193 Y105.591 E1.47781 ; perimeter
G1 X86.351 Y120.906 E1.71850 ; perimeter
G1 X83.223 Y118.633 E1.77113 ; perimeter
G1 X79.715 Y114.738 E1.84248 ; perimeter
G1 X77.094 Y110.198 E1.91383 ; perimeter
G1 X75.474 Y105.213 E1.98517 ; perimeter
G1 X75.070 Y101.368 E2.03780 ; perimeter
G1 X92.696 Y101.368 E2.27771 ; perimeter
G1 X93.138 Y101.334 F6000.000 ; move inwards before travel
G1 F420.000 E1.77771 ; retract
G92 E0 ; reset extrusion distance
G1 X97.397 Y106.474 F6000.000 ; move to first perimeter point
G1 F420.000 E0.50000 ; compensate retraction
G1 X98.178 Y106.798 F2100.000 E0.51152 ; perimeter
G1 X100.000 Y107.038 E0.53652 ; perimeter
G1 X101.821 Y106.798 E0.56153 ; perimeter
G1 X102.603 Y106.474 E0.57304 ; perimeter
G1 X111.827 Y122.451 E0.82415 ; perimeter
G1 X107.868 Y124.214 E0.88315 ; perimeter
G1 X102.661 Y125.321 E0.95560 ; perimeter
G1 X97.339 Y125.321 E1.02804 ; perimeter
G1 X92.132 Y124.214 E1.10049 ; perimeter
G1 X88.173 Y122.451 E1.15949 ; perimeter
G1 X97.368 Y106.524 E1.40981 ; perimeter
G1 X97.561 Y106.959 F6000.000 ; move to first perimeter point
G1 X98.078 Y107.173 F1050.000 E1.41742 ; perimeter
G1 X100.000 Y107.426 E1.44381 ; perimeter
G1 X101.922 Y107.173 E1.47019 ; perimeter
G1 X102.439 Y106.959 E1.47781 ; perimeter
G1 X111.280 Y122.274 E1.71850 ; perimeter
G1 X107.748 Y123.846 E1.77113 ; perimeter
G1 X102.621 Y124.936 E1.84248 ; perimeter
G1 X97.379 Y124.936 E1.91383 ; perimeter
G1 X92.252 Y123.846 E1.98517 ; perimeter
G1 X88.720 Y122.274 E2.03780 ; perimeter
G1 X97.533 Y107.009 E2.27771 ; perimeter
G1 X97.724 Y106.610 F6000.000 ; move inwards before travel
G1 F420.000 E1.77771 ; retract
G92 E0 ; reset extrusion distance
G1 X74.462 Y100.000 F6000.000 ; move to first perimeter point
