; generated by Slic3r 1.1.7 on 2015-07-12 at 20:38:43

; perimeters extrusion width = 0.35mm
; infill extrusion width = 0.39mm
; solid infill extrusion width = 0.39mm
; top infill extrusion width = 0.39mm

G21 ; set units to millimeters
M107 ; disable fan
G28 ; home all axes
G90 ; use absolute coordinates
G92 E0 ; reset extrusion distance
M82 ; use absolute distances for extrusion
G1 F420.000 E-0.50000 ; retract
G92 E0 ; reset extrusion distance
G1 Z0.250 F6000.000 ; move to next layer (0)
G1 X78.215 Y76.797 F6000.000 ; move to first skirt point
G1 E0.50000 F420.000 ; compensate retraction
G1 X79.201 Y75.909 E0.51643 F1800.000 ; skirt
G1 X83.515 Y72.775 E0.58244 ; skirt
G1 X84.665 Y72.111 E0.59887 ; skirt
G1 X89.536 Y69.942 E0.66487 ; skirt
G1 X90.798 Y69.532 E0.68130 ; skirt
G1 X96.014 Y68.424 E0.74731 ; skirt
G1 X97.334 Y68.285 E0.76374 ; skirt
G1 X102.666 Y68.285 E0.82974 ; skirt
G1 X103.986 Y68.424 E0.84618 ; skirt
G1 X109.202 Y69.532 E0.91218 F1800.000 ; skirt
G1 X110.464 Y69.942 E0.92861 ; skirt
G1 X115.335 Y72.111 E0.99462 ; skirt
G1 X116.485 Y72.775 E1.01105 ; skirt
G1 X120.799 Y75.909 E1.07705 ; skirt
G1 X121.785 Y76.797 E1.09349 ; skirt
G1 X125.353 Y80.759 E1.15949 ; skirt
G1 X126.133 Y81.834 E1.17592 ; skirt
G1 X128.799 Y86.451 E1.24193 ; skirt
G1 X129.339 Y87.664 E1.25836 ; skirt
G1 X130.987 Y92.735 E1.32436 ; skirt
G1 X131.263 Y94.033 E1.34079 ; skirt
G1 X131.820 Y99.336 E1.40680 ; skirt
G1 X131.820 Y100.664 E1.42323 ; skirt
G1 X131.263 Y105.967 E1.48923 ; skirt
G1 X130.987 Y107.265 E1.50567 ; skirt
G1 X129.339 Y112.336 E1.57167 ; skirt
G1 X128.799 Y113.549 E1.58810 ; skirt
G1 X126.133 Y118.166 E1.65411 ; skirt
G1 X125.353 Y119.241 E1.67054 ; skirt
G1 X121.785 Y123.203 E1.73654 ; skirt
G1 X120.799 Y124.091 E1.75298 ; skirt
G1 X116.485 Y127.225 E1.81898 ; skirt
G1 X115.335 Y127.889 E1.83541 ; skirt
G1 X110.464 Y130.058 E1.90142 ; skirt
G1 X109.202 Y130.468 E1.91785 ; skirt
G1 X108.972 Y130.517 E1.92076 ; skirt
G1 X103.986 Y131.576 E1.98385 ; skirt
G1 X102.666 Y131.715 E2.00028 ; skirt
G1 X97.334 Y131.715 E2.06629 ; skirt
G1 X96.014 Y131.576 E2.08272 ; skirt
G1 X90.798 Y130.468 E2.14872 ; skirt
G1 X89.536 Y130.058 E2.16516 ; skirt
G1 X84.665 Y127.889 E2.23116 ; skirt
G1 X83.515 Y127.225 E2.24759 ; skirt
G1 X79.201 Y124.091 E2.31360 ; skirt
G1 X78.215 Y123.203 E2.33003 ; skirt
G1 X74.647 Y119.241 E2.39603 ; skirt
G1 X73.867 Y118.166 E2.41246 ; skirt
G1 X71.201 Y113.549 E2.47847 ; skirt
G1 X70.661 Y112.336 E2.49490 ; skirt
G1 X69.013 Y107.265 E2.56090 ; skirt
G1 X68.737 Y105.967 E2.57734 ; skirt
G1 X68.180 Y100.664 E2.64334 ; skirt
G1 X68.180 Y99.336 E2.65977 ; skirt
G1 X68.737 Y94.033 E2.72578 ; skirt
G1 X69.013 Y92.735 E2.74221 ; skirt
G1 X70.661 Y87.664 E2.80821 ; skirt
G1 X71.201 Y86.451 E2.82465 ; skirt
G1 X73.867 Y81.834 E2.89065 ; skirt
G1 X74.647 Y80.759 E2.90708 ; skirt
G1 X78.180 Y76.836 E2.97244 ; skirt
G1 F420.000 E2.47244 ; retract
G92 E0 ; reset extrusion distance
G1 X93.046 Y98.965 F6000.000 ; move to first perimeter point
G1 E0.50000 F420.000 ; compensate retraction
G1 X75.701 Y98.965 E0.71471 F2100.000 ; perimeter
G1 X76.125 Y94.925 E0.76499 ; perimeter
G1 X77.702 Y90.072 E0.82815 ; perimeter
G1 X80.254 Y85.653 E0.89132 ; perimeter
G1 X83.668 Y81.861 E0.95448 ; perimeter
G1 X86.954 Y79.474 E1.00476 ; perimeter
G1 X95.627 Y94.495 E1.21947 ; perimeter
G1 X94.986 Y94.986 E1.22946 ; perimeter
G1 X93.859 Y96.455 E1.25237 ; perimeter
G1 X93.151 Y98.165 E1.27529 ; perimeter
G1 X93.053 Y98.913 E1.28463 ; perimeter
G1 X92.739 Y98.615 F6000.000 ; move to first perimeter point
G1 X76.090 Y98.615 E1.49072 F1050.000 ; perimeter
G1 X76.470 Y94.998 E1.53574 ; perimeter
G1 X78.024 Y90.216 E1.59799 ; perimeter
G1 X80.538 Y85.860 E1.66024 ; perimeter
G1 X83.903 Y82.123 E1.72250 ; perimeter
G1 X86.845 Y79.985 E1.76751 ; perimeter
G1 X95.170 Y94.404 E1.97361 ; perimeter
G1 X94.737 Y94.737 E1.98037 ; perimeter
G1 X93.554 Y96.278 E2.00442 ; perimeter
G1 X92.810 Y98.073 E2.02848 ; perimeter
G1 X92.746 Y98.563 E2.03459 ; perimeter
G1 X92.724 Y98.965 F6000.000 ; move inwards before travel
G1 F420.000 E1.53459 ; retract
G92 E0 ; reset extrusion distance
G1 X104.373 Y105.505 F6000.000 ; move to first perimeter point
G1 E0.50000 F420.000 ; compensate retraction
G1 X105.014 Y105.014 E0.50999 F2100.000 ; perimeter
G1 X106.141 Y103.545 E0.53290 ; perimeter
G1 X106.849 Y101.835 E0.55582 ; perimeter
G1 X106.954 Y101.035 E0.56581 ; perimeter
G1 X124.299 Y101.035 E0.78051 ; perimeter
G1 X123.875 Y105.075 E0.83079 ; perimeter
G1 X122.298 Y109.928 E0.89396 ; perimeter
G1 X122.231 Y110.043 E0.89561 ; perimeter
G1 X119.746 Y114.347 E0.95712 ; perimeter
G1 X116.332 Y118.139 E1.02029 ; perimeter
G1 X113.046 Y120.526 E1.07057 ; perimeter
G1 X104.400 Y105.550 E1.28463 ; perimeter
G1 X104.830 Y105.596 F6000.000 ; move to first perimeter point
G1 X105.263 Y105.263 E1.29139 F1050.000 ; perimeter
G1 X106.446 Y103.722 E1.31544 ; perimeter
G1 X107.190 Y101.927 E1.33949 ; perimeter
G1 X107.261 Y101.385 E1.34626 ; perimeter
G1 X123.910 Y101.385 E1.55235 ; perimeter
G1 X123.530 Y105.002 E1.59737 ; perimeter
G1 X121.976 Y109.784 E1.65962 ; perimeter
G1 X121.928 Y109.868 E1.66081 ; perimeter
G1 X119.462 Y114.140 E1.72187 ; perimeter
G1 X116.097 Y117.877 E1.78413 ; perimeter
G1 X113.155 Y120.015 E1.82914 ; perimeter
G1 X104.856 Y105.641 E2.03459 ; perimeter
G1 X104.629 Y105.309 F6000.000 ; move inwards before travel
G1 F420.000 E1.53459 ; retract
G92 E0 ; reset extrusion distance
G1 X106.954 Y98.965 F6000.000 ; move to first perimeter point
G1 E0.50000 F420.000 ; compensate retraction
G1 X106.849 Y98.165 E0.50999 F2100.000 ; perimeter
G1 X106.141 Y96.455 E0.53290 ; perimeter
G1 X105.014 Y94.986 E0.55582 ; perimeter
G1 X104.373 Y94.495 E0.56581 ; perimeter
G1 X113.046 Y79.474 E0.78051 ; perimeter
G1 X116.332 Y81.861 E0.83080 ; perimeter
G1 X119.746 Y85.653 E0.89396 ; perimeter
G1 X122.298 Y90.072 E0.95712 ; perimeter
G1 X123.875 Y94.925 E1.02029 ; perimeter
G1 X124.299 Y98.965 E1.07057 ; perimeter
G1 X107.007 Y98.965 E1.28463 ; perimeter
G1 X107.261 Y98.615 F6000.000 ; move to first perimeter point
G1 X107.190 Y98.073 E1.29139 F1050.000 ; perimeter
G1 X106.446 Y96.278 E1.31544 ; perimeter
G1 X105.263 Y94.737 E1.33949 ; perimeter
G1 X104.830 Y94.404 E1.34626 ; perimeter
G1 X113.155 Y79.985 E1.55235 ; perimeter
G1 X116.097 Y82.123 E1.59737 ; perimeter
G1 X119.462 Y85.860 E1.65962 ; perimeter
G1 X121.976 Y90.216 E1.72187 ; perimeter
G1 X123.530 Y94.998 E1.78413 ; perimeter
G1 X123.910 Y98.615 E1.82914 ; perimeter
G1 X107.314 Y98.615 E2.03459 ; perimeter
G1 X106.912 Y98.646 F6000.000 ; move inwards before travel
G1 F420.000 E1.53459 ; retract
G92 E0 ; reset extrusion distance
G1 X102.581 Y93.460 F6000.000 ; move to first perimeter point
G1 E0.50000 F420.000 ; compensate retraction
G1 X101.835 Y93.151 E0.50999 F2100.000 ; perimeter
G1 X100.000 Y92.910 E0.53290 ; perimeter
G1 X98.165 Y93.151 E0.55582 ; perimeter
G1 X97.419 Y93.460 E0.56581 ; perimeter
G1 X88.747 Y78.439 E0.78051 ; perimeter
G1 X92.458 Y76.787 E0.83080 ; perimeter
G1 X97.449 Y75.726 E0.89396 ; perimeter
G1 X102.551 Y75.726 E0.95712 ; perimeter
G1 X107.542 Y76.787 E1.02029 ; perimeter
G1 X111.253 Y78.439 E1.07057 ; perimeter
G1 X102.607 Y93.415 E1.28463 ; perimeter
G1 X102.431 Y93.019 F6000.000 ; move to first perimeter point
G1 X101.927 Y92.810 E1.29139 F1050.000 ; perimeter
G1 X100.000 Y92.557 E1.31544 ; perimeter
G1 X98.073 Y92.810 E1.33949 ; perimeter
G1 X97.569 Y93.019 E1.34626 ; perimeter
G1 X89.244 Y78.600 E1.55235 ; perimeter
G1 X92.566 Y77.121 E1.59737 ; perimeter
G1 X97.485 Y76.076 E1.65962 ; perimeter
G1 X102.515 Y76.076 E1.72187 ; perimeter
G1 X107.434 Y77.121 E1.78413 ; perimeter
G1 X110.756 Y78.600 E1.82914 ; perimeter
G1 X102.457 Y92.974 E2.03459 ; perimeter
G1 X102.283 Y93.336 F6000.000 ; move inwards before travel
G1 X101.662 Y94.884 F6000.000 ; move to first perimeter point
G1 X102.690 Y95.341 E2.04851 F2100.000 ; perimeter
G1 X103.600 Y96.002 E2.06243 ; perimeter
G1 X104.352 Y96.838 E2.07635 ; perimeter
G1 X104.406 Y96.930 E2.07767 ; perimeter
G1 X104.915 Y97.812 E2.09028 ; perimeter
G1 X105.262 Y98.881 E2.10420 ; perimeter
G1 X105.380 Y100.000 E2.11812 ; perimeter
G1 X105.262 Y101.119 E2.13204 ; perimeter
G1 X104.915 Y102.188 E2.14596 ; perimeter
G1 X104.352 Y103.162 E2.15989 ; perimeter
G1 X103.600 Y103.998 E2.17381 ; perimeter
G1 X102.776 Y104.596 E2.18641 ; perimeter
G1 X102.690 Y104.659 E2.18773 ; perimeter
G1 X101.662 Y105.117 E2.20165 ; perimeter
G1 X100.562 Y105.350 E2.21558 ; perimeter
G1 X99.438 Y105.350 E2.22950 ; perimeter
G1 X98.337 Y105.116 E2.24342 ; perimeter
G1 X97.310 Y104.659 E2.25734 ; perimeter
G1 X96.400 Y103.998 E2.27126 ; perimeter
G1 X95.648 Y103.162 E2.28519 ; perimeter
G1 X95.085 Y102.188 E2.29911 ; perimeter
G1 X94.738 Y101.119 E2.31303 ; perimeter
G1 X94.620 Y100.000 E2.32695 ; perimeter
G1 X94.738 Y98.881 E2.34088 ; perimeter
G1 X95.085 Y97.812 E2.35480 ; perimeter
G1 X95.648 Y96.838 E2.36872 ; perimeter
G1 X96.400 Y96.002 E2.38264 ; perimeter
G1 X97.310 Y95.341 E2.39656 ; perimeter
G1 X98.337 Y94.884 E2.41049 ; perimeter
G1 X99.438 Y94.650 E2.42441 ; perimeter
G1 X100.562 Y94.650 E2.43833 ; perimeter
G1 X101.558 Y94.861 E2.45093 ; perimeter
G1 X101.611 Y94.873 E2.45160 F2100.000 ; perimeter
G1 X101.554 Y95.218 F6000.000 ; move to first perimeter point
G1 X102.514 Y95.646 E2.46461 F2100.000 ; perimeter
G1 X103.364 Y96.264 E2.47763 ; perimeter
G1 X104.068 Y97.045 E2.49064 ; perimeter
G1 X104.103 Y97.105 E2.49150 ; perimeter
G1 X104.593 Y97.955 E2.50365 ; perimeter
G1 X104.918 Y98.955 E2.51666 ; perimeter
G1 X105.028 Y100.000 E2.52967 ; perimeter
G1 X104.918 Y101.045 E2.54268 ; perimeter
G1 X104.593 Y102.045 E2.55569 ; perimeter
G1 X104.068 Y102.955 E2.56871 ; perimeter
G1 X103.364 Y103.736 E2.58172 ; perimeter
G1 X102.570 Y104.313 E2.59386 ; perimeter
G1 X102.514 Y104.354 E2.59473 ; perimeter
G1 X101.554 Y104.782 E2.60774 ; perimeter
G1 X100.526 Y105.000 E2.62075 ; perimeter
G1 X99.474 Y105.000 E2.63376 ; perimeter
G1 X98.446 Y104.782 E2.64678 ; perimeter
G1 X97.486 Y104.354 E2.65979 ; perimeter
G1 X96.636 Y103.736 E2.67280 ; perimeter
G1 X95.932 Y102.955 E2.68581 ; perimeter
G1 X95.407 Y102.045 E2.69882 ; perimeter
G1 X95.082 Y101.045 E2.71183 ; perimeter
G1 X94.972 Y100.000 E2.72484 ; perimeter
G1 X95.082 Y98.955 E2.73785 ; perimeter
G1 X95.407 Y97.955 E2.75087 ; perimeter
G1 X95.932 Y97.045 E2.76388 ; perimeter
G1 X96.636 Y96.264 E2.77689 ; perimeter
G1 X97.486 Y95.646 E2.78990 ; perimeter
G1 X98.446 Y95.218 E2.80291 ; perimeter
G1 X99.474 Y95.000 E2.81592 ; perimeter
G1 X100.526 Y95.000 E2.82893 F2100.000 ; perimeter
G1 X101.502 Y95.207 E2.84130 ; perimeter
G1 X101.445 Y95.553 F6000.000 ; move to first perimeter point
G1 X102.338 Y95.950 E2.85340 F1050.000 ; perimeter
G1 X103.129 Y96.525 E2.86550 ; perimeter
G1 X103.799 Y97.280 E2.87800 ; perimeter
G1 X104.272 Y98.098 E2.88969 ; perimeter
G1 X104.574 Y99.028 E2.90179 ; perimeter
G1 X104.676 Y100.000 E2.91389 ; perimeter
G1 X104.574 Y100.972 E2.92599 ; perimeter
G1 X104.272 Y101.902 E2.93809 ; perimeter
G1 X103.783 Y102.748 E2.95019 ; perimeter
G1 X103.129 Y103.475 E2.96229 ; perimeter
G1 X102.338 Y104.050 E2.97440 ; perimeter
G1 X101.445 Y104.447 E2.98650 ; perimeter
G1 X100.521 Y104.643 E2.99819 ; perimeter
G1 X99.511 Y104.650 E3.01069 ; perimeter
G1 X98.555 Y104.447 E3.02279 ; perimeter
G1 X97.662 Y104.050 E3.03489 ; perimeter
G1 X96.871 Y103.475 E3.04699 ; perimeter
G1 X96.217 Y102.748 E3.05909 ; perimeter
G1 X95.728 Y101.902 E3.07119 ; perimeter
G1 X95.426 Y100.972 E3.08329 ; perimeter
G1 X95.324 Y100.000 E3.09539 ; perimeter
G1 X95.426 Y99.028 E3.10749 ; perimeter
G1 X95.728 Y98.098 E3.11960 ; perimeter
G1 X96.217 Y97.252 E3.13170 ; perimeter
G1 X96.871 Y96.525 E3.14380 ; perimeter
G1 X97.662 Y95.951 E3.15590 ; perimeter
G1 X98.555 Y95.553 E3.16800 ; perimeter
G1 X99.511 Y95.350 E3.18010 ; perimeter
G1 X100.489 Y95.350 E3.19220 ; perimeter
G1 X101.394 Y95.542 E3.20365 ; perimeter
G1 X101.713 Y95.328 F6000.000 ; move inwards before travel
G1 F420.000 E2.70365 ; retract
G92 E0 ; reset extrusion distance
G1 X93.046 Y101.035 F6000.000 ; move to first perimeter point
G1 E0.50000 F420.000 ; compensate retraction
G1 X93.151 Y101.835 E0.50999 F2100.000 ; perimeter
G1 X93.859 Y103.545 E0.53290 ; perimeter
G1 X94.986 Y105.014 E0.55582 ; perimeter
G1 X95.627 Y105.505 E0.56581 ; perimeter
G1 X86.954 Y120.526 E0.78051 ; perimeter
G1 X83.668 Y118.139 E0.83079 ; perimeter
G1 X80.254 Y114.347 E0.89396 ; perimeter
G1 X77.702 Y109.928 E0.95712 ; perimeter
G1 X76.125 Y105.075 E1.02029 ; perimeter
G1 X75.701 Y101.035 E1.07057 ; perimeter
G1 X92.993 Y101.035 E1.28463 ; perimeter
G1 X92.739 Y101.385 F6000.000 ; move to first perimeter point
G1 X92.810 Y101.927 E1.29139 F1050.000 ; perimeter
G1 X93.554 Y103.722 E1.31544 ; perimeter
G1 X94.737 Y105.263 E1.33949 ; perimeter
G1 X95.170 Y105.596 E1.34626 ; perimeter
G1 X86.845 Y120.015 E1.55235 ; perimeter
G1 X83.903 Y117.877 E1.59737 ; perimeter
G1 X80.538 Y114.140 E1.65962 ; perimeter
G1 X78.024 Y109.784 E1.72187 ; perimeter
G1 X76.470 Y105.002 E1.78413 ; perimeter
G1 X76.090 Y101.385 E1.82914 ; perimeter
G1 X92.686 Y101.385 E2.03459 ; perimeter
G1 X93.088 Y101.354 F6000.000 ; move inwards before travel
G1 F420.000 E1.53459 ; retract
G92 E0 ; reset extrusion distance
G1 X97.419 Y106.540 F6000.000 ; move to first perimeter point
G1 E0.50000 F420.000 ; compensate retraction
G1 X98.165 Y106.849 E0.50999 F2100.000 ; perimeter
G1 X100.000 Y107.090 E0.53290 ; perimeter
G1 X101.835 Y106.849 E0.55582 ; perimeter
G1 X102.581 Y106.540 E0.56581 ; perimeter
G1 X111.253 Y121.561 E0.78051 ; perimeter
G1 X107.542 Y123.213 E0.83080 ; perimeter
G1 X102.551 Y124.274 E0.89396 ; perimeter
G1 X97.449 Y124.274 E0.95712 ; perimeter
G1 X92.458 Y123.213 E1.02029 ; perimeter
G1 X88.747 Y121.561 E1.07057 ; perimeter
G1 X97.393 Y106.585 E1.28463 ; perimeter
G1 X97.569 Y106.981 F6000.000 ; move to first perimeter point
G1 X98.073 Y107.190 E1.29139 F1050.000 ; perimeter
G1 X100.000 Y107.443 E1.31544 ; perimeter
G1 X101.927 Y107.190 E1.33949 ; perimeter
G1 X102.431 Y106.981 E1.34626 ; perimeter
G1 X110.756 Y121.400 E1.55235 ; perimeter
G1 X107.434 Y122.879 E1.59737 ; perimeter
G1 X102.515 Y123.924 E1.65962 ; perimeter
G1 X97.485 Y123.924 E1.72187 ; perimeter
G1 X92.566 Y122.879 E1.78413 ; perimeter
G1 X89.244 Y121.400 E1.82914 ; perimeter
G1 X97.543 Y107.026 E2.03459 ; perimeter
G1 X97.717 Y106.664 F6000.000 ; move inwards before travel
G1 X97.270 Y106.099 F6000.000 ; move to first perimeter point
G1 X88.317 Y121.606 E2.25624 F2100.000 ; perimeter
G1 X87.687 Y121.326 E2.26477 ; perimeter
G1 X87.130 Y120.921 E2.27329 ; perimeter
G1 X96.083 Y105.414 E2.49494 ; perimeter
G1 X95.236 Y104.764 E2.50816 ; perimeter
G1 X94.165 Y103.369 E2.52994 ; perimeter
G1 X93.492 Y101.744 E2.55171 ; perimeter
G1 X93.353 Y100.685 E2.56493 ; perimeter
G1 X75.447 Y100.685 E2.78658 ; perimeter
G1 X75.375 Y100.000 E2.79511 ; perimeter
G1 X75.447 Y99.315 E2.80363 ; perimeter
G1 X93.353 Y99.315 E3.02528 ; perimeter
G1 X93.492 Y98.256 E3.03850 ; perimeter
G1 X94.165 Y96.631 E3.06028 ; perimeter
G1 X95.236 Y95.236 E3.08205 ; perimeter
G1 X96.083 Y94.586 E3.09527 ; perimeter
G1 X87.130 Y79.079 E3.31692 ; perimeter
G1 X87.687 Y78.674 E3.32545 ; perimeter
G1 X88.317 Y78.394 E3.33397 ; perimeter
G1 X97.270 Y93.901 E3.55562 ; perimeter
G1 X98.256 Y93.492 E3.56884 ; perimeter
G1 X100.000 Y93.263 E3.59062 ; perimeter
G1 X101.744 Y93.492 E3.61239 ; perimeter
G1 X102.730 Y93.901 E3.62561 ; perimeter
G1 X111.683 Y78.394 E3.84726 ; perimeter
G1 X112.313 Y78.674 E3.85579 ; perimeter
G1 X112.870 Y79.079 E3.86431 ; perimeter
G1 X103.917 Y94.586 E4.08596 ; perimeter
G1 X104.764 Y95.236 E4.09918 ; perimeter
G1 X105.835 Y96.631 E4.12096 ; perimeter
G1 X106.508 Y98.256 E4.14273 ; perimeter
G1 X106.647 Y99.315 E4.15595 ; perimeter
G1 X124.553 Y99.315 E4.37760 ; perimeter
G1 X124.625 Y100.000 E4.38613 ; perimeter
G1 X124.553 Y100.685 E4.39465 ; perimeter
G1 X106.647 Y100.685 E4.61630 ; perimeter
