; generated by Slic3r 0.9.9 on 2014-02-02 at 13:17:01

; layer_height = 0.25
; perimeters = 3
; top_solid_layers = 4
; bottom_solid_layers = 4
; fill_density = 0.15
; perimeter_speed = 70
; infill_speed = 90
; travel_speed = 100
; nozzle_diameter = 0.35
; filament_diameter = 3.0
; extrusion_multiplier = 1
; perimeters extrusion width = 0.39mm
; infill extrusion width = 0.39mm
; solid infill extrusion width = 0.39mm
; top infill extrusion width = 0.39mm

G21 ; set units to millimeters
M107 ; disable fan
G28 ; home all axes
G90 ; use absolute coordinates
G92 E0 ; reset extrusion distance
M82 ; use absolute distances for extrusion
G1 F420.000 E-0.50000 ; retract
G92 E0 ; reset extrusion distance
G1 Z0.250 F6000.000 ; move to next layer (0)
G1 X83.860 Y82.661 ; move to first skirt point
G1 F420.000 E0.50000 ; compensate retraction
G1 X84.250 Y82.291 F2100.000 E0.50732 ; skirt
G1 X84.670 Y81.961 E0.51459 ; skirt
G1 X87.590 Y79.841 E0.56370 ; skirt
G1 X88.270 Y79.411 E0.57465 ; skirt
G1 X88.750 Y79.171 E0.58196 ; skirt
G1 X92.060 Y77.701 E0.63125 ; skirt
G1 X92.550 Y77.511 E0.63841 ; skirt
G1 X93.310 Y77.301 E0.64914 ; skirt
G1 X96.850 Y76.541 E0.69842 ; skirt
G1 X97.380 Y76.451 E0.70574 ; skirt
G1 X97.920 Y76.401 E0.71312 ; skirt
G1 X102.110 Y76.401 E0.77015 ; skirt
G1 X102.740 Y76.461 E0.77876 ; skirt
G1 X103.040 Y76.521 E0.78293 ; skirt
G1 X106.670 Y77.301 E0.83346 ; skirt
G1 X107.180 Y77.432 E0.84063 ; skirt
G1 X107.440 Y77.511 E0.84433 ; skirt
G1 X107.930 Y77.701 E0.85148 ; skirt
G1 X111.240 Y79.171 E0.90078 ; skirt
G1 X111.720 Y79.411 E0.90808 ; skirt
G1 X112.400 Y79.841 E0.91903 ; skirt
G1 X115.530 Y82.121 E0.97174 ; skirt
G1 X115.940 Y82.471 E0.97908 ; skirt
G1 X116.310 Y82.851 E0.98630 ; skirt
G1 X118.740 Y85.541 E1.03564 ; skirt
G1 X118.920 Y85.751 E1.03940 ; skirt
G1 X119.240 Y86.182 E1.04670 ; skirt
G1 X119.530 Y86.641 E1.05410 ; skirt
G1 X121.330 Y89.771 E1.10325 ; skirt
G1 X121.690 Y90.481 E1.11408 ; skirt
G1 X121.790 Y90.731 E1.11775 ; skirt
G1 X122.990 Y94.432 E1.17069 ; skirt
G1 X123.140 Y94.941 E1.17792 ; skirt
G1 X123.240 Y95.461 E1.18513 ; skirt
G1 X123.650 Y99.321 E1.23797 ; skirt
G1 X123.680 Y100.122 E1.24886 ; skirt
G1 X123.650 Y100.661 E1.25622 ; skirt
G1 X123.270 Y104.261 E1.30550 ; skirt
G1 X123.240 Y104.531 E1.30919 ; skirt
G1 X123.140 Y105.051 E1.31640 ; skirt
G1 X122.990 Y105.571 E1.32377 ; skirt
G1 X121.870 Y109.011 E1.37301 ; skirt
G1 X121.690 Y109.501 E1.38011 ; skirt
G1 X121.340 Y110.211 E1.39089 ; skirt
G1 X119.540 Y113.351 E1.44015 ; skirt
G1 X119.240 Y113.812 E1.44763 ; skirt
G1 X118.730 Y114.462 E1.45887 ; skirt
G1 X116.300 Y117.141 E1.50811 ; skirt
G1 X115.930 Y117.511 E1.51524 ; skirt
G1 X115.330 Y118.011 E1.52587 ; skirt
G1 X112.410 Y120.141 E1.57506 ; skirt
G1 X111.960 Y120.441 E1.58242 ; skirt
G1 X111.240 Y120.821 E1.59350 ; skirt
G1 X107.930 Y122.291 E1.64280 ; skirt
G1 X107.430 Y122.481 E1.65008 ; skirt
G1 X106.920 Y122.641 E1.65735 ; skirt
G1 X106.660 Y122.701 E1.66099 ; skirt
G1 X102.860 Y123.501 E1.71384 ; skirt
G1 X102.070 Y123.581 E1.72465 ; skirt
G1 X97.920 Y123.581 E1.78114 ; skirt
G1 X97.130 Y123.501 E1.79194 ; skirt
G1 X96.870 Y123.451 E1.79555 ; skirt
G1 X93.070 Y122.641 E1.84843 ; skirt
G1 X92.300 Y122.391 E1.85945 ; skirt
G1 X92.060 Y122.291 E1.86299 ; skirt
G1 X88.750 Y120.821 E1.91229 ; skirt
G1 X88.030 Y120.441 E1.92337 ; skirt
G1 X87.580 Y120.141 E1.93073 ; skirt
G1 X84.450 Y117.851 E1.98352 ; skirt
G1 X84.060 Y117.511 E1.99056 ; skirt
G1 X83.690 Y117.141 E1.99768 ; skirt
G1 X81.260 Y114.462 E2.04692 ; skirt
G1 X80.750 Y113.812 E2.05817 ; skirt
G1 X80.450 Y113.351 E2.06564 ; skirt
G1 X78.650 Y110.211 E2.11490 ; skirt
G1 X78.300 Y109.501 E2.12568 ; skirt
G1 X78.120 Y109.011 E2.13278 ; skirt
G1 X77.000 Y105.571 E2.18203 ; skirt
G1 X76.850 Y105.051 E2.18939 ; skirt
G1 X76.750 Y104.531 E2.19660 ; skirt
G1 X76.340 Y100.661 E2.24957 ; skirt
G1 X76.310 Y99.851 E2.26060 ; skirt
G1 X76.340 Y99.321 E2.26783 ; skirt
G1 X76.720 Y95.731 E2.31696 ; skirt
G1 X76.840 Y94.981 E2.32730 ; skirt
G1 X77.050 Y94.271 E2.33738 ; skirt
G1 X78.120 Y90.981 E2.38447 ; skirt
G1 X78.300 Y90.481 E2.39170 ; skirt
G1 X78.660 Y89.771 E2.40254 ; skirt
G1 X80.460 Y86.641 E2.45168 ; skirt
G1 X80.750 Y86.182 E2.45908 ; skirt
G1 X81.070 Y85.751 E2.46638 ; skirt
G1 X81.250 Y85.541 E2.47014 ; skirt
G1 X83.820 Y82.703 E2.52226 ; skirt
G1 F420.000 E2.02226 ; retract
G92 E0 ; reset extrusion distance
G1 X106.908 Y100.983 F6000.000 ; move to first perimeter point
G1 F420.000 E0.50000 ; compensate retraction
G1 X116.157 Y100.983 F1500.000 E0.62589 ; perimeter
G1 X115.905 Y103.381 E0.65870 ; perimeter
G1 X114.855 Y106.614 E0.70497 ; perimeter
G1 X113.155 Y109.558 E0.75124 ; perimeter
G1 X110.880 Y112.084 E0.79751 ; perimeter
G1 X108.930 Y113.501 E0.83033 ; perimeter
G1 X104.305 Y105.491 E0.95622 ; perimeter
G1 X104.976 Y104.976 E0.96773 ; perimeter
G1 X106.095 Y103.519 E0.99274 ; perimeter
G1 X106.798 Y101.822 E1.01775 ; perimeter
G1 X106.901 Y101.040 E1.02848 ; perimeter
G1 X107.246 Y101.368 F6000.000 ; move to first perimeter point
G1 X115.730 Y101.368 F1500.000 E1.14395 ; perimeter
G1 X115.527 Y103.300 E1.17040 ; perimeter
G1 X114.501 Y106.456 E1.21557 ; perimeter
G1 X112.842 Y109.330 E1.26074 ; perimeter
G1 X110.621 Y111.796 E1.30590 ; perimeter
G1 X109.049 Y112.939 E1.33236 ; perimeter
G1 X104.807 Y105.591 E1.44783 ; perimeter
G1 X105.251 Y105.251 E1.45544 ; perimeter
G1 X106.431 Y103.713 E1.48183 ; perimeter
G1 X107.173 Y101.922 E1.50821 ; perimeter
G1 X107.238 Y101.425 E1.51504 ; perimeter
G1 X107.263 Y100.983 F6000.000 ; move inwards before travel
G1 F420.000 E1.01504 ; retract
G92 E0 ; reset extrusion distance
G1 X95.695 Y94.509 F6000.000 ; move to first perimeter point
G1 F420.000 E0.50000 ; compensate retraction
G1 X95.024 Y95.024 F1500.000 E0.51152 ; perimeter
G1 X93.905 Y96.481 E0.53652 ; perimeter
G1 X93.202 Y98.178 E0.56153 ; perimeter
G1 X93.092 Y99.017 E0.57304 ; perimeter
G1 X83.843 Y99.017 E0.69893 ; perimeter
G1 X84.095 Y96.619 E0.73175 ; perimeter
G1 X85.145 Y93.386 E0.77802 ; perimeter
G1 X86.845 Y90.442 E0.82429 ; perimeter
G1 X89.120 Y87.916 E0.87055 ; perimeter
G1 X91.070 Y86.499 E0.90337 ; perimeter
G1 X95.666 Y94.459 E1.02848 ; perimeter
G1 X95.193 Y94.409 F6000.000 ; move to first perimeter point
G1 X94.749 Y94.749 F1500.000 E1.03609 ; perimeter
G1 X93.569 Y96.287 E1.06247 ; perimeter
G1 X92.827 Y98.078 E1.08886 ; perimeter
G1 X92.754 Y98.632 E1.09647 ; perimeter
G1 X84.270 Y98.632 E1.21194 ; perimeter
G1 X84.473 Y96.700 E1.23839 ; perimeter
G1 X85.499 Y93.544 E1.28356 ; perimeter
G1 X87.158 Y90.670 E1.32873 ; perimeter
G1 X89.379 Y88.204 E1.37390 ; perimeter
G1 X90.951 Y87.061 E1.40035 ; perimeter
G1 X95.164 Y94.359 E1.51504 ; perimeter
G1 X95.413 Y94.724 F6000.000 ; move inwards before travel
G1 F420.000 E1.01504 ; retract
G92 E0 ; reset extrusion distance
G1 X97.397 Y93.526 F6000.000 ; move to first perimeter point
G1 F420.000 E0.50000 ; compensate retraction
G1 X92.772 Y85.516 F1500.000 E0.62589 ; perimeter
G1 X94.975 Y84.535 E0.65871 ; perimeter
G1 X98.300 Y83.829 E0.70497 ; perimeter
G1 X101.700 Y83.829 E0.75124 ; perimeter
G1 X105.025 Y84.535 E0.79751 ; perimeter
G1 X107.228 Y85.516 E0.83033 ; perimeter
G1 X102.603 Y93.526 E0.95622 ; perimeter
G1 X101.822 Y93.202 E0.96773 ; perimeter
G1 X100.000 Y92.962 E0.99274 ; perimeter
G1 X98.178 Y93.202 E1.01775 ; perimeter
G1 X97.450 Y93.504 E1.02848 ; perimeter
G1 X97.561 Y93.041 F6000.000 ; move to first perimeter point
G1 X93.319 Y85.694 F1500.000 E1.14395 ; perimeter
G1 X95.095 Y84.903 E1.17040 ; perimeter
G1 X98.341 Y84.213 E1.21557 ; perimeter
G1 X101.659 Y84.213 E1.26074 ; perimeter
G1 X104.905 Y84.903 E1.30591 ; perimeter
G1 X106.681 Y85.694 E1.33236 ; perimeter
G1 X102.439 Y93.041 E1.44783 ; perimeter
G1 X101.922 Y92.827 E1.45544 ; perimeter
G1 X100.000 Y92.574 E1.48183 ; perimeter
G1 X98.078 Y92.827 E1.50822 ; perimeter
G1 X97.615 Y93.019 E1.51504 ; perimeter
G1 X97.220 Y93.219 F6000.000 ; move inwards before travel
G1 F420.000 E1.01504 ; retract
G92 E0 ; reset extrusion distance
G1 X104.305 Y94.509 F6000.000 ; move to first perimeter point
G1 F420.000 E0.50000 ; compensate retraction
G1 X108.930 Y86.499 F1500.000 E0.62589 ; perimeter
G1 X110.880 Y87.916 E0.65871 ; perimeter
G1 X113.155 Y90.442 E0.70498 ; perimeter
G1 X114.855 Y93.386 E0.75124 ; perimeter
G1 X115.905 Y96.619 E0.79751 ; perimeter
G1 X116.157 Y99.017 E0.83033 ; perimeter
G1 X106.908 Y99.017 E0.95622 ; perimeter
G1 X106.798 Y98.178 E0.96773 ; perimeter
G1 X106.095 Y96.481 E0.99274 ; perimeter
G1 X104.976 Y95.024 E1.01775 ; perimeter
G1 X104.351 Y94.544 E1.02848 ; perimeter
G1 X104.807 Y94.409 F6000.000 ; move to first perimeter point
G1 X109.049 Y87.061 F1500.000 E1.14395 ; perimeter
G1 X110.621 Y88.204 E1.17040 ; perimeter
G1 X112.842 Y90.670 E1.21557 ; perimeter
G1 X114.501 Y93.544 E1.26074 ; perimeter
G1 X115.527 Y96.700 E1.30591 ; perimeter
G1 X115.730 Y98.632 E1.33236 ; perimeter
G1 X107.246 Y98.632 E1.44783 ; perimeter
G1 X107.173 Y98.078 E1.45544 ; perimeter
G1 X106.431 Y96.287 E1.48183 ; perimeter
G1 X105.251 Y94.749 E1.50821 ; perimeter
G1 X104.853 Y94.444 E1.51504 ; perimeter
G1 X104.483 Y94.202 F6000.000 ; move inwards before travel
G1 X103.658 Y95.937 ; move to first perimeter point
G1 X104.423 Y96.786 F1500.000 E1.53060 ; perimeter
G1 X104.995 Y97.776 E1.54616 ; perimeter
G1 X105.348 Y98.863 E1.56171 ; perimeter
G1 X105.360 Y98.975 E1.56325 ; perimeter
G1 X105.467 Y100.000 E1.57727 ; perimeter
G1 X105.348 Y101.137 E1.59283 ; perimeter
G1 X104.995 Y102.224 E1.60838 ; perimeter
G1 X104.423 Y103.214 E1.62394 ; perimeter
G1 X103.658 Y104.063 E1.63950 ; perimeter
G1 X102.734 Y104.735 E1.65506 ; perimeter
G1 X101.690 Y105.200 E1.67061 ; perimeter
G1 X100.572 Y105.437 E1.68617 ; perimeter
G1 X99.428 Y105.437 E1.70173 ; perimeter
G1 X98.310 Y105.200 E1.71729 ; perimeter
G1 X97.266 Y104.735 E1.73285 ; perimeter
G1 X96.342 Y104.063 E1.74840 ; perimeter
G1 X95.577 Y103.213 E1.76396 ; perimeter
G1 X95.005 Y102.224 E1.77952 ; perimeter
G1 X94.652 Y101.137 E1.79508 ; perimeter
G1 X94.533 Y100.000 E1.81063 ; perimeter
G1 X94.652 Y98.863 E1.82619 ; perimeter
G1 X95.005 Y97.776 E1.84175 ; perimeter
G1 X95.577 Y96.786 E1.85730 ; perimeter
G1 X96.342 Y95.937 E1.87287 ; perimeter
G1 X97.266 Y95.265 E1.88842 ; perimeter
G1 X98.310 Y94.800 E1.90398 ; perimeter
G1 X99.428 Y94.563 E1.91954 ; perimeter
G1 X100.571 Y94.563 E1.93509 ; perimeter
G1 X101.689 Y94.800 E1.95065 ; perimeter
G1 X102.734 Y95.265 E1.96621 ; perimeter
G1 X103.612 Y95.903 E1.98098 ; perimeter
G1 X103.399 Y96.224 F6000.000 ; move to first perimeter point
G1 X104.110 Y97.014 F1500.000 E1.99544 ; perimeter
G1 X104.641 Y97.934 E2.00989 ; perimeter
G1 X104.969 Y98.944 E2.02435 ; perimeter
G1 X104.977 Y99.016 E2.02533 ; perimeter
G1 X105.080 Y100.000 E2.03881 ; perimeter
G1 X104.969 Y101.056 E2.05326 ; perimeter
G1 X104.641 Y102.066 E2.06772 ; perimeter
G1 X104.110 Y102.986 E2.08217 ; perimeter
G1 X103.399 Y103.776 E2.09663 ; perimeter
G1 X102.540 Y104.400 E2.11109 ; perimeter
G1 X101.570 Y104.832 E2.12554 ; perimeter
G1 X100.531 Y105.053 E2.14000 ; perimeter
G1 X99.469 Y105.053 E2.15446 ; perimeter
G1 X98.430 Y104.832 E2.16891 ; perimeter
G1 X97.460 Y104.400 E2.18337 ; perimeter
G1 X96.601 Y103.776 E2.19782 ; perimeter
G1 X95.890 Y102.986 E2.21228 ; perimeter
G1 X95.359 Y102.066 E2.22674 ; perimeter
G1 X95.031 Y101.056 E2.24120 ; perimeter
G1 X94.920 Y100.000 E2.25565 ; perimeter
G1 X95.031 Y98.944 E2.27011 ; perimeter
G1 X95.359 Y97.934 E2.28457 ; perimeter
G1 X95.890 Y97.014 E2.29902 ; perimeter
G1 X96.601 Y96.224 E2.31348 ; perimeter
G1 X97.460 Y95.600 E2.32794 ; perimeter
G1 X98.430 Y95.168 E2.34239 ; perimeter
G1 X99.469 Y94.947 E2.35685 ; perimeter
G1 X100.531 Y94.947 E2.37130 ; perimeter
G1 X101.570 Y95.168 E2.38576 ; perimeter
G1 X102.540 Y95.600 E2.40022 ; perimeter
G1 X103.353 Y96.191 E2.41388 ; perimeter
G1 X103.141 Y96.512 F6000.000 ; move to first perimeter point
G1 X103.797 Y97.241 F1500.000 E2.42724 ; perimeter
G1 X104.288 Y98.091 E2.44060 ; perimeter
G1 X104.594 Y99.056 E2.45438 ; perimeter
G1 X104.693 Y100.000 E2.46730 ; perimeter
G1 X104.591 Y100.976 E2.48065 ; perimeter
G1 X104.288 Y101.909 E2.49401 ; perimeter
G1 X103.797 Y102.759 E2.50736 ; perimeter
G1 X103.141 Y103.488 E2.52072 ; perimeter
G1 X102.347 Y104.065 E2.53407 ; perimeter
G1 X101.450 Y104.464 E2.54743 ; perimeter
G1 X100.491 Y104.668 E2.56078 ; perimeter
G1 X99.509 Y104.668 E2.57414 ; perimeter
G1 X98.550 Y104.464 E2.58750 ; perimeter
G1 X97.653 Y104.065 E2.60085 ; perimeter
G1 X96.859 Y103.488 E2.61420 ; perimeter
G1 X96.203 Y102.759 E2.62756 ; perimeter
G1 X95.712 Y101.909 E2.64092 ; perimeter
G1 X95.409 Y100.976 E2.65427 ; perimeter
G1 X95.307 Y100.000 E2.66763 ; perimeter
G1 X95.419 Y98.994 E2.68141 ; perimeter
G1 X95.712 Y98.091 E2.69433 ; perimeter
G1 X96.203 Y97.241 E2.70768 ; perimeter
G1 X96.859 Y96.512 E2.72104 ; perimeter
G1 X97.653 Y95.935 E2.73439 ; perimeter
G1 X98.550 Y95.536 E2.74775 ; perimeter
G1 X99.509 Y95.332 E2.76110 ; perimeter
G1 X100.491 Y95.332 E2.77446 ; perimeter
G1 X101.450 Y95.536 E2.78781 ; perimeter
G1 X102.347 Y95.935 E2.80117 ; perimeter
G1 X103.094 Y96.478 E2.81374 ; perimeter
G1 X103.510 Y96.406 F6000.000 ; move inwards before travel
G1 F420.000 E2.31374 ; retract
G92 E0 ; reset extrusion distance
G1 X93.092 Y100.983 F6000.000 ; move to first perimeter point
G1 F420.000 E0.50000 ; compensate retraction
G1 X93.202 Y101.821 F1500.000 E0.51152 ; perimeter
G1 X93.905 Y103.519 E0.53652 ; perimeter
G1 X95.024 Y104.976 E0.56153 ; perimeter
G1 X95.695 Y105.491 E0.57304 ; perimeter
G1 X91.070 Y113.501 E0.69893 ; perimeter
G1 X89.120 Y112.084 E0.73175 ; perimeter
G1 X86.845 Y109.558 E0.77802 ; perimeter
G1 X85.145 Y106.614 E0.82429 ; perimeter
G1 X84.095 Y103.381 E0.87056 ; perimeter
G1 X83.843 Y100.983 E0.90338 ; perimeter
G1 X93.034 Y100.983 E1.02848 ; perimeter
G1 X92.754 Y101.368 F6000.000 ; move to first perimeter point
G1 X92.827 Y101.922 F1500.000 E1.03609 ; perimeter
G1 X93.569 Y103.713 E1.06247 ; perimeter
G1 X94.749 Y105.251 E1.08886 ; perimeter
G1 X95.193 Y105.591 E1.09647 ; perimeter
G1 X90.951 Y112.939 E1.21194 ; perimeter
G1 X89.379 Y111.796 E1.23840 ; perimeter
G1 X87.158 Y109.330 E1.28356 ; perimeter
G1 X85.499 Y106.456 E1.32873 ; perimeter
G1 X84.473 Y103.300 E1.37390 ; perimeter
G1 X84.270 Y101.368 E1.40035 ; perimeter
G1 X92.696 Y101.368 E1.51504 ; perimeter
G1 X93.138 Y101.334 F6000.000 ; move inwards before travel
G1 F420.000 E1.01504 ; retract
G92 E0 ; reset extrusion distance
G1 X97.397 Y106.474 F6000.000 ; move to first perimeter point
G1 F420.000 E0.50000 ; compensate retraction
G1 X98.178 Y106.798 F1500.000 E0.51152 ; perimeter
G1 X100.000 Y107.038 E0.53652 ; perimeter
G1 X101.822 Y106.798 E0.56153 ; perimeter
G1 X102.603 Y106.474 E0.57304 ; perimeter
G1 X107.228 Y114.484 E0.69893 ; perimeter
G1 X105.025 Y115.465 E0.73175 ; perimeter
G1 X101.700 Y116.171 E0.77802 ; perimeter
G1 X98.300 Y116.171 E0.82429 ; perimeter
G1 X94.975 Y115.465 E0.87056 ; perimeter
G1 X92.772 Y114.484 E0.90338 ; perimeter
G1 X97.368 Y106.524 E1.02848 ; perimeter
G1 X97.561 Y106.959 F6000.000 ; move to first perimeter point
G1 X98.078 Y107.173 F1500.000 E1.03609 ; perimeter
G1 X100.000 Y107.426 E1.06247 ; perimeter
G1 X101.922 Y107.173 E1.08886 ; perimeter
G1 X102.439 Y106.959 E1.09647 ; perimeter
G1 X106.681 Y114.306 E1.21195 ; perimeter
G1 X104.905 Y115.097 E1.23840 ; perimeter
G1 X101.659 Y115.787 E1.28356 ; perimeter
G1 X98.341 Y115.787 E1.32873 ; perimeter
G1 X95.095 Y115.097 E1.37390 ; perimeter
G1 X93.319 Y114.306 E1.40035 ; perimeter
G1 X97.533 Y107.009 E1.51504 ; perimeter
G1 X97.724 Y106.610 F6000.000 ; move inwards before travel
G1 F420.000 E1.01504 ; retract
G92 E0 ; reset extrusion distance
G1 X107.620 Y85.607 F6000.000 ; move to first perimeter point
G1 F420.000 E0.50000 ; compensate retraction
G1 X108.169 Y85.851 F2100.000 E0.50818 ; perimeter
G1 X108.655 Y86.205 E0.51637 ; perimeter
G1 X103.803 Y94.608 E0.64845 ; perimeter
