; generated by Slic3r 0.9.9 on 2013-07-15 at 00:55:25

; layer_height = 0.25
; perimeters = 3
; top_solid_layers = 4
; bottom_solid_layers = 4
; fill_density = 0.15
; perimeter_speed = 70
; infill_speed = 90
; travel_speed = 100
; nozzle_diameter = 0.35
; filament_diameter = 2.9
; extrusion_multiplier = 1
; perimeters extrusion width = 0.39mm
; infill extrusion width = 0.39mm
; solid infill extrusion width = 0.39mm
; top infill extrusion width = 0.39mm

G21 ; set units to millimeters
G28 ; home all axes
G90 ; use absolute coordinates
G92 E0 ; reset extrusion distance
M82 ; use absolute distances for extrusion
G1 F420.000 E-0.50000 ; retract
G92 E0 ; reset extrusion distance
G1 Z0.250 F6000.000 ; move to next layer (0)
G1 X67.863 Y84.593 ; move to first skirt point
G1 F420.000 E0.50000 ; compensate retraction
G1 X70.473 Y82.693 F2100.000 E0.54702 ; skirt
G1 X70.893 Y82.413 E0.55438 ; skirt
G1 X71.543 Y82.063 E0.56513 ; skirt
G1 X74.353 Y80.813 E0.60993 ; skirt
G1 X75.093 Y80.543 E0.62140 ; skirt
G1 X75.613 Y80.413 E0.62921 ; skirt
G1 X78.763 Y79.743 E0.67612 ; skirt
G1 X79.533 Y79.653 E0.68741 ; skirt
G1 X117.113 Y79.323 E1.23482 ; skirt
G1 X120.413 Y79.323 E1.28289 ; skirt
G1 X121.213 Y79.403 E1.29460 ; skirt
G1 X124.383 Y80.083 E1.34182 ; skirt
G1 X124.903 Y80.213 E1.34963 ; skirt
G1 X125.653 Y80.493 E1.36129 ; skirt
G1 X128.603 Y81.813 E1.40837 ; skirt
G1 X129.073 Y82.073 E1.41619 ; skirt
G1 X129.513 Y82.363 E1.42387 ; skirt
G1 X131.913 Y84.103 E1.46705 ; skirt
G1 X132.333 Y84.433 E1.47483 ; skirt
G1 X132.723 Y84.803 E1.48266 ; skirt
G1 X134.893 Y87.213 E1.52989 ; skirt
G1 X135.073 Y87.413 E1.53381 ; skirt
G1 X135.393 Y87.833 E1.54151 ; skirt
G1 X135.543 Y88.053 E1.54538 ; skirt
G1 X137.303 Y91.093 E1.59655 ; skirt
G1 X137.533 Y91.583 E1.60443 ; skirt
G1 X137.723 Y92.093 E1.61236 ; skirt
G1 X138.633 Y94.913 E1.65552 ; skirt
G1 X138.773 Y95.423 E1.66323 ; skirt
G1 X138.873 Y95.943 E1.67094 ; skirt
G1 X139.213 Y99.163 E1.71810 ; skirt
G1 X139.243 Y99.703 E1.72598 ; skirt
G1 X139.213 Y100.503 E1.73764 ; skirt
G1 X138.873 Y103.713 E1.78466 ; skirt
G1 X138.773 Y104.233 E1.79237 ; skirt
G1 X138.633 Y104.743 E1.80008 ; skirt
G1 X137.723 Y107.563 E1.84324 ; skirt
G1 X137.533 Y108.073 E1.85117 ; skirt
G1 X137.303 Y108.563 E1.85905 ; skirt
G1 X135.683 Y111.373 E1.90630 ; skirt
G1 X135.393 Y111.833 E1.91422 ; skirt
G1 X135.063 Y112.263 E1.92211 ; skirt
G1 X132.903 Y114.663 E1.96914 ; skirt
G1 X132.533 Y115.043 E1.97687 ; skirt
G1 X132.133 Y115.383 E1.98452 ; skirt
G1 X129.523 Y117.293 E2.03163 ; skirt
G1 X129.023 Y117.623 E2.04035 ; skirt
G1 X128.493 Y117.903 E2.04908 ; skirt
G1 X125.663 Y119.173 E2.09427 ; skirt
G1 X125.153 Y119.373 E2.10224 ; skirt
G1 X124.633 Y119.533 E2.11017 ; skirt
G1 X121.203 Y120.253 E2.16122 ; skirt
G1 X120.453 Y120.333 E2.17221 ; skirt
G1 X82.873 Y120.673 E2.71962 ; skirt
G1 X79.573 Y120.673 E2.76769 ; skirt
G1 X79.303 Y120.653 E2.77163 ; skirt
G1 X78.513 Y120.533 E2.78327 ; skirt
G1 X75.613 Y119.913 E2.82647 ; skirt
G1 X75.093 Y119.783 E2.83427 ; skirt
G1 X74.593 Y119.613 E2.84197 ; skirt
G1 X71.623 Y118.293 E2.88931 ; skirt
G1 X71.383 Y118.183 E2.89315 ; skirt
G1 X70.913 Y117.923 E2.90098 ; skirt
G1 X70.463 Y117.623 E2.90885 ; skirt
G1 X67.853 Y115.713 E2.95596 ; skirt
G1 X67.453 Y115.373 E2.96361 ; skirt
G1 X67.083 Y114.993 E2.97134 ; skirt
G1 X65.093 Y112.793 E3.01455 ; skirt
G1 X64.593 Y112.163 E3.02626 ; skirt
G1 X64.303 Y111.703 E3.03418 ; skirt
G1 X62.823 Y109.133 E3.07738 ; skirt
G1 X62.573 Y108.663 E3.08513 ; skirt
G1 X62.283 Y107.913 E3.09685 ; skirt
G1 X61.363 Y105.083 E3.14019 ; skirt
G1 X61.213 Y104.573 E3.14794 ; skirt
G1 X61.113 Y104.043 E3.15579 ; skirt
G1 X60.773 Y100.833 E3.20281 ; skirt
G1 X60.743 Y100.293 E3.21069 ; skirt
G1 X60.773 Y99.493 E3.22235 ; skirt
G1 X61.113 Y96.273 E3.26951 ; skirt
G1 X61.213 Y95.743 E3.27737 ; skirt
G1 X61.363 Y95.223 E3.28525 ; skirt
G1 X62.283 Y92.403 E3.32846 ; skirt
G1 X62.463 Y91.903 E3.33620 ; skirt
G1 X62.823 Y91.193 E3.34779 ; skirt
G1 X64.303 Y88.623 E3.39099 ; skirt
G1 X64.583 Y88.173 E3.39871 ; skirt
G1 X64.913 Y87.743 E3.40661 ; skirt
G1 X67.263 Y85.133 E3.45776 ; skirt
G1 X67.453 Y84.943 E3.46168 ; skirt
G1 X67.818 Y84.629 E3.46869 ; skirt
G1 F420.000 E2.96869 ; retract
G92 E0 ; reset extrusion distance
G1 X72.527 Y90.385 F6000.000 ; move to first perimeter point
G1 F420.000 E0.50000 ; compensate retraction
G1 X73.954 Y89.349 F1500.000 E0.52568 ; perimeter
G1 X77.028 Y94.674 E0.61524 ; perimeter
G1 X76.357 Y95.189 E0.62757 ; perimeter
G1 X75.238 Y96.647 E0.65433 ; perimeter
G1 X74.535 Y98.344 E0.68109 ; perimeter
G1 X74.425 Y99.183 E0.69341 ; perimeter
G1 X68.276 Y99.183 E0.78297 ; perimeter
G1 X68.460 Y97.429 E0.80866 ; perimeter
G1 X69.311 Y94.813 E0.84873 ; perimeter
G1 X70.686 Y92.430 E0.88881 ; perimeter
G1 X72.489 Y90.428 E0.92804 ; perimeter
G1 X72.786 Y90.673 F6000.000 ; move to first perimeter point
G4 P29
G1 X73.834 Y89.912 F1500.000 E0.94691 ; perimeter
G4 P7
G1 X76.526 Y94.574 E1.02533 ; perimeter
G1 X76.082 Y94.914 E1.03347 ; perimeter
G1 X74.902 Y96.452 E1.06171 ; perimeter
G1 X74.160 Y98.243 E1.08995 ; perimeter
G1 X74.087 Y98.798 E1.09809 ; perimeter
G1 X68.704 Y98.798 E1.17651 ; perimeter
G1 X68.839 Y97.510 E1.19538 ; perimeter
G1 X69.664 Y94.970 E1.23428 ; perimeter
G1 X70.999 Y92.657 E1.27317 ; perimeter
G1 X72.748 Y90.716 E1.31123 ; perimeter
G1 X72.719 Y90.294 F6000.000 ; move inwards before travel
G1 F420.000 E0.81123 ; retract
G92 E0 ; reset extrusion distance
G4 P29
G1 X75.656 Y88.366 F6000.000 ; move to first perimeter point
G1 F420.000 E0.50000 ; compensate retraction
G1 X77.267 Y87.649 F1500.000 E0.52568 ; perimeter
G1 X79.958 Y87.077 E0.56576 ; perimeter
G1 X82.709 Y87.077 E0.60583 ; perimeter
G1 X85.400 Y87.649 E0.64591 ; perimeter
G1 X87.011 Y88.366 E0.67159 ; perimeter
G1 X83.936 Y93.691 E0.76115 ; perimeter
G1 X83.155 Y93.367 E0.77348 ; perimeter
G1 X81.333 Y93.128 E0.80024 ; perimeter
G1 X79.512 Y93.367 E0.82700 ; perimeter
G1 X78.730 Y93.691 E0.83932 ; perimeter
G1 X75.685 Y88.416 E0.92804 ; perimeter
G1 X76.203 Y88.544 F6000.000 ; move to first perimeter point
G4 P27
G1 X77.386 Y88.017 F1500.000 E0.94691 ; perimeter
G1 X79.998 Y87.462 E0.98581 ; perimeter
G1 X82.669 Y87.462 E1.02470 ; perimeter
G1 X85.281 Y88.017 E1.06360 ; perimeter
G1 X86.464 Y88.544 E1.08247 ; perimeter
G1 X83.772 Y93.206 E1.16089 ; perimeter
G1 X83.255 Y92.993 E1.16903 ; perimeter
G1 X81.333 Y92.739 E1.19727 ; perimeter
G1 X79.411 Y92.993 E1.22551 ; perimeter
G1 X78.895 Y93.206 E1.23365 ; perimeter
G1 X76.232 Y88.594 E1.31123 ; perimeter
G1 X76.034 Y88.198 F6000.000 ; move inwards before travel
G1 F420.000 E0.81123 ; retract
G92 E0 ; reset extrusion distance
G1 X85.639 Y94.674 F6000.000 ; move to first perimeter point
G1 F420.000 E0.50000 ; compensate retraction
G1 X88.713 Y89.349 F1500.000 E0.58956 ; perimeter
G1 X90.139 Y90.385 E0.61524 ; perimeter
G1 X91.980 Y92.430 E0.65532 ; perimeter
G1 X93.356 Y94.813 E0.69539 ; perimeter
G1 X94.206 Y97.429 E0.73547 ; perimeter
G1 X94.390 Y99.183 E0.76115 ; perimeter
G1 X88.242 Y99.183 E0.85071 ; perimeter
G1 X88.131 Y98.344 E0.86304 ; perimeter
G1 X87.428 Y96.647 E0.88980 ; perimeter
G1 X86.310 Y95.189 E0.91656 ; perimeter
G1 X85.684 Y94.709 E0.92804 ; perimeter
G1 X86.141 Y94.574 F6000.000 ; move to first perimeter point
G1 X88.833 Y89.912 F1500.000 E1.00646 ; perimeter
G1 X89.880 Y90.673 E1.02533 ; perimeter
G1 X91.667 Y92.657 E1.06423 ; perimeter
G1 X93.002 Y94.970 E1.10312 ; perimeter
G1 X93.828 Y97.510 E1.14202 ; perimeter
G1 X93.963 Y98.798 E1.16089 ; perimeter
G1 X88.579 Y98.798 E1.23931 ; perimeter
G1 X88.506 Y98.243 E1.24745 ; perimeter
G1 X87.764 Y96.452 E1.27569 ; perimeter
G1 X86.584 Y94.914 E1.30393 ; perimeter
G1 X86.186 Y94.609 E1.31123 ; perimeter
G1 X85.816 Y94.367 F6000.000 ; move inwards before travel
G1 F420.000 E0.81123 ; retract
G92 E0 ; reset extrusion distance
G1 X88.242 Y101.148 F6000.000 ; move to first perimeter point
G1 F420.000 E0.50000 ; compensate retraction
G1 X94.390 Y101.148 F1500.000 E0.58956 ; perimeter
G1 X94.206 Y102.902 E0.61524 ; perimeter
G1 X93.356 Y105.518 E0.65532 ; perimeter
G1 X91.980 Y107.901 E0.69539 ; perimeter
G1 X90.139 Y109.946 E0.73547 ; perimeter
G1 X88.713 Y110.982 E0.76115 ; perimeter
G1 X85.639 Y105.657 E0.85071 ; perimeter
G1 X86.310 Y105.142 E0.86304 ; perimeter
G1 X87.428 Y103.684 E0.88980 ; perimeter
G1 X88.131 Y101.987 E0.91656 ; perimeter
G1 X88.234 Y101.205 E0.92804 ; perimeter
G1 X88.579 Y101.533 F6000.000 ; move to first perimeter point
G1 X93.963 Y101.533 F1500.000 E1.00646 ; perimeter
G1 X93.828 Y102.821 E1.02533 ; perimeter
G1 X93.002 Y105.361 E1.06423 ; perimeter
G1 X91.667 Y107.673 E1.10312 ; perimeter
G1 X89.880 Y109.658 E1.14202 ; perimeter
G1 X88.833 Y110.419 E1.16089 ; perimeter
G1 X86.141 Y105.757 E1.23931 ; perimeter
G1 X86.584 Y105.416 E1.24745 ; perimeter
G1 X87.764 Y103.878 E1.27569 ; perimeter
G1 X88.506 Y102.087 E1.30393 ; perimeter
G1 X88.572 Y101.590 E1.31123 ; perimeter
G1 X88.596 Y101.148 F6000.000 ; move inwards before travel
G1 X86.693 Y101.190 ; move to first perimeter point
G1 X86.681 Y101.302 F1500.000 E1.31287 ; perimeter
G1 X86.328 Y102.389 E1.32952 ; perimeter
G1 X85.757 Y103.379 E1.34617 ; perimeter
G1 X84.992 Y104.229 E1.36282 ; perimeter
G1 X84.067 Y104.900 E1.37947 ; perimeter
G1 X83.023 Y105.365 E1.39611 ; perimeter
G1 X81.905 Y105.603 E1.41276 ; perimeter
G1 X80.762 Y105.603 E1.42942 ; perimeter
G1 X79.644 Y105.365 E1.44606 ; perimeter
G1 X78.600 Y104.900 E1.46271 ; perimeter
G1 X77.675 Y104.229 E1.47936 ; perimeter
G1 X76.910 Y103.379 E1.49601 ; perimeter
G1 X76.339 Y102.389 E1.51266 ; perimeter
G1 X75.985 Y101.302 E1.52931 ; perimeter
G1 X75.866 Y100.165 E1.54596 ; perimeter
G1 X75.985 Y99.029 E1.56261 ; perimeter
G1 X76.339 Y97.941 E1.57926 ; perimeter
G1 X76.910 Y96.952 E1.59590 ; perimeter
G1 X77.675 Y96.102 E1.61256 ; perimeter
G1 X78.600 Y95.430 E1.62921 ; perimeter
G1 X79.644 Y94.966 E1.64585 ; perimeter
G1 X80.762 Y94.728 E1.66250 ; perimeter
G1 X81.905 Y94.728 E1.67915 ; perimeter
G1 X83.022 Y94.966 E1.69579 ; perimeter
G1 X84.067 Y95.431 E1.71245 ; perimeter
G1 X84.992 Y96.102 E1.72909 ; perimeter
G1 X85.757 Y96.952 E1.74575 ; perimeter
G1 X86.328 Y97.942 E1.76240 ; perimeter
G1 X86.681 Y99.028 E1.77904 ; perimeter
G1 X86.801 Y100.165 E1.79569 ; perimeter
G1 X86.699 Y101.133 E1.80986 ; perimeter
G1 X86.310 Y101.150 F6000.000 ; move to first perimeter point
G1 X86.303 Y101.222 F1500.000 E1.81091 ; perimeter
G1 X85.975 Y102.232 E1.82638 ; perimeter
G1 X85.444 Y103.152 E1.84185 ; perimeter
G1 X84.733 Y103.941 E1.85732 ; perimeter
G1 X83.874 Y104.565 E1.87279 ; perimeter
G1 X82.903 Y104.997 E1.88826 ; perimeter
G1 X81.865 Y105.218 E1.90373 ; perimeter
G1 X80.802 Y105.218 E1.91921 ; perimeter
G1 X79.763 Y104.997 E1.93468 ; perimeter
G1 X78.793 Y104.565 E1.95015 ; perimeter
G1 X77.934 Y103.941 E1.96562 ; perimeter
G1 X77.223 Y103.152 E1.98109 ; perimeter
G1 X76.692 Y102.232 E1.99656 ; perimeter
G1 X76.364 Y101.222 E2.01203 ; perimeter
G1 X76.253 Y100.165 E2.02750 ; perimeter
G1 X76.364 Y99.109 E2.04297 ; perimeter
G1 X76.692 Y98.099 E2.05844 ; perimeter
G1 X77.223 Y97.179 E2.07391 ; perimeter
G1 X77.934 Y96.390 E2.08938 ; perimeter
G1 X78.793 Y95.766 E2.10485 ; perimeter
G1 X79.763 Y95.334 E2.12032 ; perimeter
G1 X80.802 Y95.113 E2.13579 ; perimeter
G1 X81.864 Y95.113 E2.15126 ; perimeter
G1 X82.903 Y95.334 E2.16673 ; perimeter
G1 X83.874 Y95.766 E2.18221 ; perimeter
G1 X84.733 Y96.390 E2.19767 ; perimeter
G1 X85.444 Y97.179 E2.21315 ; perimeter
G1 X85.975 Y98.099 E2.22862 ; perimeter
G1 X86.303 Y99.109 E2.24409 ; perimeter
G1 X86.414 Y100.165 E2.25956 ; perimeter
G1 X86.316 Y101.092 E2.27313 ; perimeter
G1 X85.928 Y101.109 F6000.000 ; move to first perimeter point
G1 X85.621 Y102.074 F1500.000 E2.28788 ; perimeter
G1 X85.130 Y102.924 E2.30217 ; perimeter
G1 X84.474 Y103.653 E2.31647 ; perimeter
G1 X83.680 Y104.230 E2.33076 ; perimeter
G1 X82.784 Y104.629 E2.34505 ; perimeter
G1 X81.824 Y104.833 E2.35934 ; perimeter
G1 X80.843 Y104.833 E2.37364 ; perimeter
G1 X79.883 Y104.629 E2.38793 ; perimeter
G1 X78.987 Y104.230 E2.40222 ; perimeter
G1 X78.193 Y103.653 E2.41651 ; perimeter
G1 X77.536 Y102.924 E2.43080 ; perimeter
G1 X77.046 Y102.074 E2.44510 ; perimeter
G1 X76.742 Y101.141 E2.45939 ; perimeter
G1 X76.640 Y100.165 E2.47368 ; perimeter
G1 X76.742 Y99.190 E2.48797 ; perimeter
G1 X77.046 Y98.256 E2.50227 ; perimeter
G1 X77.536 Y97.407 E2.51656 ; perimeter
G1 X78.193 Y96.677 E2.53085 ; perimeter
G1 X78.987 Y96.101 E2.54514 ; perimeter
G1 X79.883 Y95.702 E2.55943 ; perimeter
G1 X80.843 Y95.498 E2.57373 ; perimeter
G1 X81.824 Y95.498 E2.58802 ; perimeter
G1 X82.784 Y95.702 E2.60231 ; perimeter
G1 X83.680 Y96.101 E2.61660 ; perimeter
G1 X84.474 Y96.677 E2.63089 ; perimeter
G1 X85.130 Y97.407 E2.64519 ; perimeter
G1 X85.621 Y98.256 E2.65948 ; perimeter
G1 X85.924 Y99.190 E2.67377 ; perimeter
G1 X86.027 Y100.165 E2.68806 ; perimeter
G1 X85.934 Y101.052 E2.70105 ; perimeter
G4 P15
G1 X86.206 Y101.376 F6000.000 ; move inwards before travel
G1 F420.000 E2.20105 ; retract
G92 E0 ; reset extrusion distance
G4 P29
G1 X77.028 Y105.657 F6000.000 ; move to first perimeter point
G1 F420.000 E0.50000 ; compensate retraction
G1 X73.954 Y110.982 F1500.000 E0.58956 ; perimeter
G1 X72.527 Y109.946 E0.61524 ; perimeter
G1 X70.686 Y107.901 E0.65532 ; perimeter
G1 X69.357 Y105.599 E0.69403 ; perimeter
G1 X69.311 Y105.518 E0.69540 ; perimeter
G1 X68.460 Y102.902 E0.73547 ; perimeter
G1 X68.276 Y101.148 E0.76115 ; perimeter
G1 X74.425 Y101.148 E0.85071 ; perimeter
G1 X74.535 Y101.987 E0.86304 ; perimeter
G1 X75.238 Y103.684 E0.88980 ; perimeter
G1 X76.357 Y105.142 E0.91656 ; perimeter
G1 X76.982 Y105.622 E0.92804 ; perimeter
G1 X76.526 Y105.757 F6000.000 ; move to first perimeter point
G1 X73.834 Y110.419 F1500.000 E1.00646 ; perimeter
G1 X72.786 Y109.658 E1.02533 ; perimeter
G1 X70.999 Y107.673 E1.06423 ; perimeter
G1 X69.691 Y105.407 E1.10235 ; perimeter
G1 X68.839 Y102.821 E1.14200 ; perimeter
G1 X68.704 Y101.533 E1.16087 ; perimeter
G1 X74.087 Y101.533 E1.23929 ; perimeter
G1 X74.160 Y102.087 E1.24744 ; perimeter
G1 X74.902 Y103.878 E1.27567 ; perimeter
G1 X76.082 Y105.416 E1.30391 ; perimeter
G1 X76.480 Y105.722 E1.31121 ; perimeter
G1 X76.851 Y105.963 F6000.000 ; move inwards before travel
G1 X78.730 Y106.640 ; move to first perimeter point
G1 X79.512 Y106.963 F1500.000 E1.32354 ; perimeter
G1 X81.333 Y107.203 E1.35030 ; perimeter
G1 X83.155 Y106.963 E1.37706 ; perimeter
G1 X83.936 Y106.640 E1.38938 ; perimeter
G1 X87.011 Y111.965 E1.47894 ; perimeter
G1 X85.400 Y112.682 E1.50463 ; perimeter
G1 X82.709 Y113.254 E1.54470 ; perimeter
G1 X79.958 Y113.254 E1.58478 ; perimeter
G1 X77.267 Y112.682 E1.62485 ; perimeter
G1 X75.656 Y111.965 E1.65053 ; perimeter
G1 X78.701 Y106.690 E1.73926 ; perimeter
G1 X78.895 Y107.124 F6000.000 ; move to first perimeter point
G1 X79.411 Y107.338 F1500.000 E1.74740 ; perimeter
G1 X81.333 Y107.591 E1.77564 ; perimeter
G1 X83.255 Y107.338 E1.80388 ; perimeter
G1 X83.772 Y107.124 E1.81202 ; perimeter
G1 X86.464 Y111.787 E1.89044 ; perimeter
G1 X85.281 Y112.314 E1.90931 ; perimeter
G1 X82.669 Y112.869 E1.94820 ; perimeter
G1 X79.998 Y112.869 E1.98710 ; perimeter
G1 X77.386 Y112.314 E2.02600 ; perimeter
G1 X76.203 Y111.787 E2.04487 ; perimeter
G1 X78.866 Y107.174 E2.12245 ; perimeter
G1 X79.057 Y106.776 F6000.000 ; move inwards before travel
G1 F420.000 E1.62245 ; retract
G92 E0 ; reset extrusion distance
G1 X68.096 Y100.165 F6000.000 ; move to first perimeter point
G1 F420.000 E0.50000 ; compensate retraction
G1 X68.159 Y99.568 F2100.000 E0.50876 ; perimeter
G1 X74.762 Y99.568 E0.60495 ; perimeter
G1 X74.910 Y98.444 E0.62145 ; perimeter
G1 X75.575 Y96.841 E0.64673 ; perimeter
G1 X76.631 Y95.463 E0.67202 ; perimeter
G1 X77.530 Y94.774 E0.68852 ; perimeter
G1 X74.228 Y89.055 E0.78471 ; perimeter
G1 X74.715 Y88.701 E0.79347 ; perimeter
G1 X75.264 Y88.457 E0.80223 ; perimeter
G1 X78.566 Y94.176 E0.89842 ; perimeter
G1 X79.612 Y93.742 E0.91492 ; perimeter
