; generated by Slic3r 1.1.7 on 2015-04-13 at 22:27:55

; perimeters extrusion width = 0.35mm
; infill extrusion width = 0.39mm
; solid infill extrusion width = 0.39mm
; top infill extrusion width = 0.39mm

G21 ; set units to millimeters
G28 ; home all axes
G90 ; use absolute coordinates
G92 E0 ; reset extrusion distance
M82 ; use absolute distances for extrusion
G1 F420.000 E-0.50000 ; retract
G92 E0 ; reset extrusion distance
G1 Z0.250 F6000.000 ; move to next layer (0)
G1 X61.328 Y81.968 F6000.000 ; move to first skirt point
G1 E0.50000 F420.000 ; compensate retraction
G1 X64.255 Y79.841 E0.54478 F1800.000 ; skirt
G1 X65.405 Y79.177 E0.56122 ; skirt
G1 X68.710 Y77.706 E0.60600 ; skirt
G1 X69.972 Y77.296 E0.62243 ; skirt
G1 X73.511 Y76.543 E0.66721 ; skirt
G1 X74.831 Y76.405 E0.68365 ; skirt
G1 X78.458 Y76.405 E0.72855 ; skirt
G1 X125.178 Y76.475 E1.30688 F1800.000 ; skirt
G1 X126.489 Y76.614 E1.32320 ; skirt
G1 X130.028 Y77.366 E1.36798 ; skirt
G1 X131.290 Y77.776 E1.38441 ; skirt
G1 X134.595 Y79.247 E1.42920 ; skirt
G1 X135.745 Y79.911 E1.44563 ; skirt
G1 X138.672 Y82.038 E1.49041 ; skirt
G1 X139.658 Y82.926 E1.50685 ; skirt
G1 X142.079 Y85.614 E1.55163 ; skirt
G1 X142.859 Y86.688 E1.56806 ; skirt
G1 X144.668 Y89.822 E1.61285 ; skirt
G1 X145.208 Y91.034 E1.62928 ; skirt
G1 X146.326 Y94.475 E1.67406 ; skirt
G1 X146.602 Y95.773 E1.69049 ; skirt
G1 X146.980 Y99.371 E1.73528 ; skirt
G1 X146.980 Y100.699 E1.75171 ; skirt
G1 X146.602 Y104.297 E1.79649 ; skirt
G1 X146.326 Y105.595 E1.81292 ; skirt
G1 X145.208 Y109.036 E1.85771 ; skirt
G1 X144.668 Y110.249 E1.87414 ; skirt
G1 X142.859 Y113.382 E1.91892 ; skirt
G1 X142.079 Y114.456 E1.93536 ; skirt
G1 X139.658 Y117.144 E1.98014 ; skirt
G1 X138.672 Y118.032 E1.99657 ; skirt
G1 X135.745 Y120.159 E2.04135 ; skirt
G1 X134.595 Y120.823 E2.05779 ; skirt
G1 X131.290 Y122.294 E2.10257 ; skirt
G1 X130.028 Y122.704 E2.11900 ; skirt
G1 X126.489 Y123.457 E2.16379 ; skirt
G1 X125.169 Y123.595 E2.18022 ; skirt
G1 X74.822 Y123.525 E2.80345 ; skirt
G1 X73.511 Y123.386 E2.81977 ; skirt
G1 X69.972 Y122.634 E2.86455 ; skirt
G1 X68.710 Y122.224 E2.88099 ; skirt
G1 X65.405 Y120.753 E2.92577 ; skirt
G1 X64.255 Y120.089 E2.94220 ; skirt
G1 X61.328 Y117.962 E2.98699 ; skirt
G1 X60.342 Y117.074 E3.00342 ; skirt
G1 X57.921 Y114.386 E3.04820 ; skirt
G1 X57.141 Y113.311 E3.06463 ; skirt
G1 X55.332 Y110.178 E3.10942 ; skirt
G1 X54.792 Y108.966 E3.12585 ; skirt
G1 X53.674 Y105.525 E3.17063 ; skirt
G1 X53.398 Y104.227 E3.18706 ; skirt
G1 X53.020 Y100.629 E3.23185 ; skirt
G1 X53.020 Y99.301 E3.24828 ; skirt
G1 X53.398 Y95.703 E3.29306 ; skirt
G1 X53.674 Y94.405 E3.30949 ; skirt
G1 X54.792 Y90.964 E3.35428 ; skirt
G1 X55.332 Y89.751 E3.37071 ; skirt
G1 X57.141 Y86.618 E3.41549 ; skirt
G1 X57.921 Y85.544 E3.43193 ; skirt
G1 X60.342 Y82.856 E3.47671 ; skirt
G1 X61.289 Y82.003 E3.49249 ; skirt
G1 F420.000 E2.99249 ; retract
G92 E0 ; reset extrusion distance
G1 X69.686 Y98.930 F6000.000 ; move to first perimeter point
G1 E0.50000 F420.000 ; compensate retraction
G1 X60.541 Y98.930 E0.61320 F2100.000 ; perimeter
G1 X60.786 Y96.595 E0.64226 ; perimeter
G1 X61.833 Y93.373 E0.68421 ; perimeter
G1 X63.528 Y90.438 E0.72615 ; perimeter
G1 X65.795 Y87.920 E0.76809 ; perimeter
G1 X67.694 Y86.540 E0.79716 ; perimeter
G1 X72.267 Y94.460 E0.91036 ; perimeter
G1 X71.626 Y94.951 E0.92035 ; perimeter
G1 X70.499 Y96.420 E0.94326 ; perimeter
G1 X69.791 Y98.130 E0.96617 ; perimeter
G1 X69.693 Y98.878 E0.97551 ; perimeter
G1 X69.379 Y98.580 F6000.000 ; move to first perimeter point
G1 X60.930 Y98.580 E1.08010 F1050.000 ; perimeter
G1 X61.130 Y96.668 E1.10390 ; perimeter
G1 X62.155 Y93.516 E1.14493 ; perimeter
G1 X63.812 Y90.645 E1.18596 ; perimeter
G1 X66.030 Y88.182 E1.22700 ; perimeter
G1 X67.585 Y87.052 E1.25079 ; perimeter
G1 X71.810 Y94.369 E1.35538 ; perimeter
G1 X71.377 Y94.702 E1.36214 ; perimeter
G1 X70.194 Y96.243 E1.38620 ; perimeter
G1 X69.450 Y98.038 E1.41025 ; perimeter
G1 X69.386 Y98.528 E1.41636 ; perimeter
G1 X69.364 Y98.930 F6000.000 ; move inwards before travel
G1 F420.000 E0.91636 ; retract
G92 E0 ; reset extrusion distance
G1 X81.013 Y105.470 F6000.000 ; move to first perimeter point
G1 E0.50000 F420.000 ; compensate retraction
G1 X81.654 Y104.979 E0.50999 F2100.000 ; perimeter
G1 X82.781 Y103.510 E0.53290 ; perimeter
G1 X83.489 Y101.800 E0.55582 ; perimeter
G1 X83.594 Y101.000 E0.56581 ; perimeter
G1 X92.739 Y101.000 E0.67901 ; perimeter
G1 X92.494 Y103.335 E0.70807 ; perimeter
G1 X91.447 Y106.557 E0.75001 ; perimeter
G1 X89.752 Y109.492 E0.79196 ; perimeter
G1 X87.485 Y112.010 E0.83390 ; perimeter
G1 X85.586 Y113.390 E0.86296 ; perimeter
G1 X81.040 Y105.515 E0.97551 ; perimeter
G1 X81.470 Y105.561 F6000.000 ; move to first perimeter point
G1 X81.903 Y105.228 E0.98227 F1050.000 ; perimeter
G1 X83.086 Y103.687 E1.00633 ; perimeter
G1 X83.830 Y101.891 E1.03038 ; perimeter
G1 X83.901 Y101.350 E1.03714 ; perimeter
G1 X92.350 Y101.350 E1.14173 ; perimeter
G1 X92.150 Y103.262 E1.16553 ; perimeter
G1 X91.125 Y106.414 E1.20656 ; perimeter
G1 X89.468 Y109.285 E1.24759 ; perimeter
G1 X87.250 Y111.748 E1.28863 ; perimeter
G1 X85.695 Y112.878 E1.31242 ; perimeter
G1 X81.496 Y105.606 E1.41636 ; perimeter
G1 X81.269 Y105.274 F6000.000 ; move inwards before travel
G1 F420.000 E0.91636 ; retract
G92 E0 ; reset extrusion distance
G1 X83.594 Y98.930 F6000.000 ; move to first perimeter point
G1 E0.50000 F420.000 ; compensate retraction
G1 X83.489 Y98.130 E0.50999 F2100.000 ; perimeter
G1 X82.781 Y96.420 E0.53290 ; perimeter
G1 X81.654 Y94.951 E0.55582 ; perimeter
G1 X81.013 Y94.460 E0.56581 ; perimeter
G1 X85.586 Y86.540 E0.67901 ; perimeter
G1 X87.485 Y87.920 E0.70807 ; perimeter
G1 X89.752 Y90.438 E0.75001 ; perimeter
G1 X91.447 Y93.373 E0.79196 ; perimeter
G1 X92.494 Y96.595 E0.83390 ; perimeter
G1 X92.739 Y98.930 E0.86296 ; perimeter
G1 X83.647 Y98.930 E0.97551 ; perimeter
G1 X83.901 Y98.580 F6000.000 ; move to first perimeter point
G1 X83.830 Y98.038 E0.98227 F1050.000 ; perimeter
G1 X83.086 Y96.243 E1.00633 ; perimeter
G1 X81.903 Y94.702 E1.03038 ; perimeter
G1 X81.470 Y94.369 E1.03714 ; perimeter
G1 X85.695 Y87.052 E1.14173 ; perimeter
G1 X87.250 Y88.182 E1.16553 ; perimeter
G1 X89.468 Y90.645 E1.20656 ; perimeter
G1 X91.125 Y93.516 E1.24759 ; perimeter
G1 X92.150 Y96.668 E1.28863 ; perimeter
G1 X92.350 Y98.580 E1.31242 ; perimeter
G1 X83.954 Y98.580 E1.41636 ; perimeter
G1 X83.552 Y98.610 F6000.000 ; move inwards before travel
G1 F420.000 E0.91636 ; retract
G92 E0 ; reset extrusion distance
G1 X79.221 Y93.425 F6000.000 ; move to first perimeter point
G1 E0.50000 F420.000 ; compensate retraction
G1 X78.475 Y93.116 E0.50999 F2100.000 ; perimeter
G1 X76.640 Y92.874 E0.53290 ; perimeter
G1 X74.805 Y93.116 E0.55582 ; perimeter
G1 X74.059 Y93.425 E0.56581 ; perimeter
G1 X69.487 Y85.505 E0.67901 ; perimeter
G1 X71.631 Y84.550 E0.70807 ; perimeter
G1 X74.946 Y83.846 E0.75001 ; perimeter
G1 X78.334 Y83.846 E0.79196 ; perimeter
G1 X81.648 Y84.550 E0.83390 ; perimeter
G1 X83.793 Y85.505 E0.86296 ; perimeter
G1 X79.247 Y93.379 E0.97551 ; perimeter
G1 X79.071 Y92.984 F6000.000 ; move to first perimeter point
G1 X78.567 Y92.775 E0.98228 F1050.000 ; perimeter
G1 X76.640 Y92.521 E1.00633 ; perimeter
G1 X74.713 Y92.775 E1.03038 ; perimeter
G1 X74.209 Y92.984 E1.03714 ; perimeter
G1 X69.984 Y85.667 E1.14173 ; perimeter
G1 X71.740 Y84.885 E1.16553 ; perimeter
G1 X74.983 Y84.196 E1.20656 ; perimeter
G1 X78.297 Y84.196 E1.24759 ; perimeter
G1 X81.540 Y84.885 E1.28863 ; perimeter
G1 X83.296 Y85.667 E1.31242 ; perimeter
G1 X79.097 Y92.939 E1.41636 ; perimeter
G1 X78.923 Y93.301 F6000.000 ; move inwards before travel
G1 X78.302 Y94.848 F6000.000 ; move to first perimeter point
G1 X79.330 Y95.306 E1.43028 F2100.000 ; perimeter
G1 X80.240 Y95.967 E1.44420 ; perimeter
G1 X80.992 Y96.803 E1.45813 ; perimeter
G1 X81.555 Y97.777 E1.47205 ; perimeter
G1 X81.902 Y98.846 E1.48597 ; perimeter
G1 X82.020 Y99.965 E1.49989 ; perimeter
G1 X81.902 Y101.084 E1.51382 ; perimeter
G1 X81.555 Y102.153 E1.52774 ; perimeter
G1 X80.992 Y103.127 E1.54166 ; perimeter
G1 X80.240 Y103.963 E1.55559 ; perimeter
G1 X79.330 Y104.624 E1.56951 ; perimeter
G1 X78.302 Y105.081 E1.58343 ; perimeter
G1 X77.202 Y105.315 E1.59735 ; perimeter
G1 X76.078 Y105.315 E1.61127 ; perimeter
G1 X75.079 Y105.103 E1.62391 ; perimeter
G1 X74.977 Y105.081 E1.62520 ; perimeter
G1 X73.950 Y104.624 E1.63912 ; perimeter
G1 X73.040 Y103.963 E1.65304 ; perimeter
G1 X72.288 Y103.127 E1.66696 ; perimeter
G1 X71.725 Y102.153 E1.68088 ; perimeter
G1 X71.378 Y101.083 E1.69481 ; perimeter
G1 X71.260 Y99.965 E1.70873 ; perimeter
G1 X71.378 Y98.846 E1.72265 ; perimeter
G1 X71.725 Y97.777 E1.73657 ; perimeter
G1 X72.288 Y96.803 E1.75050 ; perimeter
G1 X73.040 Y95.967 E1.76442 ; perimeter
G1 X73.950 Y95.306 E1.77834 ; perimeter
G1 X74.977 Y94.848 E1.79226 ; perimeter
G1 X76.078 Y94.615 E1.80618 ; perimeter
G1 X77.202 Y94.615 E1.82011 ; perimeter
G1 X77.304 Y94.636 E1.82139 ; perimeter
G1 X78.251 Y94.838 E1.83338 F2100.000 ; perimeter
G1 X78.194 Y95.183 F6000.000 ; move to first perimeter point
G1 X79.154 Y95.611 E1.84639 F2100.000 ; perimeter
G1 X80.004 Y96.228 E1.85940 ; perimeter
G1 X80.708 Y97.010 E1.87241 ; perimeter
G1 X81.233 Y97.920 E1.88542 ; perimeter
G1 X81.558 Y98.919 E1.89843 ; perimeter
G1 X81.668 Y99.965 E1.91145 ; perimeter
G1 X81.558 Y101.010 E1.92446 ; perimeter
G1 X81.233 Y102.010 E1.93747 ; perimeter
G1 X80.708 Y102.920 E1.95048 ; perimeter
G1 X80.004 Y103.701 E1.96349 ; perimeter
G1 X79.154 Y104.319 E1.97650 ; perimeter
G1 X78.194 Y104.747 E1.98951 ; perimeter
G1 X77.166 Y104.965 E2.00253 ; perimeter
G1 X76.114 Y104.965 E2.01554 ; perimeter
G1 X75.086 Y104.747 E2.02855 ; perimeter
G1 X74.126 Y104.319 E2.04156 ; perimeter
G1 X73.276 Y103.701 E2.05457 ; perimeter
G1 X72.572 Y102.920 E2.06758 ; perimeter
G1 X72.047 Y102.010 E2.08059 ; perimeter
G1 X71.722 Y101.010 E2.09361 ; perimeter
G1 X71.612 Y99.965 E2.10662 ; perimeter
G1 X71.722 Y98.920 E2.11963 ; perimeter
G1 X72.047 Y97.920 E2.13264 ; perimeter
G1 X72.572 Y97.010 E2.14565 ; perimeter
G1 X73.276 Y96.229 E2.15866 ; perimeter
G1 X74.126 Y95.611 E2.17167 ; perimeter
G1 X75.086 Y95.183 E2.18469 ; perimeter
G1 X76.114 Y94.965 E2.19770 ; perimeter
G1 X77.166 Y94.965 E2.21071 F2100.000 ; perimeter
G1 X78.142 Y95.172 E2.22307 ; perimeter
G1 X78.085 Y95.518 F6000.000 ; move to first perimeter point
G1 X78.978 Y95.915 E2.23517 F1050.000 ; perimeter
G1 X79.769 Y96.490 E2.24727 ; perimeter
G1 X80.438 Y97.243 E2.25974 ; perimeter
G1 X80.912 Y98.063 E2.27147 ; perimeter
G1 X81.214 Y98.993 E2.28357 ; perimeter
G1 X81.316 Y99.965 E2.29567 ; perimeter
G1 X81.214 Y100.937 E2.30777 ; perimeter
G1 X80.912 Y101.867 E2.31987 ; perimeter
G1 X80.423 Y102.713 E2.33197 ; perimeter
G1 X79.769 Y103.440 E2.34407 ; perimeter
G1 X78.978 Y104.014 E2.35617 ; perimeter
G1 X78.085 Y104.412 E2.36827 ; perimeter
G1 X77.129 Y104.615 E2.38037 ; perimeter
G1 X76.151 Y104.615 E2.39247 ; perimeter
G1 X75.195 Y104.412 E2.40457 ; perimeter
G1 X74.302 Y104.014 E2.41667 ; perimeter
G1 X73.511 Y103.440 E2.42878 ; perimeter
G1 X72.857 Y102.713 E2.44088 ; perimeter
G1 X72.368 Y101.867 E2.45298 ; perimeter
G1 X72.066 Y100.937 E2.46508 ; perimeter
G1 X71.964 Y99.965 E2.47718 ; perimeter
G1 X72.066 Y98.993 E2.48928 ; perimeter
G1 X72.368 Y98.063 E2.50138 ; perimeter
G1 X72.857 Y97.216 E2.51348 ; perimeter
G1 X73.511 Y96.490 E2.52558 ; perimeter
G1 X74.302 Y95.915 E2.53768 ; perimeter
G1 X75.195 Y95.518 E2.54978 ; perimeter
G1 X76.151 Y95.315 E2.56188 ; perimeter
G1 X77.158 Y95.321 E2.57435 ; perimeter
G1 X78.034 Y95.507 E2.58543 F1050.000 ; perimeter
G1 X77.207 Y94.974 F6000.000 ; move inwards before travel
G1 F420.000 E2.08543 ; retract
G92 E0 ; reset extrusion distance
G1 X69.686 Y101.000 F6000.000 ; move to first perimeter point
G1 E0.50000 F420.000 ; compensate retraction
G1 X69.791 Y101.800 E0.50999 F2100.000 ; perimeter
G1 X70.499 Y103.510 E0.53290 ; perimeter
G1 X71.626 Y104.979 E0.55582 ; perimeter
G1 X72.267 Y105.470 E0.56581 ; perimeter
G1 X67.694 Y113.390 E0.67901 ; perimeter
G1 X65.795 Y112.010 E0.70807 ; perimeter
G1 X63.528 Y109.492 E0.75001 ; perimeter
G1 X61.881 Y106.641 E0.79077 ; perimeter
G1 X61.833 Y106.557 E0.79196 ; perimeter
G1 X60.786 Y103.335 E0.83390 ; perimeter
G1 X60.541 Y101.000 E0.86296 ; perimeter
G1 X69.633 Y101.000 E0.97551 ; perimeter
G1 X69.379 Y101.350 F6000.000 ; move to first perimeter point
G1 X69.450 Y101.891 E0.98228 F1050.000 ; perimeter
G1 X70.194 Y103.687 E1.00633 ; perimeter
G1 X71.377 Y105.228 E1.03038 ; perimeter
G1 X71.810 Y105.561 E1.03714 ; perimeter
G1 X67.585 Y112.878 E1.14173 ; perimeter
G1 X66.030 Y111.748 E1.16553 ; perimeter
G1 X63.812 Y109.285 E1.20656 ; perimeter
G1 X62.185 Y106.466 E1.24686 ; perimeter
G1 X61.130 Y103.262 E1.28861 ; perimeter
G1 X60.930 Y101.350 E1.31241 ; perimeter
G1 X69.326 Y101.350 E1.41635 ; perimeter
G1 X69.728 Y101.319 F6000.000 ; move inwards before travel
G1 F420.000 E0.91635 ; retract
G92 E0 ; reset extrusion distance
G1 X74.059 Y106.505 F6000.000 ; move to first perimeter point
G1 E0.50000 F420.000 ; compensate retraction
G1 X74.805 Y106.814 E0.50999 F2100.000 ; perimeter
G1 X76.640 Y107.055 E0.53290 ; perimeter
G1 X78.475 Y106.814 E0.55582 ; perimeter
G1 X79.221 Y106.505 E0.56581 ; perimeter
G1 X83.793 Y114.425 E0.67901 ; perimeter
G1 X81.649 Y115.380 E0.70807 ; perimeter
G1 X78.334 Y116.084 E0.75001 ; perimeter
G1 X74.946 Y116.084 E0.79196 ; perimeter
G1 X71.631 Y115.380 E0.83390 ; perimeter
G1 X69.487 Y114.425 E0.86296 ; perimeter
G1 X74.033 Y106.550 E0.97551 ; perimeter
G1 X74.209 Y106.946 F6000.000 ; move to first perimeter point
G1 X74.713 Y107.155 E0.98228 F1050.000 ; perimeter
G1 X76.640 Y107.408 E1.00633 ; perimeter
G1 X78.567 Y107.155 E1.03038 ; perimeter
G1 X79.071 Y106.946 E1.03714 ; perimeter
G1 X83.296 Y114.263 E1.14173 ; perimeter
G1 X81.540 Y115.045 E1.16553 ; perimeter
G1 X78.297 Y115.734 E1.20656 ; perimeter
G1 X74.983 Y115.734 E1.24759 ; perimeter
G1 X71.740 Y115.045 E1.28863 ; perimeter
G1 X69.984 Y114.263 E1.31242 ; perimeter
G1 X74.183 Y106.991 E1.41636 ; perimeter
G1 X74.357 Y106.629 F6000.000 ; move inwards before travel
G1 X73.910 Y106.064 F6000.000 ; move to first perimeter point
G1 X69.057 Y114.470 E1.53651 F2100.000 ; perimeter
G1 X68.427 Y114.190 E1.54504 ; perimeter
G1 X67.870 Y113.785 E1.55356 ; perimeter
G1 X72.723 Y105.379 E1.67371 ; perimeter
G1 X71.876 Y104.729 E1.68693 ; perimeter
G1 X70.805 Y103.334 E1.70870 ; perimeter
G1 X70.132 Y101.709 E1.73047 ; perimeter
G1 X69.993 Y100.650 E1.74369 ; perimeter
G1 X60.287 Y100.650 E1.86384 ; perimeter
G1 X60.215 Y99.965 E1.87236 ; perimeter
G1 X60.287 Y99.280 E1.88089 ; perimeter
G1 X69.993 Y99.280 E2.00104 ; perimeter
G1 X70.132 Y98.221 E2.01426 ; perimeter
G1 X70.805 Y96.596 E2.03603 ; perimeter
G1 X71.876 Y95.201 E2.05780 ; perimeter
G1 X72.723 Y94.551 E2.07102 ; perimeter
G1 X67.870 Y86.145 E2.19117 ; perimeter
G1 X68.427 Y85.740 E2.19969 ; perimeter
G1 X69.057 Y85.460 E2.20822 ; perimeter
G1 X73.910 Y93.866 E2.32837 ; perimeter
G1 X74.896 Y93.457 E2.34159 ; perimeter
G1 X76.640 Y93.227 E2.36336 ; perimeter
G1 X78.384 Y93.457 E2.38513 ; perimeter
G1 X79.370 Y93.866 E2.39835 ; perimeter
G1 X84.223 Y85.460 E2.51850 ; perimeter
G1 X84.853 Y85.740 E2.52702 ; perimeter
G1 X85.410 Y86.145 E2.53555 ; perimeter
G1 X80.557 Y94.551 E2.65570 ; perimeter
G1 X81.404 Y95.201 E2.66891 ; perimeter
G1 X82.475 Y96.596 E2.69069 ; perimeter
G1 X83.148 Y98.221 E2.71246 ; perimeter
G1 X83.287 Y99.280 E2.72568 ; perimeter
G1 X92.993 Y99.280 E2.84583 ; perimeter
G1 X93.065 Y99.965 E2.85435 ; perimeter
G1 X92.993 Y100.650 E2.86288 ; perimeter
G1 X83.287 Y100.650 E2.98302 ; perimeter
G1 X83.148 Y101.709 E2.99624 ; perimeter
G1 X82.475 Y103.334 E3.01802 ; perimeter
G1 X81.404 Y104.729 E3.03979 ; perimeter
G1 X80.557 Y105.379 E3.05301 ; perimeter
G1 X85.410 Y113.785 E3.17315 ; perimeter
G1 X84.853 Y114.190 E3.18168 ; perimeter
G1 X84.223 Y114.470 E3.19021 ; perimeter
G1 X79.370 Y106.064 E3.31035 ; perimeter
