; generated by Slic3r 0.9.8 on 2013-03-09 at 11:45:47

; layer_height = 0.25
; perimeters = 3
; top_solid_layers = 4
; bottom_solid_layers = 4
; fill_density = 0.15
; perimeter_speed = 70
; infill_speed = 90
; travel_speed = 100
; scale = 1
; nozzle_diameter = 0.35
; filament_diameter = 3
; extrusion_multiplier = 1
; perimeters extrusion width = 0.39mm
; infill extrusion width = 0.39mm
; first layer extrusion width = 0.39mm

G28 ; home all axes
G90 ; use absolute coordinates
G21 ; set units to millimeters
G92 E0 ; reset extrusion distance
M82 ; use absolute distances for extrusion
G1 F420.000 E-0.50000 ; retract
G92 E0 ; reset extrusion distance
G1 Z0.250 F6000.000 ; move to next layer (0)
G1 X131.937 Y124.130 ; move to first skirt point
G1 F420.000 E0.50000 ; compensate retraction
G1 X131.637 Y124.260 F2100.000 E0.50445 ; skirt
G1 X131.317 Y124.370 E0.50906 ; skirt
G1 X130.687 Y124.540 E0.51794 ; skirt
G1 X130.357 Y124.600 E0.52250 ; skirt
G1 X128.427 Y124.810 E0.54893 ; skirt
G1 X127.767 Y124.840 E0.55792 ; skirt
G1 X91.767 Y124.910 E1.04792 ; skirt
G1 X71.967 Y124.910 E1.31742 ; skirt
G1 X71.017 Y124.880 E1.33036 ; skirt
G1 X70.197 Y124.760 E1.34164 ; skirt
G1 X68.107 Y124.240 E1.37095 ; skirt
G1 X67.517 Y124.060 E1.37935 ; skirt
G1 X66.957 Y123.830 E1.38759 ; skirt
G1 X66.427 Y123.550 E1.39575 ; skirt
G1 X64.347 Y122.190 E1.42957 ; skirt
G1 X63.667 Y121.620 E1.44165 ; skirt
G1 X63.257 Y121.190 E1.44974 ; skirt
G1 X61.907 Y119.480 E1.47939 ; skirt
G1 X61.557 Y118.980 E1.48770 ; skirt
G1 X61.397 Y118.710 E1.49197 ; skirt
G1 X61.247 Y118.440 E1.49617 ; skirt
G1 X60.997 Y117.880 E1.50452 ; skirt
G1 X60.287 Y115.820 E1.53418 ; skirt
G1 X60.127 Y115.250 E1.54224 ; skirt
G1 X59.977 Y114.370 E1.55439 ; skirt
G1 X59.957 Y114.070 E1.55848 ; skirt
G1 X59.957 Y85.990 E1.94068 ; skirt
G1 X60.017 Y85.400 E1.94875 ; skirt
G1 X60.197 Y84.520 E1.96098 ; skirt
G1 X60.887 Y82.470 E1.99042 ; skirt
G1 X60.997 Y82.180 E1.99464 ; skirt
G1 X61.247 Y81.630 E2.00286 ; skirt
G1 X61.387 Y81.360 E2.00700 ; skirt
G1 X61.717 Y80.840 E2.01539 ; skirt
G1 X63.247 Y78.870 E2.04934 ; skirt
G1 X63.667 Y78.430 E2.05762 ; skirt
G1 X64.127 Y78.030 E2.06591 ; skirt
G1 X64.617 Y77.680 E2.07411 ; skirt
G1 X66.187 Y76.660 E2.09959 ; skirt
G1 X66.707 Y76.350 E2.10783 ; skirt
G1 X67.247 Y76.100 E2.11593 ; skirt
G1 X67.527 Y75.990 E2.12003 ; skirt
G1 X68.107 Y75.820 E2.12825 ; skirt
G1 X70.197 Y75.300 E2.15757 ; skirt
G1 X71.017 Y75.180 E2.16885 ; skirt
G1 X71.967 Y75.150 E2.18179 ; skirt
G1 X108.147 Y75.080 E2.67424 ; skirt
G1 X127.757 Y75.080 E2.94115 ; skirt
G1 X128.467 Y75.120 E2.95083 ; skirt
G1 X130.387 Y75.340 E2.97713 ; skirt
G1 X131.007 Y75.470 E2.98576 ; skirt
G1 X131.317 Y75.560 E2.99015 ; skirt
G1 X131.907 Y75.790 E2.99877 ; skirt
G1 X133.907 Y76.670 E3.02851 ; skirt
G1 X134.437 Y76.960 E3.03673 ; skirt
G1 X134.937 Y77.300 E3.04496 ; skirt
G1 X135.177 Y77.490 E3.04913 ; skirt
G1 X136.777 Y78.960 E3.07870 ; skirt
G1 X137.207 Y79.390 E3.08698 ; skirt
G1 X137.407 Y79.620 E3.09113 ; skirt
G1 X137.767 Y80.110 E3.09940 ; skirt
G1 X138.077 Y80.630 E3.10764 ; skirt
G1 X139.107 Y82.550 E3.13730 ; skirt
G1 X139.437 Y83.380 E3.14946 ; skirt
G1 X139.647 Y84.250 E3.16164 ; skirt
G1 X139.957 Y86.100 E3.18717 ; skirt
G1 X140.037 Y87.160 E3.20164 ; skirt
G1 X140.037 Y112.760 E3.55008 ; skirt
G1 X139.957 Y113.820 E3.56455 ; skirt
G1 X139.647 Y115.670 E3.59009 ; skirt
G1 X139.437 Y116.540 E3.60227 ; skirt
G1 X139.107 Y117.370 E3.61442 ; skirt
G1 X138.077 Y119.290 E3.64408 ; skirt
G1 X137.767 Y119.810 E3.65232 ; skirt
G1 X137.407 Y120.300 E3.66060 ; skirt
G1 X136.997 Y120.750 E3.66888 ; skirt
G1 X135.177 Y122.430 E3.70260 ; skirt
G1 X134.947 Y122.610 E3.70657 ; skirt
G1 X134.447 Y122.950 E3.71480 ; skirt
G1 X133.927 Y123.240 E3.72290 ; skirt
G1 X131.990 Y124.107 E3.75179 ; skirt
G1 X131.937 Y124.130 E3.75258 ; skirt
G1 F420.000 E3.25258 ; retract
G92 E0 ; reset extrusion distance
G1 X130.682 Y113.894 F6000.000 ; move to first perimeter point
G1 F420.000 E0.50000 ; compensate retraction
G1 X129.087 Y115.489 F1500.000 E0.53070 ; perimeter
G1 X126.832 Y115.489 E0.56139 ; perimeter
G1 X125.238 Y113.894 E0.59209 ; perimeter
G1 X125.238 Y111.639 E0.62278 ; perimeter
G1 X126.832 Y110.044 E0.65348 ; perimeter
G1 X129.087 Y110.044 E0.68417 ; perimeter
G1 X130.682 Y111.639 E0.71487 ; perimeter
G1 X130.682 Y113.837 E0.74478 ; perimeter
G1 X130.682 Y113.894 E0.74557 ; perimeter
G1 X130.297 Y113.735 F6000.000 ; move to first perimeter point
G1 X128.928 Y115.104 F1500.000 E0.77192 ; perimeter
G1 X126.992 Y115.104 E0.79828 ; perimeter
G1 X125.622 Y113.735 E0.82464 ; perimeter
G1 X125.622 Y111.798 E0.85099 ; perimeter
G1 X126.992 Y110.429 E0.87735 ; perimeter
G1 X128.928 Y110.429 E0.90370 ; perimeter
G1 X130.297 Y111.798 E0.93006 ; perimeter
G1 X130.297 Y113.677 E0.95563 ; perimeter
G1 X130.297 Y113.735 E0.95642 ; perimeter
G1 X129.912 Y113.575 F6000.000 ; move to first perimeter point
G1 X128.769 Y114.719 F1500.000 E0.97843 ; perimeter
G1 X127.151 Y114.719 E1.00045 ; perimeter
G1 X126.007 Y113.575 E1.02247 ; perimeter
G1 X126.007 Y111.958 E1.04448 ; perimeter
G1 X127.151 Y110.814 E1.06650 ; perimeter
G1 X128.769 Y110.814 E1.08852 ; perimeter
G1 X129.912 Y111.958 E1.11053 ; perimeter
G1 X129.912 Y113.518 E1.13177 ; perimeter
G1 X129.912 Y113.575 E1.13255 ; perimeter
G1 X130.105 Y113.909 F6000.000 ; move inwards before travel
G1 F420.000 E0.63255 ; retract
G92 E0 ; reset extrusion distance
G1 X110.682 Y113.894 F6000.000 ; move to first perimeter point
G1 F420.000 E0.50000 ; compensate retraction
G1 X109.087 Y115.489 F1500.000 E0.53070 ; perimeter
G1 X106.832 Y115.489 E0.56139 ; perimeter
G1 X105.237 Y113.894 E0.59209 ; perimeter
G1 X105.237 Y111.639 E0.62278 ; perimeter
G1 X106.832 Y110.044 E0.65348 ; perimeter
G1 X109.087 Y110.044 E0.68417 ; perimeter
G1 X110.682 Y111.639 E0.71487 ; perimeter
G1 X110.682 Y113.837 E0.74478 ; perimeter
G1 X110.682 Y113.894 E0.74557 ; perimeter
G1 X110.297 Y113.735 F6000.000 ; move to first perimeter point
G1 X108.928 Y115.104 F1500.000 E0.77192 ; perimeter
G1 X106.992 Y115.104 E0.79828 ; perimeter
G1 X105.622 Y113.735 E0.82464 ; perimeter
G1 X105.622 Y111.798 E0.85099 ; perimeter
G1 X106.992 Y110.429 E0.87735 ; perimeter
G1 X108.928 Y110.429 E0.90370 ; perimeter
G1 X110.297 Y111.798 E0.93006 ; perimeter
G1 X110.297 Y113.677 E0.95563 ; perimeter
G1 X110.297 Y113.735 E0.95642 ; perimeter
G1 X109.912 Y113.575 F6000.000 ; move to first perimeter point
G1 X108.769 Y114.719 F1500.000 E0.97843 ; perimeter
G1 X107.151 Y114.719 E1.00045 ; perimeter
G1 X106.007 Y113.575 E1.02247 ; perimeter
G1 X106.007 Y111.958 E1.04448 ; perimeter
G1 X107.151 Y110.814 E1.06650 ; perimeter
G1 X108.769 Y110.814 E1.08852 ; perimeter
G1 X109.912 Y111.958 E1.11053 ; perimeter
G1 X109.912 Y113.518 E1.13177 ; perimeter
G1 X109.912 Y113.575 E1.13255 ; perimeter
G1 X110.105 Y113.909 F6000.000 ; move inwards before travel
G1 F420.000 E0.63255 ; retract
G92 E0 ; reset extrusion distance
G1 X129.168 Y107.997 F6000.000 ; move to first perimeter point
G1 F420.000 E0.50000 ; compensate retraction
G1 X130.651 Y108.648 F2100.000 E0.52204 ; perimeter
G1 X131.842 Y109.745 E0.54409 ; perimeter
G1 X132.613 Y111.169 E0.56613 ; perimeter
G1 X132.880 Y112.767 E0.58817 ; perimeter
G1 X132.613 Y114.364 E0.61022 ; perimeter
G1 X131.842 Y115.788 E0.63226 ; perimeter
G1 X130.651 Y116.885 E0.65430 ; perimeter
G1 X129.168 Y117.536 E0.67635 ; perimeter
G1 X127.190 Y117.700 E0.70336 ; perimeter
G1 X108.927 Y117.700 E0.95194 ; perimeter
G1 X108.927 Y117.556 E0.95390 ; perimeter
G1 X107.554 Y117.670 E0.97265 ; perimeter
G1 X105.983 Y117.272 E0.99470 ; perimeter
G1 X104.628 Y116.386 E1.01674 ; perimeter
G1 X103.633 Y115.108 E1.03878 ; perimeter
G1 X103.107 Y113.576 E1.06083 ; perimeter
G1 X103.107 Y111.957 E1.08287 ; perimeter
G1 X103.633 Y110.425 E1.10491 ; perimeter
G1 X104.628 Y109.147 E1.12696 ; perimeter
G1 X105.984 Y108.261 E1.14900 ; perimeter
G1 X107.553 Y107.864 E1.17105 ; perimeter
G1 X108.927 Y107.977 E1.18980 ; perimeter
G1 X108.927 Y107.834 E1.19176 ; perimeter
G1 X127.189 Y107.834 E1.44034 ; perimeter
G1 X129.110 Y107.993 E1.46657 ; perimeter
G1 X129.168 Y107.997 E1.46735 ; perimeter
G1 X129.263 Y107.619 F6000.000 ; move to first perimeter point
G1 X130.864 Y108.321 F2100.000 E1.49114 ; perimeter
G1 X132.150 Y109.505 E1.51493 ; perimeter
G1 X132.982 Y111.043 E1.53873 ; perimeter
G1 X133.270 Y112.767 E1.56252 ; perimeter
G1 X132.982 Y114.491 E1.58631 ; perimeter
G1 X132.150 Y116.028 E1.61010 ; perimeter
G1 X130.864 Y117.212 E1.63389 ; perimeter
G1 X129.263 Y117.914 E1.65768 ; perimeter
G1 X127.205 Y118.085 E1.68579 ; perimeter
G1 X108.542 Y118.085 E1.93982 ; perimeter
G1 X108.542 Y117.974 E1.94133 ; perimeter
G1 X107.521 Y118.058 E1.95527 ; perimeter
G1 X105.827 Y117.629 E1.97906 ; perimeter
G1 X104.363 Y116.673 E2.00285 ; perimeter
G1 X103.290 Y115.294 E2.02664 ; perimeter
G1 X102.722 Y113.641 E2.05043 ; perimeter
G1 X102.722 Y111.893 E2.07423 ; perimeter
G1 X103.290 Y110.239 E2.09802 ; perimeter
G1 X104.363 Y108.860 E2.12181 ; perimeter
G1 X105.827 Y107.904 E2.14560 ; perimeter
G1 X107.521 Y107.475 E2.16939 ; perimeter
G1 X108.542 Y107.559 E2.18333 ; perimeter
G1 X108.542 Y107.449 E2.18484 ; perimeter
G1 X127.205 Y107.449 E2.43887 ; perimeter
G1 X129.206 Y107.614 E2.46619 ; perimeter
G1 X129.263 Y107.619 E2.46698 ; perimeter
G1 X129.359 Y107.241 F6000.000 ; move to first perimeter point
G1 X131.077 Y107.995 F1050.000 E2.49252 ; perimeter
G1 X132.458 Y109.266 E2.51806 ; perimeter
G1 X133.351 Y110.916 E2.54360 ; perimeter
G1 X133.660 Y112.767 E2.56914 ; perimeter
G1 X133.351 Y114.617 E2.59468 ; perimeter
G1 X132.458 Y116.268 E2.62022 ; perimeter
G1 X131.077 Y117.539 E2.64576 ; perimeter
G1 X129.359 Y118.292 E2.67130 ; perimeter
G1 X127.763 Y118.425 E2.69310 ; perimeter
G1 X127.763 Y118.469 E2.69371 ; perimeter
G1 X108.157 Y118.469 E2.96057 ; perimeter
G1 X108.157 Y118.392 E2.96162 ; perimeter
G1 X107.489 Y118.447 E2.97074 ; perimeter
G1 X105.670 Y117.987 E2.99628 ; perimeter
G1 X104.099 Y116.960 E3.02182 ; perimeter
G1 X102.947 Y115.480 E3.04736 ; perimeter
G1 X102.337 Y113.705 E3.07290 ; perimeter
G1 X102.337 Y111.828 E3.09844 ; perimeter
G1 X102.947 Y110.054 E3.12398 ; perimeter
G1 X104.099 Y108.573 E3.14952 ; perimeter
G1 X105.670 Y107.547 E3.17506 ; perimeter
G1 X107.489 Y107.086 E3.20060 ; perimeter
G1 X108.157 Y107.141 E3.20972 ; perimeter
G1 X108.157 Y107.064 E3.21078 ; perimeter
G1 X127.763 Y107.064 E3.47763 ; perimeter
G1 X127.763 Y107.109 E3.47825 ; perimeter
G1 X129.302 Y107.236 E3.49926 ; perimeter
G1 X129.359 Y107.241 E3.50005 ; perimeter
G1 X129.443 Y107.617 F6000.000 ; move inwards before travel
G1 F420.000 E3.00005 ; retract
G92 E0 ; reset extrusion distance
G1 X130.121 Y103.710 F6000.000 ; move to first perimeter point
G1 F420.000 E0.50000 ; compensate retraction
G1 X125.799 Y103.710 F1500.000 E0.55883 ; perimeter
G1 X123.638 Y99.967 E0.61766 ; perimeter
G1 X125.799 Y96.224 E0.67648 ; perimeter
G1 X130.121 Y96.224 E0.73531 ; perimeter
G1 X132.282 Y99.967 E0.79414 ; perimeter
G1 X130.150 Y103.660 E0.85218 ; perimeter
G1 X130.121 Y103.710 E0.85297 ; perimeter
G1 X129.899 Y103.325 F6000.000 ; move to first perimeter point
G1 X126.021 Y103.325 F1500.000 E0.90575 ; perimeter
G1 X124.082 Y99.967 E0.95853 ; perimeter
G1 X126.021 Y96.608 E1.01131 ; perimeter
G1 X129.899 Y96.608 E1.06409 ; perimeter
G1 X131.837 Y99.967 E1.11687 ; perimeter
G1 X129.927 Y103.275 E1.16886 ; perimeter
G1 X129.899 Y103.325 E1.16965 ; perimeter
G1 X129.832 Y103.704 F6000.000 ; move inwards before travel
G1 F420.000 E0.66965 ; retract
G92 E0 ; reset extrusion distance
G1 X112.282 Y99.967 F6000.000 ; move to first perimeter point
G1 F420.000 E0.50000 ; compensate retraction
G1 X110.121 Y103.710 F1500.000 E0.55883 ; perimeter
G1 X105.799 Y103.710 E0.61766 ; perimeter
G1 X103.638 Y99.967 E0.67648 ; perimeter
G1 X105.799 Y96.224 E0.73531 ; perimeter
G1 X110.121 Y96.224 E0.79414 ; perimeter
G1 X112.253 Y99.917 E0.85218 ; perimeter
G1 X112.282 Y99.967 E0.85297 ; perimeter
G1 X111.837 Y99.967 F6000.000 ; move to first perimeter point
G1 X109.899 Y103.325 F1500.000 E0.90575 ; perimeter
G1 X106.021 Y103.325 E0.95853 ; perimeter
G1 X104.082 Y99.967 E1.01131 ; perimeter
G1 X106.021 Y96.608 E1.06409 ; perimeter
G1 X109.899 Y96.608 E1.11687 ; perimeter
G1 X111.809 Y99.917 E1.16886 ; perimeter
G1 X111.837 Y99.967 E1.16965 ; perimeter
G1 X112.132 Y100.214 F6000.000 ; move inwards before travel
G1 F420.000 E0.66965 ; retract
G92 E0 ; reset extrusion distance
G1 X105.586 Y95.721 F6000.000 ; move to first perimeter point
G1 F420.000 E0.50000 ; compensate retraction
G1 X105.983 Y95.461 F2100.000 E0.50646 ; perimeter
G1 X107.553 Y95.064 E0.52850 ; perimeter
G1 X108.927 Y95.177 E0.54725 ; perimeter
G1 X108.927 Y95.034 E0.54921 ; perimeter
G1 X127.189 Y95.034 E0.79779 ; perimeter
G1 X129.168 Y95.197 E0.82481 ; perimeter
G1 X130.219 Y95.658 E0.84043 ; perimeter
G1 X130.181 Y95.839 E0.84294 ; perimeter
G1 X125.577 Y95.839 E0.90560 ; perimeter
G1 X123.193 Y99.967 E0.97048 ; perimeter
G1 X125.577 Y104.095 E1.03536 ; perimeter
G1 X130.181 Y104.095 E1.09802 ; perimeter
G1 X130.219 Y104.275 E1.10053 ; perimeter
G1 X129.168 Y104.736 E1.11615 ; perimeter
G1 X127.189 Y104.900 E1.14317 ; perimeter
G1 X108.927 Y104.900 E1.39175 ; perimeter
G1 X108.927 Y104.756 E1.39371 ; perimeter
G1 X107.553 Y104.870 E1.41246 ; perimeter
G1 X105.983 Y104.472 E1.43450 ; perimeter
G1 X105.586 Y104.213 E1.44096 ; perimeter
G1 X105.622 Y104.095 E1.44264 ; perimeter
G1 X110.343 Y104.095 E1.50690 ; perimeter
G1 X112.726 Y99.967 E1.57178 ; perimeter
G1 X110.343 Y95.839 E1.63665 ; perimeter
G1 X105.622 Y95.839 E1.70092 ; perimeter
G1 X105.603 Y95.776 E1.70181 ; perimeter
G1 X105.586 Y95.721 E1.70259 ; perimeter
G1 F420.000 E1.20259 ; retract
G92 E0 ; reset extrusion distance
G1 X130.567 Y104.162 F6000.000 ; move to first perimeter point
G1 F420.000 E0.50000 ; compensate retraction
G1 X130.387 Y104.018 F1500.000 E0.50314 ; perimeter
G1 X132.652 Y100.096 E0.56478 ; perimeter
G1 X132.846 Y100.166 E0.56759 ; perimeter
G1 X132.613 Y101.564 E0.58689 ; perimeter
G1 X131.842 Y102.988 E0.60893 ; perimeter
G1 X130.610 Y104.123 E0.63173 ; perimeter
G1 X130.567 Y104.162 E0.63251 ; perimeter
G1 F420.000 E0.13251 ; retract
G92 E0 ; reset extrusion distance
G1 X104.628 Y103.586 F6000.000 ; move to first perimeter point
G1 F420.000 E0.50000 ; compensate retraction
G1 X103.633 Y102.308 F1500.000 E0.52204 ; perimeter
G1 X103.107 Y100.776 E0.54409 ; perimeter
G1 X103.107 Y100.093 E0.55339 ; perimeter
G1 X103.245 Y100.056 E0.55533 ; perimeter
G1 X105.505 Y103.970 E0.61685 ; perimeter
G1 X105.386 Y104.082 E0.61907 ; perimeter
G1 X104.676 Y103.618 E0.63062 ; perimeter
G1 X104.628 Y103.586 E0.63141 ; perimeter
G1 F420.000 E0.13141 ; retract
G92 E0 ; reset extrusion distance
G1 X103.107 Y99.841 F6000.000 ; move to first perimeter point
G1 F420.000 E0.50000 ; compensate retraction
G1 X103.107 Y99.157 F1500.000 E0.50931 ; perimeter
G1 X103.633 Y97.625 E0.53135 ; perimeter
G1 X104.628 Y96.347 E0.55339 ; perimeter
G1 X105.386 Y95.851 E0.56573 ; perimeter
G1 X105.505 Y95.963 E0.56795 ; perimeter
G1 X103.245 Y99.878 E0.62947 ; perimeter
G1 X103.163 Y99.856 E0.63062 ; perimeter
G1 X103.107 Y99.841 E0.63141 ; perimeter
G1 F420.000 E0.13141 ; retract
G92 E0 ; reset extrusion distance
G1 X132.846 Y99.767 F6000.000 ; move to first perimeter point
G1 F420.000 E0.50000 ; compensate retraction
G1 X132.652 Y99.837 F1500.000 E0.50282 ; perimeter
G1 X130.387 Y95.916 E0.56445 ; perimeter
G1 X130.567 Y95.771 E0.56759 ; perimeter
G1 X131.842 Y96.945 E0.59117 ; perimeter
G1 X132.613 Y98.369 E0.61322 ; perimeter
G1 X132.837 Y99.711 E0.63173 ; perimeter
G1 X132.846 Y99.767 E0.63251 ; perimeter
G1 X133.270 Y99.967 F6000.000 ; move to first perimeter point
G1 X132.982 Y101.691 F2100.000 E0.65630 ; perimeter
G1 X132.150 Y103.228 E0.68010 ; perimeter
G1 X130.864 Y104.412 E0.70389 ; perimeter
G1 X129.263 Y105.114 E0.72768 ; perimeter
G1 X127.205 Y105.285 E0.75579 ; perimeter
