; generated by Slic3r 0.9.9 on 2013-11-21 at 21:54:52

; layer_height = 0.25
; perimeters = 3
; top_solid_layers = 4
; bottom_solid_layers = 4
; fill_density = 0.15
; perimeter_speed = 70
; infill_speed = 90
; travel_speed = 100
; nozzle_diameter = 0.35
; filament_diameter = 3.0
; extrusion_multiplier = 1
; perimeters extrusion width = 0.39mm
; infill extrusion width = 0.39mm
; solid infill extrusion width = 0.39mm
; top infill extrusion width = 0.39mm

G21 ; set units to millimeters
G28 ; home all axes
G90 ; use absolute coordinates
G92 E0 ; reset extrusion distance
M82 ; use absolute distances for extrusion
G1 F420.000 E-0.50000 ; retract
G92 E0 ; reset extrusion distance
G1 Z0.250 F6000.000 ; move to next layer (0)
G1 X90.400 Y86.180 ; move to first skirt point
G1 F420.000 E0.50000 ; compensate retraction
G1 X90.780 Y85.800 F2100.000 E0.50731 ; skirt
G1 X91.180 Y85.460 E0.51446 ; skirt
G1 X91.610 Y85.150 E0.52168 ; skirt
G1 X92.060 Y84.880 E0.52882 ; skirt
G1 X92.780 Y84.550 E0.53960 ; skirt
G1 X93.280 Y84.380 E0.54679 ; skirt
G1 X93.790 Y84.250 E0.55395 ; skirt
G1 X94.310 Y84.160 E0.56113 ; skirt
G1 X94.840 Y84.120 E0.56837 ; skirt
G1 X105.160 Y84.120 E0.70883 ; skirt
G1 X105.690 Y84.160 E0.71607 ; skirt
G1 X106.470 Y84.310 E0.72688 ; skirt
G1 X107.220 Y84.550 E0.73760 ; skirt
G1 X107.940 Y84.880 E0.74838 ; skirt
G1 X108.610 Y85.300 E0.75914 ; skirt
G1 X109.220 Y85.800 E0.76988 ; skirt
G1 X109.770 Y86.370 E0.78066 ; skirt
G1 X110.250 Y87.010 E0.79155 ; skirt
G1 X110.520 Y87.460 E0.79869 ; skirt
G1 X110.640 Y87.700 E0.80234 ; skirt
G1 X110.850 Y88.180 E0.80947 ; skirt
G1 X111.020 Y88.680 E0.81666 ; skirt
G1 X111.200 Y89.450 E0.82742 ; skirt
G1 X111.240 Y89.710 E0.83101 ; skirt
G1 X111.280 Y90.240 E0.83824 ; skirt
G1 X111.280 Y109.760 E1.10393 ; skirt
G1 X111.240 Y110.290 E1.11116 ; skirt
G1 X111.090 Y111.070 E1.12197 ; skirt
G1 X110.850 Y111.820 E1.13269 ; skirt
G1 X110.520 Y112.540 E1.14347 ; skirt
G1 X110.100 Y113.210 E1.15424 ; skirt
G1 X109.600 Y113.820 E1.16497 ; skirt
G1 X109.030 Y114.370 E1.17575 ; skirt
G1 X108.390 Y114.850 E1.18664 ; skirt
G1 X107.940 Y115.120 E1.19378 ; skirt
G1 X107.700 Y115.240 E1.19744 ; skirt
G1 X107.220 Y115.450 E1.20457 ; skirt
G1 X106.720 Y115.620 E1.21176 ; skirt
G1 X105.950 Y115.800 E1.22252 ; skirt
G1 X105.690 Y115.840 E1.22610 ; skirt
G1 X105.160 Y115.880 E1.23333 ; skirt
G1 X94.840 Y115.880 E1.37380 ; skirt
G1 X94.310 Y115.840 E1.38104 ; skirt
G1 X93.530 Y115.690 E1.39185 ; skirt
G1 X92.780 Y115.450 E1.40256 ; skirt
G1 X92.060 Y115.120 E1.41335 ; skirt
G1 X91.610 Y114.850 E1.42049 ; skirt
G1 X91.180 Y114.540 E1.42770 ; skirt
G1 X90.780 Y114.200 E1.43485 ; skirt
G1 X90.230 Y113.630 E1.44563 ; skirt
G1 X89.750 Y112.990 E1.45652 ; skirt
G1 X89.480 Y112.540 E1.46366 ; skirt
G1 X89.360 Y112.300 E1.46731 ; skirt
G1 X89.150 Y111.820 E1.47445 ; skirt
G1 X88.980 Y111.320 E1.48163 ; skirt
G1 X88.800 Y110.550 E1.49240 ; skirt
G1 X88.760 Y110.290 E1.49598 ; skirt
G1 X88.720 Y109.760 E1.50321 ; skirt
G1 X88.720 Y90.240 E1.76890 ; skirt
G1 X88.760 Y89.710 E1.77613 ; skirt
G1 X88.850 Y89.190 E1.78332 ; skirt
G1 X88.980 Y88.680 E1.79048 ; skirt
G1 X89.150 Y88.180 E1.79767 ; skirt
G1 X89.480 Y87.460 E1.80845 ; skirt
G1 X89.750 Y87.010 E1.81559 ; skirt
G1 X90.060 Y86.580 E1.82281 ; skirt
G1 X90.362 Y86.223 E1.82917 ; skirt
G1 F420.000 E1.32917 ; retract
G92 E0 ; reset extrusion distance
G1 X98.311 Y97.975 F6000.000 ; move to first perimeter point
G1 F420.000 E0.50000 ; compensate retraction
G1 X99.112 Y97.567 F1500.000 E0.51224 ; perimeter
G1 X100.000 Y97.426 E0.52448 ; perimeter
G1 X100.701 Y97.537 E0.53414 ; perimeter
G1 X100.888 Y97.567 E0.53672 ; perimeter
G1 X101.689 Y97.975 E0.54896 ; perimeter
G1 X102.325 Y98.611 E0.56120 ; perimeter
G1 X102.733 Y99.412 E0.57344 ; perimeter
G1 X102.874 Y100.300 E0.58568 ; perimeter
G1 X102.733 Y101.188 E0.59791 ; perimeter
G1 X102.325 Y101.989 E0.61015 ; perimeter
G1 X101.689 Y102.625 E0.62239 ; perimeter
G1 X100.888 Y103.033 E0.63463 ; perimeter
G1 X100.000 Y103.174 E0.64687 ; perimeter
G1 X99.112 Y103.033 E0.65911 ; perimeter
G1 X98.311 Y102.625 E0.67135 ; perimeter
G1 X97.675 Y101.989 E0.68359 ; perimeter
G1 X97.267 Y101.188 E0.69583 ; perimeter
G1 X97.126 Y100.300 E0.70807 ; perimeter
G1 X97.267 Y99.412 E0.72031 ; perimeter
G1 X97.675 Y98.611 E0.73255 ; perimeter
G1 X98.270 Y98.016 E0.74400 ; perimeter
G1 X98.540 Y98.290 F6000.000 ; move to first perimeter point
G1 X99.232 Y97.937 F1500.000 E0.75458 ; perimeter
G1 X100.000 Y97.816 E0.76516 ; perimeter
G1 X100.641 Y97.917 E0.77399 ; perimeter
G1 X100.768 Y97.937 E0.77574 ; perimeter
G1 X101.460 Y98.290 E0.78632 ; perimeter
G1 X102.010 Y98.840 E0.79690 ; perimeter
G1 X102.363 Y99.532 E0.80748 ; perimeter
G1 X102.484 Y100.300 E0.81806 ; perimeter
G1 X102.363 Y101.068 E0.82864 ; perimeter
G1 X102.010 Y101.760 E0.83922 ; perimeter
G1 X101.460 Y102.310 E0.84980 ; perimeter
G1 X100.768 Y102.663 E0.86038 ; perimeter
G1 X100.000 Y102.784 E0.87096 ; perimeter
G1 X99.232 Y102.663 E0.88154 ; perimeter
G1 X98.540 Y102.310 E0.89212 ; perimeter
G1 X97.990 Y101.760 E0.90270 ; perimeter
G1 X97.637 Y101.068 E0.91328 ; perimeter
G1 X97.516 Y100.300 E0.92386 ; perimeter
G1 X97.637 Y99.532 E0.93444 ; perimeter
G1 X97.990 Y98.840 E0.94502 ; perimeter
G1 X98.499 Y98.331 E0.95482 ; perimeter
G1 X98.769 Y98.605 F6000.000 ; move to first perimeter point
G1 X99.353 Y98.308 F1500.000 E0.96374 ; perimeter
G1 X100.000 Y98.205 E0.97266 ; perimeter
G1 X100.581 Y98.297 E0.98066 ; perimeter
G1 X100.647 Y98.308 E0.98158 ; perimeter
G1 X101.231 Y98.605 E0.99050 ; perimeter
G1 X101.695 Y99.069 E0.99942 ; perimeter
G1 X101.992 Y99.653 E1.00834 ; perimeter
G1 X102.095 Y100.300 E1.01726 ; perimeter
G1 X101.992 Y100.947 E1.02618 ; perimeter
G1 X101.695 Y101.531 E1.03510 ; perimeter
G1 X101.231 Y101.995 E1.04402 ; perimeter
G1 X100.647 Y102.292 E1.05294 ; perimeter
G1 X100.000 Y102.395 E1.06187 ; perimeter
G1 X99.353 Y102.292 E1.07079 ; perimeter
G1 X98.769 Y101.995 E1.07971 ; perimeter
G1 X98.305 Y101.531 E1.08863 ; perimeter
G1 X98.008 Y100.947 E1.09755 ; perimeter
G1 X97.905 Y100.300 E1.10647 ; perimeter
G1 X98.008 Y99.653 E1.11539 ; perimeter
G1 X98.305 Y99.069 E1.12431 ; perimeter
G1 X98.728 Y98.646 E1.13245 ; perimeter
G1 X98.749 Y98.221 F6000.000 ; move inwards before travel
G1 F420.000 E0.63245 ; retract
G92 E0 ; reset extrusion distance
G1 X96.062 Y108.538 F6000.000 ; move to first perimeter point
G1 F420.000 E0.50000 ; compensate retraction
G1 X96.062 Y91.462 F2100.000 E0.73242 ; perimeter
G1 X103.938 Y91.462 E0.83962 ; perimeter
G1 X103.938 Y108.538 E1.07204 ; perimeter
G1 X96.120 Y108.538 E1.17845 ; perimeter
G1 X95.677 Y108.923 F6000.000 ; move to first perimeter point
G1 X95.677 Y91.077 F2100.000 E1.42135 ; perimeter
G1 X104.323 Y91.077 E1.53902 ; perimeter
G1 X104.323 Y108.923 E1.78192 ; perimeter
G1 X95.735 Y108.923 E1.89881 ; perimeter
G1 X95.292 Y109.308 F6000.000 ; move to first perimeter point
G1 X95.292 Y90.692 F1050.000 E2.15218 ; perimeter
G1 X104.708 Y90.692 E2.28033 ; perimeter
G1 X104.708 Y109.308 E2.53370 ; perimeter
G1 X95.350 Y109.308 E2.66107 ; perimeter
G1 X95.485 Y108.974 F6000.000 ; move inwards before travel
G1 X96.341 Y108.259 ; move to first fill point
G1 X96.341 Y107.704 F2700.000 E2.66876 ; fill
G1 X96.896 Y108.259 E2.67963 ; fill
G1 X97.450 Y108.259 E2.68731 ; fill
G1 X96.341 Y107.150 E2.70905 ; fill
G1 X96.341 Y106.596 E2.71673 ; fill
G1 X98.004 Y108.259 E2.74934 ; fill
G1 X98.558 Y108.259 E2.75702 ; fill
G1 X96.341 Y106.042 E2.80050 ; fill
G1 X96.341 Y105.487 E2.80818 ; fill
G1 X99.113 Y108.259 E2.86252 ; fill
G1 X99.667 Y108.259 E2.87021 ; fill
G1 X96.341 Y104.933 E2.93541 ; fill
G1 X96.341 Y104.379 E2.94310 ; fill
G1 X100.221 Y108.259 E3.01917 ; fill
G1 X100.776 Y108.259 E3.02686 ; fill
G1 X96.341 Y103.824 E3.11380 ; fill
G1 X96.341 Y103.270 E3.12149 ; fill
G1 X101.330 Y108.259 E3.21929 ; fill
G1 X101.884 Y108.259 E3.22698 ; fill
G1 X96.341 Y102.716 E3.33566 ; fill
G1 X96.341 Y102.161 E3.34334 ; fill
G1 X102.439 Y108.259 E3.46289 ; fill
G1 X102.993 Y108.259 E3.47057 ; fill
G1 X96.341 Y101.607 E3.60098 ; fill
G1 X96.341 Y101.053 E3.60867 ; fill
G1 X103.547 Y108.259 E3.74994 ; fill
G1 X103.659 Y107.816 E3.75627 ; fill
G1 X99.167 Y103.325 E3.84433 ; fill
G1 X99.826 Y103.429 E3.85358 ; fill
G1 X103.659 Y107.262 E3.92873 ; fill
G1 X103.659 Y106.708 E3.93641 ; fill
G1 X100.352 Y103.401 E4.00125 ; fill
G1 X100.831 Y103.325 E4.00796 ; fill
G1 X103.659 Y106.153 E4.06341 ; fill
G1 X103.659 Y105.599 E4.07110 ; fill
G1 X101.231 Y103.172 E4.11869 ; fill
G1 X101.599 Y102.984 E4.12440 ; fill
G1 X103.659 Y105.045 E4.16480 ; fill
G1 X103.659 Y104.490 E4.17248 ; fill
G1 X101.939 Y102.770 E4.20621 ; fill
G1 X102.216 Y102.493 E4.21164 ; fill
G1 X103.659 Y103.936 E4.23993 ; fill
G1 X103.659 Y103.382 E4.24762 ; fill
G1 X102.493 Y102.216 E4.27047 ; fill
G1 X102.700 Y101.868 E4.27608 ; fill
G1 X103.659 Y102.828 E4.29488 ; fill
G1 X103.659 Y102.273 E4.30257 ; fill
G1 X102.887 Y101.501 E4.31770 ; fill
G1 X103.031 Y101.091 E4.32373 ; fill
G1 X103.659 Y101.719 E4.33604 ; fill
G1 X103.659 Y101.165 E4.34372 ; fill
G1 X103.107 Y100.613 E4.35455 ; fill
G1 X103.120 Y100.072 E4.36205 ; fill
G1 X103.659 Y100.610 E4.37261 ; fill
G1 X103.659 Y100.056 E4.38029 ; fill
G1 X103.016 Y99.413 E4.39290 ; fill
G1 X103.659 Y99.502 E4.40190 ; fill
G1 X96.341 Y92.184 E4.54537 ; fill
G1 X96.453 Y91.741 E4.55170 ; fill
G1 X103.659 Y98.947 E4.69297 ; fill
G1 X103.659 Y98.393 E4.70066 ; fill
G1 X97.007 Y91.741 E4.83107 ; fill
G1 X97.561 Y91.741 E4.83875 ; fill
G1 X103.659 Y97.839 E4.95830 ; fill
G1 X103.659 Y97.284 E4.96598 ; fill
G1 X98.116 Y91.741 E5.07466 ; fill
G1 X98.670 Y91.741 E5.08234 ; fill
G1 X103.659 Y96.730 E5.18015 ; fill
G1 X103.659 Y96.176 E5.18784 ; fill
G1 X99.224 Y91.741 E5.27478 ; fill
G1 X99.779 Y91.741 E5.28247 ; fill
G1 X103.659 Y95.621 E5.35854 ; fill
G1 X103.659 Y95.067 E5.36622 ; fill
G1 X100.333 Y91.741 E5.43143 ; fill
G1 X100.887 Y91.741 E5.43912 ; fill
G1 X103.659 Y94.513 E5.49346 ; fill
G1 X103.659 Y93.958 E5.50114 ; fill
G1 X101.442 Y91.741 E5.54461 ; fill
G1 X101.996 Y91.741 E5.55230 ; fill
G1 X103.659 Y93.404 E5.58490 ; fill
G1 X103.659 Y92.850 E5.59259 ; fill
G1 X102.550 Y91.741 E5.61433 ; fill
G1 X103.104 Y91.741 E5.62201 ; fill
G1 X103.659 Y92.296 E5.63288 ; fill
G1 X103.659 Y91.741 E5.64057 ; fill
G1 F420.000 E5.14057 ; retract
G92 E0 ; reset extrusion distance
G1 X100.887 Y97.284 F6000.000 ; move to first fill point
G1 F420.000 E0.50000 ; compensate retraction
G1 X96.341 Y92.738 F2700.000 E0.58913 ; fill
G1 X96.341 Y93.292 E0.59681 ; fill
G1 X100.228 Y97.180 E0.67302 ; fill
G1 X99.687 Y97.193 E0.68052 ; fill
G1 X96.341 Y93.847 E0.74613 ; fill
G1 X96.341 Y94.401 E0.75382 ; fill
G1 X99.209 Y97.269 E0.81004 ; fill
G1 X98.799 Y97.413 E0.81607 ; fill
G1 X96.341 Y94.955 E0.86425 ; fill
G1 X96.341 Y95.510 E0.87194 ; fill
G1 X98.432 Y97.600 E0.91292 ; fill
G1 X98.084 Y97.807 E0.91853 ; fill
G1 X96.341 Y96.064 E0.95270 ; fill
G1 X96.341 Y96.618 E0.96039 ; fill
G1 X97.807 Y98.084 E0.98913 ; fill
G1 X97.530 Y98.361 E0.99456 ; fill
G1 X96.341 Y97.172 E1.01787 ; fill
G1 X96.341 Y97.727 E1.02555 ; fill
G1 X97.316 Y98.701 E1.04466 ; fill
G1 X97.128 Y99.069 E1.05037 ; fill
G1 X96.341 Y98.281 E1.06581 ; fill
G1 X96.341 Y98.835 E1.07349 ; fill
G1 X96.975 Y99.469 E1.08592 ; fill
G1 X96.899 Y99.948 E1.09264 ; fill
G1 X96.341 Y99.390 E1.10358 ; fill
G1 X96.341 Y99.944 E1.11127 ; fill
G1 X96.871 Y100.474 E1.12166 ; fill
G1 X96.341 Y100.498 E1.12902 ; fill
G1 X96.975 Y101.133 E1.14146 ; fill
G1 F420.000 E0.64146 ; retract
G92 E0 ; reset extrusion distance
G1 Z0.500 F6000.000 ; move to next layer (1)
G1 X97.267 Y101.188 ; move to first perimeter point
G1 F420.000 E0.50000 ; compensate retraction
G1 X97.126 Y100.300 F3000.000 E0.51224 ; perimeter
G1 X97.267 Y99.412 E0.52448 ; perimeter
G1 X97.555 Y98.846 E0.53313 ; perimeter
G1 X97.675 Y98.611 E0.53672 ; perimeter
G1 X98.311 Y97.975 E0.54896 ; perimeter
G1 X99.112 Y97.567 E0.56120 ; perimeter
G1 X100.000 Y97.426 E0.57344 ; perimeter
G1 X100.888 Y97.567 E0.58567 ; perimeter
G1 X101.689 Y97.975 E0.59791 ; perimeter
G1 X102.325 Y98.611 E0.61015 ; perimeter
G1 X102.733 Y99.412 E0.62239 ; perimeter
G1 X102.874 Y100.300 E0.63463 ; perimeter
G1 X102.733 Y101.188 E0.64687 ; perimeter
G1 X102.325 Y101.989 E0.65911 ; perimeter
G1 X101.689 Y102.625 E0.67135 ; perimeter
G1 X100.888 Y103.033 E0.68359 ; perimeter
G1 X100.000 Y103.174 E0.69583 ; perimeter
G1 X99.112 Y103.033 E0.70807 ; perimeter
G1 X98.311 Y102.625 E0.72031 ; perimeter
G1 X97.675 Y101.989 E0.73255 ; perimeter
G1 X97.293 Y101.240 E0.74400 ; perimeter
G1 X97.637 Y101.068 F6000.000 ; move to first perimeter point
G1 X97.516 Y100.300 F3000.000 E0.75458 ; perimeter
G1 X97.637 Y99.532 E0.76516 ; perimeter
G1 X97.898 Y99.020 E0.77298 ; perimeter
G1 X97.990 Y98.840 E0.77574 ; perimeter
G1 X98.540 Y98.290 E0.78632 ; perimeter
G1 X99.232 Y97.937 E0.79690 ; perimeter
G1 X100.000 Y97.816 E0.80748 ; perimeter
G1 X100.768 Y97.937 E0.81806 ; perimeter
G1 X101.460 Y98.290 E0.82864 ; perimeter
G1 X102.010 Y98.840 E0.83922 ; perimeter
G1 X102.363 Y99.532 E0.84980 ; perimeter
G1 X102.484 Y100.300 E0.86038 ; perimeter
G1 X102.363 Y101.068 E0.87096 ; perimeter
G1 X102.010 Y101.760 E0.88154 ; perimeter
G1 X101.460 Y102.310 E0.89212 ; perimeter
G1 X100.768 Y102.663 E0.90270 ; perimeter
G1 X100.000 Y102.784 E0.91328 ; perimeter
G1 X99.232 Y102.663 E0.92386 ; perimeter
G1 X98.540 Y102.310 E0.93444 ; perimeter
G1 X97.990 Y101.760 E0.94502 ; perimeter
G1 X97.663 Y101.119 E0.95482 ; perimeter
G1 X98.008 Y100.947 F6000.000 ; move to first perimeter point
G1 X97.905 Y100.300 F3000.000 E0.96374 ; perimeter
G1 X98.008 Y99.653 E0.97266 ; perimeter
G1 X98.241 Y99.195 E0.97965 ; perimeter
G1 X98.305 Y99.069 E0.98158 ; perimeter
G1 X98.769 Y98.605 E0.99050 ; perimeter
G1 X99.353 Y98.308 E0.99942 ; perimeter
G1 X100.000 Y98.205 E1.00834 ; perimeter
G1 X100.647 Y98.308 E1.01726 ; perimeter
G1 X101.231 Y98.605 E1.02618 ; perimeter
G1 X101.695 Y99.069 E1.03510 ; perimeter
G1 X101.992 Y99.653 E1.04402 ; perimeter
G1 X102.095 Y100.300 E1.05294 ; perimeter
G1 X101.992 Y100.947 E1.06187 ; perimeter
G1 X101.695 Y101.531 E1.07079 ; perimeter
G1 X101.231 Y101.995 E1.07971 ; perimeter
G1 X100.647 Y102.292 E1.08863 ; perimeter
G1 X100.000 Y102.395 E1.09755 ; perimeter
G1 X99.353 Y102.292 E1.10647 ; perimeter
G1 X98.769 Y101.995 E1.11539 ; perimeter
G1 X98.305 Y101.531 E1.12431 ; perimeter
G1 X98.034 Y100.999 E1.13245 ; perimeter
G1 X97.636 Y100.848 F6000.000 ; move inwards before travel
G1 F420.000 E0.63245 ; retract
G92 E0 ; reset extrusion distance
G1 X103.938 Y91.462 F6000.000 ; move to first perimeter point
G1 F420.000 E0.50000 ; compensate retraction
G1 X103.938 Y108.538 F4200.000 E0.73242 ; perimeter
G1 X96.062 Y108.538 E0.83962 ; perimeter
G1 X96.062 Y91.462 E1.07204 ; perimeter
G1 X103.880 Y91.462 E1.17845 ; perimeter
G1 X104.323 Y91.077 F6000.000 ; move to first perimeter point
G1 X104.323 Y108.923 F4200.000 E1.42135 ; perimeter
G1 X95.677 Y108.923 E1.53902 ; perimeter
G1 X95.677 Y91.077 E1.78192 ; perimeter
G1 X104.265 Y91.077 E1.89881 ; perimeter
G1 X104.708 Y90.692 F6000.000 ; move to first perimeter point
G1 X104.708 Y109.308 F2100.000 E2.15218 ; perimeter
G1 X95.292 Y109.308 E2.28033 ; perimeter
G1 X95.292 Y90.692 E2.53370 ; perimeter
G1 X104.650 Y90.692 E2.66107 ; perimeter
G1 X104.515 Y91.026 F6000.000 ; move inwards before travel
G1 X103.659 Y92.184 ; move to first fill point
G1 X96.341 Y99.502 F5400.000 E2.80454 ; fill
G1 X96.341 Y98.947 E2.81222 ; fill
G1 X103.547 Y91.741 E2.95350 ; fill
G1 X102.993 Y91.741 E2.96118 ; fill
G1 X96.341 Y98.393 E3.09160 ; fill
G1 X96.341 Y97.839 E3.09928 ; fill
G1 X102.439 Y91.741 E3.21882 ; fill
G1 X101.884 Y91.741 E3.22651 ; fill
G1 X96.341 Y97.284 E3.33519 ; fill
G1 F420.000 E2.83519 ; retract
G92 E0 ; reset extrusion distance
G1 X96.984 Y99.413 F6000.000 ; move to first fill point
G1 F420.000 E0.50000 ; compensate retraction
G1 X96.341 Y100.056 F5400.000 E0.51261 ; fill
G1 X96.880 Y100.072 E0.52008 ; fill
