; generated by Slic3r 0.9.9 on 2013-11-21 at 22:23:02

; layer_height = 0.25
; perimeters = 3
; top_solid_layers = 4
; bottom_solid_layers = 4
; fill_density = 0.15
; perimeter_speed = 70
; infill_speed = 90
; travel_speed = 100
; nozzle_diameter = 0.35
; filament_diameter = 3.0
; extrusion_multiplier = 1
; perimeters extrusion width = 0.39mm
; infill extrusion width = 0.39mm
; solid infill extrusion width = 0.39mm
; top infill extrusion width = 0.39mm

G21 ; set units to millimeters
G28 ; home all axes
G90 ; use absolute coordinates
G92 E0 ; reset extrusion distance
M82 ; use absolute distances for extrusion
G1 F420.000 E-0.50000 ; retract
G92 E0 ; reset extrusion distance
G1 Z0.250 F6000.000 ; move to next layer (0)
G1 X82.810 Y74.340 ; move to first skirt point
G1 F420.000 E0.50000 ; compensate retraction
G1 X83.170 Y73.960 F2100.000 E0.50712 ; skirt
G1 X83.760 Y73.440 E0.51783 ; skirt
G1 X84.190 Y73.140 E0.52497 ; skirt
G1 X84.640 Y72.870 E0.53211 ; skirt
G1 X85.350 Y72.550 E0.54271 ; skirt
G1 X86.100 Y72.310 E0.55343 ; skirt
G1 X86.880 Y72.160 E0.56424 ; skirt
G1 X87.400 Y72.120 E0.57134 ; skirt
G1 X112.860 Y72.120 E0.91788 ; skirt
G1 X113.390 Y72.160 E0.92511 ; skirt
G1 X114.170 Y72.310 E0.93592 ; skirt
G1 X114.920 Y72.550 E0.94664 ; skirt
G1 X115.640 Y72.880 E0.95742 ; skirt
G1 X116.310 Y73.300 E0.96818 ; skirt
G1 X116.920 Y73.800 E0.97892 ; skirt
G1 X117.470 Y74.370 E0.98970 ; skirt
G1 X117.950 Y75.010 E1.00059 ; skirt
G1 X118.220 Y75.460 E1.00773 ; skirt
G1 X118.340 Y75.700 E1.01138 ; skirt
G1 X118.550 Y76.180 E1.01851 ; skirt
G1 X118.720 Y76.680 E1.02570 ; skirt
G1 X118.900 Y77.450 E1.03647 ; skirt
G1 X118.940 Y77.710 E1.04005 ; skirt
G1 X118.980 Y78.240 E1.04728 ; skirt
G1 X118.980 Y97.570 E1.31038 ; skirt
G1 X118.710 Y121.830 E1.64061 ; skirt
G1 X118.620 Y122.610 E1.65130 ; skirt
G1 X118.570 Y122.870 E1.65490 ; skirt
G1 X118.430 Y123.380 E1.66210 ; skirt
G1 X118.160 Y124.110 E1.67269 ; skirt
G1 X117.790 Y124.810 E1.68347 ; skirt
G1 X117.500 Y125.250 E1.69064 ; skirt
G1 X117.180 Y125.660 E1.69772 ; skirt
G1 X116.820 Y126.040 E1.70485 ; skirt
G1 X116.230 Y126.560 E1.71555 ; skirt
G1 X115.580 Y127.000 E1.72623 ; skirt
G1 X115.120 Y127.250 E1.73336 ; skirt
G1 X114.640 Y127.450 E1.74044 ; skirt
G1 X114.140 Y127.620 E1.74763 ; skirt
G1 X113.370 Y127.800 E1.75839 ; skirt
G1 X113.110 Y127.840 E1.76197 ; skirt
G1 X112.590 Y127.880 E1.76907 ; skirt
G1 X87.140 Y127.880 E2.11547 ; skirt
G1 X86.610 Y127.840 E2.12271 ; skirt
G1 X85.830 Y127.690 E2.13352 ; skirt
G1 X85.080 Y127.450 E2.14424 ; skirt
G1 X84.360 Y127.120 E2.15502 ; skirt
G1 X83.690 Y126.700 E2.16578 ; skirt
G1 X83.080 Y126.200 E2.17651 ; skirt
G1 X82.530 Y125.630 E2.18730 ; skirt
G1 X82.050 Y124.990 E2.19818 ; skirt
G1 X81.780 Y124.540 E2.20533 ; skirt
G1 X81.660 Y124.300 E2.20898 ; skirt
G1 X81.450 Y123.820 E2.21611 ; skirt
G1 X81.280 Y123.320 E2.22330 ; skirt
G1 X81.100 Y122.550 E2.23406 ; skirt
G1 X81.060 Y122.290 E2.23764 ; skirt
G1 X81.020 Y121.760 E2.24488 ; skirt
G1 X81.020 Y102.430 E2.50798 ; skirt
G1 X81.280 Y78.170 E2.83820 ; skirt
G1 X81.330 Y77.650 E2.84531 ; skirt
G1 X81.420 Y77.130 E2.85250 ; skirt
G1 X81.560 Y76.620 E2.85970 ; skirt
G1 X81.730 Y76.130 E2.86676 ; skirt
G1 X81.830 Y75.890 E2.87029 ; skirt
G1 X82.200 Y75.190 E2.88107 ; skirt
G1 X82.490 Y74.760 E2.88813 ; skirt
G1 X82.775 Y74.386 E2.89453 ; skirt
G1 F420.000 E2.39453 ; retract
G92 E0 ; reset extrusion distance
G1 X90.877 Y85.975 F6000.000 ; move to first perimeter point
G1 F420.000 E0.50000 ; compensate retraction
G1 X91.679 Y85.567 F1500.000 E0.51224 ; perimeter
G1 X92.567 Y85.426 E0.52448 ; perimeter
G1 X93.268 Y85.537 E0.53414 ; perimeter
G1 X93.455 Y85.567 E0.53672 ; perimeter
G1 X94.256 Y85.975 E0.54896 ; perimeter
G1 X94.892 Y86.611 E0.56120 ; perimeter
G1 X95.300 Y87.412 E0.57344 ; perimeter
G1 X95.441 Y88.300 E0.58568 ; perimeter
G1 X95.300 Y89.188 E0.59791 ; perimeter
G1 X94.892 Y89.989 E0.61015 ; perimeter
G1 X94.256 Y90.625 E0.62239 ; perimeter
G1 X93.455 Y91.033 E0.63463 ; perimeter
G1 X92.567 Y91.174 E0.64687 ; perimeter
G1 X91.679 Y91.033 E0.65911 ; perimeter
G1 X90.877 Y90.625 E0.67135 ; perimeter
G1 X90.241 Y89.989 E0.68359 ; perimeter
G1 X89.833 Y89.188 E0.69583 ; perimeter
G1 X89.693 Y88.300 E0.70807 ; perimeter
G1 X89.833 Y87.412 E0.72031 ; perimeter
G1 X90.241 Y86.611 E0.73255 ; perimeter
G1 X90.836 Y86.016 E0.74400 ; perimeter
G1 X91.106 Y86.290 F6000.000 ; move to first perimeter point
G1 X91.799 Y85.937 F1500.000 E0.75458 ; perimeter
G1 X92.567 Y85.816 E0.76516 ; perimeter
G1 X93.207 Y85.917 E0.77399 ; perimeter
G1 X93.334 Y85.937 E0.77574 ; perimeter
G1 X94.027 Y86.290 E0.78632 ; perimeter
G1 X94.577 Y86.840 E0.79690 ; perimeter
G1 X94.930 Y87.532 E0.80748 ; perimeter
G1 X95.051 Y88.300 E0.81806 ; perimeter
G1 X94.930 Y89.068 E0.82864 ; perimeter
G1 X94.577 Y89.760 E0.83922 ; perimeter
G1 X94.027 Y90.310 E0.84980 ; perimeter
G1 X93.334 Y90.663 E0.86038 ; perimeter
G1 X92.567 Y90.784 E0.87096 ; perimeter
G1 X91.799 Y90.663 E0.88154 ; perimeter
G1 X91.106 Y90.310 E0.89212 ; perimeter
G1 X90.557 Y89.760 E0.90270 ; perimeter
G1 X90.204 Y89.068 E0.91328 ; perimeter
G1 X90.082 Y88.300 E0.92386 ; perimeter
G1 X90.204 Y87.532 E0.93444 ; perimeter
G1 X90.557 Y86.840 E0.94502 ; perimeter
G1 X91.066 Y86.331 E0.95482 ; perimeter
G1 X91.335 Y86.605 F6000.000 ; move to first perimeter point
G1 X91.919 Y86.308 F1500.000 E0.96374 ; perimeter
G1 X92.567 Y86.205 E0.97266 ; perimeter
G1 X93.147 Y86.297 E0.98066 ; perimeter
G1 X93.214 Y86.308 E0.98158 ; perimeter
G1 X93.798 Y86.605 E0.99050 ; perimeter
G1 X94.261 Y87.069 E0.99942 ; perimeter
G1 X94.559 Y87.653 E1.00834 ; perimeter
G1 X94.661 Y88.300 E1.01726 ; perimeter
G1 X94.559 Y88.947 E1.02618 ; perimeter
G1 X94.261 Y89.531 E1.03510 ; perimeter
G1 X93.798 Y89.995 E1.04402 ; perimeter
G1 X93.214 Y90.292 E1.05294 ; perimeter
G1 X92.567 Y90.395 E1.06187 ; perimeter
G1 X91.919 Y90.292 E1.07079 ; perimeter
G1 X91.335 Y89.995 E1.07971 ; perimeter
G1 X90.872 Y89.531 E1.08863 ; perimeter
G1 X90.574 Y88.947 E1.09755 ; perimeter
G1 X90.472 Y88.300 E1.10647 ; perimeter
G1 X90.574 Y87.653 E1.11539 ; perimeter
G1 X90.872 Y87.069 E1.12431 ; perimeter
G1 X91.295 Y86.646 E1.13245 ; perimeter
G1 X91.315 Y86.221 F6000.000 ; move inwards before travel
G1 F420.000 E0.63245 ; retract
G92 E0 ; reset extrusion distance
G1 X88.629 Y79.462 F6000.000 ; move to first perimeter point
G1 F420.000 E0.50000 ; compensate retraction
G1 X96.505 Y79.462 F2100.000 E0.60720 ; perimeter
G1 X96.505 Y96.538 E0.83962 ; perimeter
G1 X88.629 Y96.538 E0.94682 ; perimeter
G1 X88.629 Y79.520 E1.17845 ; perimeter
G1 X88.244 Y79.077 F6000.000 ; move to first perimeter point
G1 X96.889 Y79.077 F2100.000 E1.29613 ; perimeter
G1 X96.889 Y96.923 E1.53902 ; perimeter
G1 X88.244 Y96.923 E1.65670 ; perimeter
G1 X88.244 Y79.135 E1.89881 ; perimeter
G1 X87.859 Y78.692 F6000.000 ; move to first perimeter point
G1 X97.274 Y78.692 F1050.000 E2.02696 ; perimeter
G1 X97.274 Y97.308 E2.28033 ; perimeter
G1 X87.859 Y97.308 E2.40848 ; perimeter
G1 X87.859 Y78.750 E2.66107 ; perimeter
G1 X88.192 Y78.885 F6000.000 ; move inwards before travel
G1 F420.000 E2.16107 ; retract
G92 E0 ; reset extrusion distance
G1 X96.225 Y79.741 F6000.000 ; move to first fill point
G1 F420.000 E0.50000 ; compensate retraction
G1 X96.226 Y80.296 F2700.000 E0.50769 ; fill
G1 X95.671 Y79.741 E0.51856 ; fill
G1 X95.117 Y79.741 E0.52624 ; fill
G1 X96.226 Y80.850 E0.54798 ; fill
G1 X96.226 Y81.404 E0.55567 ; fill
G1 X94.563 Y79.741 E0.58827 ; fill
G1 X94.008 Y79.741 E0.59596 ; fill
G1 X96.226 Y81.958 E0.63943 ; fill
G1 X96.226 Y82.513 E0.64711 ; fill
G1 X93.454 Y79.741 E0.70145 ; fill
G1 X92.900 Y79.741 E0.70914 ; fill
G1 X96.226 Y83.067 E0.77435 ; fill
G1 X96.226 Y83.621 E0.78203 ; fill
G1 X92.345 Y79.741 E0.85810 ; fill
G1 X91.791 Y79.741 E0.86579 ; fill
G1 X96.226 Y84.176 E0.95273 ; fill
G1 X96.226 Y84.730 E0.96042 ; fill
G1 X91.237 Y79.741 E1.05823 ; fill
G1 X90.682 Y79.741 E1.06591 ; fill
G1 X96.226 Y85.284 E1.17459 ; fill
G1 X96.226 Y85.839 E1.18227 ; fill
G1 X90.128 Y79.741 E1.30182 ; fill
G1 X89.574 Y79.741 E1.30950 ; fill
G1 X96.226 Y86.393 E1.43991 ; fill
G1 X96.226 Y86.947 E1.44760 ; fill
G1 X89.019 Y79.741 E1.58887 ; fill
G1 X88.908 Y80.184 E1.59520 ; fill
G1 X96.226 Y87.502 E1.73867 ; fill
G1 X95.583 Y87.413 E1.74767 ; fill
G1 X96.226 Y88.056 E1.76028 ; fill
G1 X96.226 Y88.610 E1.76796 ; fill
G1 X95.687 Y88.072 E1.77852 ; fill
G1 X95.674 Y88.613 E1.78602 ; fill
G1 X96.226 Y89.165 E1.79685 ; fill
G1 X96.226 Y89.719 E1.80453 ; fill
G1 X95.598 Y89.091 E1.81684 ; fill
G1 X95.454 Y89.501 E1.82286 ; fill
G1 X96.226 Y90.273 E1.83800 ; fill
G1 X96.226 Y90.828 E1.84569 ; fill
G1 X95.267 Y89.868 E1.86449 ; fill
G1 X95.060 Y90.216 E1.87010 ; fill
G1 X96.226 Y91.382 E1.89295 ; fill
G1 X96.226 Y91.936 E1.90064 ; fill
G1 X94.783 Y90.493 E1.92893 ; fill
G1 X94.505 Y90.770 E1.93436 ; fill
G1 X96.226 Y92.490 E1.96809 ; fill
G1 X96.226 Y93.045 E1.97577 ; fill
G1 X94.165 Y90.984 E2.01617 ; fill
G1 X93.798 Y91.172 E2.02188 ; fill
G1 X96.226 Y93.599 E2.06947 ; fill
G1 X96.226 Y94.153 E2.07716 ; fill
G1 X93.397 Y91.325 E2.13261 ; fill
G1 X92.919 Y91.401 E2.13932 ; fill
G1 X96.226 Y94.708 E2.20416 ; fill
G1 X96.226 Y95.262 E2.21184 ; fill
G1 X92.393 Y91.429 E2.28699 ; fill
G1 X91.734 Y91.325 E2.29624 ; fill
G1 X96.226 Y95.816 E2.38430 ; fill
G1 X96.114 Y96.259 E2.39063 ; fill
G1 X88.908 Y89.053 E2.53190 ; fill
G1 X88.908 Y89.607 E2.53959 ; fill
G1 X95.560 Y96.259 E2.67000 ; fill
G1 X95.005 Y96.259 E2.67768 ; fill
G1 X88.908 Y90.161 E2.79723 ; fill
G1 X88.908 Y90.716 E2.80491 ; fill
G1 X94.451 Y96.259 E2.91359 ; fill
G1 X93.897 Y96.259 E2.92127 ; fill
G1 X88.908 Y91.270 E3.01908 ; fill
G1 X88.908 Y91.824 E3.02677 ; fill
G1 X93.342 Y96.259 E3.11371 ; fill
G1 X92.788 Y96.259 E3.12140 ; fill
G1 X88.908 Y92.379 E3.19747 ; fill
G1 X88.908 Y92.933 E3.20516 ; fill
G1 X92.234 Y96.259 E3.27036 ; fill
G1 X91.679 Y96.259 E3.27805 ; fill
G1 X88.908 Y93.487 E3.33239 ; fill
G1 X88.908 Y94.042 E3.34007 ; fill
G1 X91.125 Y96.259 E3.38355 ; fill
G1 X90.571 Y96.259 E3.39123 ; fill
G1 X88.908 Y94.596 E3.42384 ; fill
G1 X88.908 Y95.150 E3.43152 ; fill
G1 X90.017 Y96.259 E3.45326 ; fill
G1 X89.462 Y96.259 E3.46094 ; fill
G1 X88.908 Y95.704 E3.47181 ; fill
G1 X88.908 Y96.259 E3.47950 ; fill
G1 F420.000 E2.97950 ; retract
G92 E0 ; reset extrusion distance
G1 X89.542 Y89.133 F6000.000 ; move to first fill point
G1 F420.000 E0.50000 ; compensate retraction
G1 X88.908 Y88.498 F2700.000 E0.51244 ; fill
G1 X89.438 Y88.474 E0.51979 ; fill
G1 X88.908 Y87.944 E0.53019 ; fill
G1 X88.908 Y87.390 E0.53787 ; fill
G1 X89.466 Y87.948 E0.54882 ; fill
G1 X89.542 Y87.469 E0.55553 ; fill
G1 X88.908 Y86.835 E0.56796 ; fill
G1 X88.908 Y86.281 E0.57565 ; fill
G1 X89.695 Y87.069 E0.59109 ; fill
G1 X89.882 Y86.701 E0.59680 ; fill
G1 X88.908 Y85.727 E0.61591 ; fill
G1 X88.908 Y85.172 E0.62359 ; fill
G1 X90.096 Y86.361 E0.64690 ; fill
G1 X90.374 Y86.084 E0.65233 ; fill
G1 X88.908 Y84.618 E0.68107 ; fill
G1 X88.908 Y84.064 E0.68875 ; fill
G1 X90.651 Y85.807 E0.72293 ; fill
G1 X90.998 Y85.600 E0.72853 ; fill
G1 X88.908 Y83.510 E0.76952 ; fill
G1 X88.908 Y82.955 E0.77720 ; fill
G1 X91.365 Y85.413 E0.82539 ; fill
G1 X91.776 Y85.269 E0.83141 ; fill
G1 X88.908 Y82.401 E0.88764 ; fill
G1 X88.908 Y81.847 E0.89532 ; fill
G1 X92.254 Y85.193 E0.96093 ; fill
G1 X92.795 Y85.180 E0.96843 ; fill
G1 X88.908 Y81.292 E1.04465 ; fill
G1 X88.908 Y80.738 E1.05233 ; fill
G1 X93.454 Y85.284 E1.14146 ; fill
G1 F420.000 E0.64146 ; retract
G92 E0 ; reset extrusion distance
G1 X104.967 Y87.412 F6000.000 ; move to first perimeter point
G1 F420.000 E0.50000 ; compensate retraction
G1 X105.375 Y86.611 F1500.000 E0.51224 ; perimeter
G1 X106.011 Y85.975 E0.52448 ; perimeter
G1 X106.812 Y85.567 E0.53672 ; perimeter
G1 X107.700 Y85.426 E0.54896 ; perimeter
G1 X108.588 Y85.567 E0.56120 ; perimeter
G1 X109.389 Y85.975 E0.57344 ; perimeter
G1 X110.025 Y86.611 E0.58568 ; perimeter
G1 X110.347 Y87.243 E0.59533 ; perimeter
G1 X110.433 Y87.412 E0.59791 ; perimeter
G1 X110.574 Y88.300 E0.61015 ; perimeter
G1 X110.433 Y89.188 E0.62239 ; perimeter
G1 X110.025 Y89.989 E0.63463 ; perimeter
G1 X109.389 Y90.625 E0.64687 ; perimeter
G1 X108.588 Y91.033 E0.65911 ; perimeter
G1 X107.700 Y91.174 E0.67135 ; perimeter
G1 X106.812 Y91.033 E0.68359 ; perimeter
G1 X106.011 Y90.625 E0.69583 ; perimeter
G1 X105.375 Y89.989 E0.70807 ; perimeter
G1 X104.967 Y89.188 E0.72031 ; perimeter
G1 X104.826 Y88.300 E0.73255 ; perimeter
G1 X104.958 Y87.469 E0.74400 ; perimeter
G1 X105.337 Y87.532 F6000.000 ; move to first perimeter point
G1 X105.690 Y86.840 F1500.000 E0.75458 ; perimeter
G1 X106.240 Y86.290 E0.76516 ; perimeter
G1 X106.932 Y85.937 E0.77574 ; perimeter
G1 X107.700 Y85.816 E0.78632 ; perimeter
G1 X108.468 Y85.937 E0.79690 ; perimeter
G1 X109.160 Y86.290 E0.80748 ; perimeter
G1 X109.710 Y86.840 E0.81806 ; perimeter
G1 X110.004 Y87.418 E0.82689 ; perimeter
G1 X110.063 Y87.532 E0.82864 ; perimeter
G1 X110.184 Y88.300 E0.83922 ; perimeter
G1 X110.063 Y89.068 E0.84980 ; perimeter
G1 X109.710 Y89.760 E0.86038 ; perimeter
G1 X109.160 Y90.310 E0.87096 ; perimeter
G1 X108.468 Y90.663 E0.88154 ; perimeter
G1 X107.700 Y90.784 E0.89212 ; perimeter
G1 X106.932 Y90.663 E0.90270 ; perimeter
G1 X106.240 Y90.310 E0.91328 ; perimeter
G1 X105.690 Y89.760 E0.92386 ; perimeter
G1 X105.337 Y89.068 E0.93444 ; perimeter
G1 X105.216 Y88.300 E0.94502 ; perimeter
G1 X105.328 Y87.589 E0.95482 ; perimeter
G1 X105.708 Y87.653 F6000.000 ; move to first perimeter point
G1 X106.005 Y87.069 F1500.000 E0.96374 ; perimeter
G1 X106.469 Y86.605 E0.97266 ; perimeter
G1 X107.053 Y86.308 E0.98158 ; perimeter
G1 X107.700 Y86.205 E0.99050 ; perimeter
G1 X108.347 Y86.308 E0.99942 ; perimeter
G1 X108.931 Y86.605 E1.00834 ; perimeter
G1 X109.395 Y87.069 E1.01726 ; perimeter
G1 X109.662 Y87.592 E1.02526 ; perimeter
G1 X109.692 Y87.653 E1.02618 ; perimeter
G1 X109.795 Y88.300 E1.03510 ; perimeter
G1 X109.692 Y88.947 E1.04402 ; perimeter
G1 X109.395 Y89.531 E1.05295 ; perimeter
G1 X108.931 Y89.995 E1.06187 ; perimeter
G1 X108.347 Y90.292 E1.07079 ; perimeter
G1 X107.700 Y90.395 E1.07971 ; perimeter
G1 X107.053 Y90.292 E1.08863 ; perimeter
G1 X106.469 Y89.995 E1.09755 ; perimeter
G1 X106.005 Y89.531 E1.10647 ; perimeter
G1 X105.708 Y88.947 E1.11539 ; perimeter
G1 X105.605 Y88.300 E1.12431 ; perimeter
G1 X105.699 Y87.710 E1.13245 ; perimeter
G1 X105.466 Y87.354 F6000.000 ; move inwards before travel
G1 F420.000 E0.63245 ; retract
G92 E0 ; reset extrusion distance
G1 X111.638 Y96.538 F6000.000 ; move to first perimeter point
G1 F420.000 E0.50000 ; compensate retraction
G1 X103.762 Y96.538 F2100.000 E0.60720 ; perimeter
G1 X103.762 Y79.462 E0.83962 ; perimeter
G1 X111.638 Y79.462 E0.94682 ; perimeter
G1 X111.638 Y96.480 E1.17845 ; perimeter
G1 X112.023 Y96.923 F6000.000 ; move to first perimeter point
G1 X103.377 Y96.923 F2100.000 E1.29613 ; perimeter
G1 X103.377 Y79.077 E1.53902 ; perimeter
G1 X112.023 Y79.077 E1.65670 ; perimeter
G1 X112.023 Y96.865 E1.89881 ; perimeter
G1 X112.408 Y97.308 F6000.000 ; move to first perimeter point
G1 X102.992 Y97.308 F1050.000 E2.02696 ; perimeter
G1 X102.992 Y78.692 E2.28033 ; perimeter
G1 X112.408 Y78.692 E2.40848 ; perimeter
G1 X112.408 Y97.250 E2.66107 ; perimeter
G1 X112.074 Y97.115 F6000.000 ; move inwards before travel
G1 F420.000 E2.16107 ; retract
G92 E0 ; reset extrusion distance
G1 X104.041 Y96.259 F6000.000 ; move to first fill point
G1 F420.000 E0.50000 ; compensate retraction
G1 X104.041 Y95.704 F2700.000 E0.50769 ; fill
G1 X104.596 Y96.259 E0.51856 ; fill
G1 X105.150 Y96.259 E0.52624 ; fill
G1 X104.041 Y95.150 E0.54798 ; fill
G1 X104.041 Y94.596 E0.55567 ; fill
G1 X105.704 Y96.259 E0.58827 ; fill
G1 X106.258 Y96.259 E0.59596 ; fill
G1 X104.041 Y94.042 E0.63943 ; fill
G1 X104.041 Y93.487 E0.64711 ; fill
G1 X106.813 Y96.259 E0.70145 ; fill
G1 X107.367 Y96.259 E0.70914 ; fill
G1 X104.041 Y92.933 E0.77435 ; fill
G1 X104.041 Y92.379 E0.78203 ; fill
G1 X107.921 Y96.259 E0.85811 ; fill
