; generated by Slic3r 1.1.7 on 2015-05-30 at 19:23:57

; perimeters extrusion width = 0.35mm
; infill extrusion width = 0.39mm
; solid infill extrusion width = 0.39mm
; top infill extrusion width = 0.39mm

G21 ; set units to millimeters
M107 ; disable fan
G28 ; home all axes
G90 ; use absolute coordinates
G92 E0 ; reset extrusion distance
M82 ; use absolute distances for extrusion
G1 F420.000 E-0.50000 ; retract
G92 E0 ; reset extrusion distance
G1 Z0.250 F6000.000 ; move to next layer (0)
G1 X92.199 Y88.615 F6000.000 ; move to first skirt point
G1 E0.50000 F420.000 ; compensate retraction
G1 X94.154 Y87.511 E0.52779 F1368.500 ; skirt
G1 X96.250 Y87.155 E0.55411 ; skirt
G1 X103.750 Y87.155 E0.64695 ; skirt
G1 X105.960 Y87.552 E0.67474 ; skirt
G1 X107.893 Y88.693 E0.70253 F1368.500 ; skirt
G1 X109.249 Y90.330 E0.72884 ; skirt
G1 X112.999 Y96.825 E0.82168 ; skirt
G1 X113.760 Y98.937 E0.84947 ; skirt
G1 X113.739 Y101.182 E0.87726 ; skirt
G1 X112.999 Y103.175 E0.90358 ; skirt
G1 X109.249 Y109.670 E0.99642 ; skirt
G1 X107.801 Y111.385 E1.02421 ; skirt
G1 X105.846 Y112.489 E1.05200 ; skirt
G1 X103.750 Y112.845 E1.07832 ; skirt
G1 X96.250 Y112.845 E1.17116 ; skirt
G1 X94.040 Y112.448 E1.19895 ; skirt
G1 X92.107 Y111.307 E1.22674 ; skirt
G1 X90.751 Y109.670 E1.25306 ; skirt
G1 X87.001 Y103.175 E1.34590 ; skirt
G1 X86.240 Y101.063 E1.37369 ; skirt
G1 X86.261 Y98.818 E1.40148 ; skirt
G1 X87.001 Y96.825 E1.42779 ; skirt
G1 X90.751 Y90.330 E1.52063 ; skirt
G1 X92.165 Y88.655 E1.54777 ; skirt
G1 F420.000 E1.04777 ; retract
G92 E0 ; reset extrusion distance
G1 X103.555 Y103.555 F6000.000 ; move to first perimeter point
G1 E0.50000 F420.000 ; compensate retraction
G1 X102.793 Y104.180 E0.51220 F1596.584 ; perimeter
G1 X101.924 Y104.645 E0.52440 ; perimeter
G1 X100.981 Y104.931 E0.53660 ; perimeter
G1 X100.000 Y105.028 E0.54880 ; perimeter
G1 X99.019 Y104.931 E0.56100 ; perimeter
G1 X98.076 Y104.645 E0.57320 ; perimeter
G1 X97.207 Y104.180 E0.58540 ; perimeter
G1 X96.445 Y103.555 E0.59760 ; perimeter
G1 X95.820 Y102.793 E0.60980 ; perimeter
G1 X95.355 Y101.924 E0.62200 ; perimeter
G1 X95.069 Y100.981 E0.63420 ; perimeter
G1 X94.972 Y100.000 E0.64640 ; perimeter
G1 X95.069 Y99.019 E0.65860 ; perimeter
G1 X95.355 Y98.076 E0.67080 ; perimeter
G1 X95.820 Y97.207 E0.68300 ; perimeter
G1 X96.445 Y96.445 E0.69520 ; perimeter
G1 X97.207 Y95.820 E0.70740 ; perimeter
G1 X98.076 Y95.355 E0.71960 ; perimeter
G1 X99.019 Y95.069 E0.73180 ; perimeter
G1 X100.000 Y94.972 E0.74400 ; perimeter
G1 X100.874 Y95.059 E0.75488 ; perimeter
G1 X100.981 Y95.069 E0.75620 F1596.584 ; perimeter
G1 X101.924 Y95.355 E0.76840 ; perimeter
G1 X102.793 Y95.820 E0.78060 ; perimeter
G1 X103.555 Y96.445 E0.79280 ; perimeter
G1 X104.180 Y97.207 E0.80500 ; perimeter
G1 X104.645 Y98.076 E0.81720 ; perimeter
G1 X104.931 Y99.019 E0.82940 ; perimeter
G1 X105.028 Y100.000 E0.84160 ; perimeter
G1 X104.931 Y100.981 E0.85380 ; perimeter
G1 X104.645 Y101.924 E0.86600 ; perimeter
G1 X104.180 Y102.793 E0.87820 ; perimeter
G1 X103.588 Y103.514 E0.88975 ; perimeter
G1 X103.306 Y103.306 F6000.000 ; move to first perimeter point
G1 X102.598 Y103.888 E0.90110 F798.292 ; perimeter
G1 X101.789 Y104.320 E0.91245 ; perimeter
G1 X100.912 Y104.586 E0.92379 ; perimeter
G1 X100.000 Y104.676 E0.93514 ; perimeter
G1 X99.088 Y104.586 E0.94649 ; perimeter
G1 X98.211 Y104.320 E0.95783 ; perimeter
G1 X97.402 Y103.888 E0.96918 ; perimeter
G1 X96.694 Y103.306 E0.98053 ; perimeter
G1 X96.112 Y102.598 E0.99187 ; perimeter
G1 X95.680 Y101.789 E1.00322 ; perimeter
G1 X95.414 Y100.912 E1.01457 ; perimeter
G1 X95.324 Y100.000 E1.02591 ; perimeter
G1 X95.414 Y99.088 E1.03726 ; perimeter
G1 X95.680 Y98.211 E1.04861 ; perimeter
G1 X96.112 Y97.402 E1.05995 ; perimeter
G1 X96.694 Y96.694 E1.07130 ; perimeter
G1 X97.402 Y96.112 E1.08265 ; perimeter
G1 X98.211 Y95.680 E1.09399 ; perimeter
G1 X99.088 Y95.414 E1.10534 ; perimeter
G1 X99.928 Y95.331 E1.11579 ; perimeter
G1 X100.000 Y95.324 E1.11669 F798.292 ; perimeter
G1 X100.912 Y95.414 E1.12803 ; perimeter
G1 X101.789 Y95.680 E1.13938 ; perimeter
G1 X102.598 Y96.112 E1.15073 ; perimeter
G1 X103.306 Y96.694 E1.16207 ; perimeter
G1 X103.888 Y97.402 E1.17342 ; perimeter
G1 X104.320 Y98.211 E1.18477 ; perimeter
G1 X104.586 Y99.088 E1.19611 ; perimeter
G1 X104.676 Y100.000 E1.20746 ; perimeter
G1 X104.586 Y100.912 E1.21881 ; perimeter
G1 X104.320 Y101.789 E1.23015 ; perimeter
G1 X103.888 Y102.598 E1.24150 ; perimeter
G1 X103.340 Y103.266 E1.25220 ; perimeter
G1 F420.000 E0.75220 ; retract
G92 E0 ; reset extrusion distance
G1 X99.911 Y95.261 F6000.000 ; move inwards before travel
G1 X99.743 Y105.354 F6000.000 ; move to first perimeter point
G1 E0.50000 F420.000 ; compensate retraction
G1 X99.730 Y105.620 E0.50330 F1596.584 ; perimeter
G1 X96.755 Y105.620 E0.54013 ; perimeter
G1 X95.333 Y103.157 E0.57533 ; perimeter
G1 X95.545 Y103.011 E0.57852 ; perimeter
G1 X96.196 Y103.804 E0.59122 ; perimeter
G1 X97.011 Y104.473 E0.60428 ; perimeter
G1 X97.941 Y104.970 E0.61733 ; perimeter
G1 X98.951 Y105.276 E0.63038 ; perimeter
G1 X99.691 Y105.349 E0.63959 ; perimeter
G1 F420.000 E0.13959 ; retract
G92 E0 ; reset extrusion distance
G1 X95.197 Y102.370 F6000.000 ; move to first perimeter point
G1 E0.50000 F420.000 ; compensate retraction
G1 X94.956 Y102.504 E0.50341 F1596.584 ; perimeter
G1 X93.510 Y100.000 E0.53920 ; perimeter
G1 X94.956 Y97.496 E0.57500 ; perimeter
G1 X95.197 Y97.630 E0.57840 ; perimeter
G1 X95.030 Y97.941 E0.58278 ; perimeter
G1 X94.724 Y98.951 E0.59583 ; perimeter
G1 X94.621 Y100.000 E0.60889 ; perimeter
G1 X94.724 Y101.049 E0.62194 ; perimeter
G1 X95.030 Y102.059 E0.63500 ; perimeter
G1 X95.172 Y102.324 E0.63872 ; perimeter
G1 F420.000 E0.13872 ; retract
G92 E0 ; reset extrusion distance
G1 X95.545 Y96.989 F6000.000 ; move to first perimeter point
G1 E0.50000 F420.000 ; compensate retraction
G1 X95.333 Y96.843 E0.50319 F1596.584 ; perimeter
G1 X96.755 Y94.380 E0.53840 ; perimeter
G1 X99.730 Y94.380 E0.57522 ; perimeter
G1 X99.743 Y94.646 E0.57852 ; perimeter
G1 X98.951 Y94.724 E0.58838 ; perimeter
G1 X97.941 Y95.030 E0.60144 ; perimeter
G1 X97.011 Y95.527 E0.61449 ; perimeter
G1 X96.196 Y96.196 E0.62754 ; perimeter
G1 X95.579 Y96.949 E0.63959 ; perimeter
G1 F420.000 E0.13959 ; retract
G92 E0 ; reset extrusion distance
G1 X100.257 Y94.646 F6000.000 ; move to first perimeter point
G1 E0.50000 F420.000 ; compensate retraction
G1 X100.270 Y94.380 E0.50330 F1596.584 ; perimeter
G1 X103.245 Y94.380 E0.54013 ; perimeter
G1 X104.667 Y96.843 E0.57533 ; perimeter
G1 X104.455 Y96.989 E0.57852 ; perimeter
G1 X103.804 Y96.196 E0.59122 ; perimeter
G1 X102.989 Y95.527 E0.60428 ; perimeter
G1 X102.059 Y95.030 E0.61733 ; perimeter
G1 X101.049 Y94.724 E0.63039 ; perimeter
G1 X100.309 Y94.651 E0.63959 ; perimeter
G1 F420.000 E0.13959 ; retract
G92 E0 ; reset extrusion distance
G1 X104.803 Y97.630 F6000.000 ; move to first perimeter point
G1 E0.50000 F420.000 ; compensate retraction
G1 X105.044 Y97.496 E0.50341 F1596.584 ; perimeter
G1 X106.490 Y100.000 E0.53920 ; perimeter
G1 X105.044 Y102.504 E0.57499 ; perimeter
G1 X104.803 Y102.370 E0.57840 ; perimeter
G1 X104.970 Y102.059 E0.58278 ; perimeter
G1 X105.276 Y101.049 E0.59583 ; perimeter
G1 X105.379 Y100.000 E0.60889 ; perimeter
G1 X105.276 Y98.951 E0.62194 ; perimeter
G1 X104.970 Y97.941 E0.63499 ; perimeter
G1 X104.828 Y97.676 E0.63872 ; perimeter
G1 F420.000 E0.13872 ; retract
G92 E0 ; reset extrusion distance
G1 X104.455 Y103.011 F6000.000 ; move to first perimeter point
G1 E0.50000 F420.000 ; compensate retraction
G1 X104.667 Y103.157 E0.50319 F1596.584 ; perimeter
G1 X103.245 Y105.620 E0.53840 ; perimeter
G1 X100.270 Y105.620 E0.57522 ; perimeter
G1 X100.257 Y105.354 E0.57852 ; perimeter
G1 X101.049 Y105.276 E0.58838 ; perimeter
G1 X102.059 Y104.970 E0.60143 ; perimeter
G1 X102.989 Y104.473 E0.61449 ; perimeter
G1 X103.804 Y103.804 E0.62754 ; perimeter
G1 X104.421 Y103.051 E0.63959 ; perimeter
G1 F420.000 E0.13959 ; retract
G92 E0 ; reset extrusion distance
G1 X103.447 Y105.970 F6000.000 ; move to first perimeter point
G1 E0.50000 F420.000 ; compensate retraction
G1 X96.553 Y105.970 E0.58534 F1596.584 ; perimeter
G1 X93.106 Y100.000 E0.67067 ; perimeter
G1 X96.553 Y94.030 E0.75601 ; perimeter
G1 X103.447 Y94.030 E0.84134 ; perimeter
G1 X106.894 Y100.000 E0.92668 ; perimeter
G1 X103.473 Y105.925 E1.01137 ; perimeter
G1 X103.649 Y106.320 F6000.000 ; move to first perimeter point
G1 X96.351 Y106.320 E1.10171 F798.292 ; perimeter
G1 X92.702 Y100.000 E1.19205 ; perimeter
G1 X96.351 Y93.680 E1.28238 ; perimeter
G1 X103.649 Y93.680 E1.37272 ; perimeter
G1 X107.298 Y100.000 E1.46306 ; perimeter
G1 X103.675 Y106.275 E1.55275 ; perimeter
G1 X103.381 Y106.095 F6000.000 ; move inwards before travel
G1 X102.050 Y105.335 F6000.000 ; move to first fill point
G1 X102.094 Y105.379 E1.55359 F2052.750 ; fill
G1 X102.399 Y105.061 E1.55959 ; fill
G1 X102.717 Y105.379 E1.56569 ; fill
G1 X103.191 Y105.230 E1.57246 ; fill
G1 X102.805 Y104.844 E1.57988 ; fill
G1 X103.197 Y104.614 E1.58608 ; fill
G1 X103.419 Y104.835 E1.59034 ; fill
G1 X103.647 Y104.440 E1.59655 ; fill
G1 X103.540 Y104.333 E1.59862 ; fill
G1 F420.000 E1.09862 ; retract
G92 E0 ; reset extrusion distance
G1 X98.403 Y105.371 F6000.000 ; move to first fill point
G1 E0.50000 F420.000 ; compensate retraction
G1 X98.059 Y105.320 E0.50261 F600.000 ; fill
G1 X97.969 Y105.161 E0.50398 ; fill
G1 X97.538 Y105.028 F6000.000 ; move to first fill point
G1 X97.601 Y105.091 E0.50520 F2052.750 ; fill
G1 X96.926 Y105.379 E0.51519 ; fill
G1 X96.852 Y105.304 E0.51663 ; fill
G1 F420.000 E0.01663 ; retract
G92 E0 ; reset extrusion distance
G1 X94.357 Y100.932 F6000.000 ; move to first fill point
G1 E0.50000 F420.000 ; compensate retraction
G1 X94.287 Y100.862 E0.50136 F2052.750 ; fill
G1 X94.413 Y100.353 E0.50848 ; fill
G1 X93.888 Y99.829 E0.51858 ; fill
G1 X94.406 Y99.713 E0.52581 ; fill
G1 X94.120 Y99.427 E0.53132 ; fill
G1 X94.463 Y99.135 E0.53744 ; fill
G1 X94.414 Y99.086 E0.53839 ; fill
G1 F420.000 E0.03839 ; retract
G92 E0 ; reset extrusion distance
G1 X96.460 Y95.667 F6000.000 ; move to first fill point
G1 E0.50000 F420.000 ; compensate retraction
G1 X96.353 Y95.560 E0.50207 F2052.750 ; fill
G1 X96.581 Y95.165 E0.50827 ; fill
G1 X96.803 Y95.386 E0.51254 ; fill
G1 X97.195 Y95.156 E0.51873 ; fill
G1 X96.809 Y94.770 E0.52616 ; fill
G1 X97.283 Y94.621 E0.53292 ; fill
G1 X97.601 Y94.939 E0.53903 ; fill
G1 X97.950 Y94.665 E0.54507 ; fill
G1 X97.906 Y94.621 E0.54591 ; fill
G1 F420.000 E0.04591 ; retract
G92 E0 ; reset extrusion distance
G1 X102.039 Y94.739 F6000.000 ; move to first fill point
G1 E0.50000 F420.000 ; compensate retraction
G1 X102.087 Y94.786 E0.50092 F2052.750 ; fill
G1 X103.074 Y94.621 F6000.000 ; move to first fill point
G1 X103.148 Y94.696 E0.50235 F2052.750 ; fill
G1 X102.498 Y94.621 E0.51127 ; fill
G1 X103.542 Y95.665 E0.53136 ; fill
G1 F420.000 E0.03136 ; retract
G92 E0 ; reset extrusion distance
G1 X105.643 Y99.068 F6000.000 ; move to first fill point
G1 E0.50000 F420.000 ; compensate retraction
G1 X105.713 Y99.138 E0.50136 F2052.750 ; fill
G1 X105.587 Y99.647 E0.50848 ; fill
G1 X106.112 Y100.171 E0.51858 ; fill
G1 X105.880 Y100.573 E0.52490 ; fill
G1 X105.594 Y100.287 E0.53041 ; fill
G1 X105.537 Y100.865 E0.53831 ; fill
G1 X105.586 Y100.914 E0.53925 ; fill
M106 S255 ; enable fan
G1 F420.000 E0.03925 ; retract
G92 E0 ; reset extrusion distance
G1 Z0.500 F6000.000 ; move to next layer (1)
G1 X102.569 Y104.300 F6000.000 ; move to first perimeter point
G1 E0.50000 F420.000 ; compensate retraction
G1 X101.924 Y104.645 E0.50906 F1198.120 ; perimeter
G1 X100.981 Y104.931 E0.52126 ; perimeter
G1 X100.000 Y105.028 E0.53346 ; perimeter
G1 X99.019 Y104.931 E0.54566 ; perimeter
G1 X98.076 Y104.645 E0.55786 ; perimeter
G1 X97.207 Y104.180 E0.57006 ; perimeter
G1 X96.445 Y103.555 E0.58226 ; perimeter
G1 X95.820 Y102.793 E0.59446 ; perimeter
G1 X95.355 Y101.924 E0.60666 ; perimeter
G1 X95.069 Y100.981 E0.61886 ; perimeter
G1 X94.972 Y100.000 E0.63106 ; perimeter
G1 X95.069 Y99.019 E0.64326 ; perimeter
G1 X95.355 Y98.076 E0.65546 ; perimeter
G1 X95.820 Y97.207 E0.66766 ; perimeter
G1 X96.445 Y96.445 E0.67986 ; perimeter
G1 X97.207 Y95.820 E0.69206 ; perimeter
G1 X98.076 Y95.355 E0.70426 ; perimeter
G1 X99.019 Y95.069 E0.71646 ; perimeter
G1 X100.000 Y94.972 E0.72866 ; perimeter
G1 X100.765 Y95.048 E0.73817 ; perimeter
G1 X100.981 Y95.069 E0.74086 F1198.120 ; perimeter
G1 X101.924 Y95.355 E0.75306 ; perimeter
G1 X102.793 Y95.820 E0.76526 ; perimeter
G1 X103.555 Y96.445 E0.77746 ; perimeter
G1 X104.180 Y97.207 E0.78966 ; perimeter
G1 X104.645 Y98.076 E0.80186 ; perimeter
G1 X104.931 Y99.019 E0.81406 ; perimeter
G1 X105.028 Y100.000 E0.82626 ; perimeter
G1 X104.931 Y100.981 E0.83846 ; perimeter
G1 X104.645 Y101.924 E0.85066 ; perimeter
G1 X104.180 Y102.793 E0.86286 ; perimeter
G1 X103.555 Y103.555 E0.87506 ; perimeter
G1 X102.793 Y104.180 E0.88726 ; perimeter
G1 X102.615 Y104.275 E0.88975 ; perimeter
G1 X102.404 Y103.991 F6000.000 ; move to first perimeter point
G1 X101.789 Y104.320 E0.89838 F600.000 ; perimeter
G1 X100.912 Y104.586 E0.90973 ; perimeter
G1 X100.000 Y104.676 E0.92108 ; perimeter
G1 X99.088 Y104.586 E0.93242 ; perimeter
G1 X98.211 Y104.320 E0.94377 ; perimeter
G1 X97.402 Y103.888 E0.95512 ; perimeter
G1 X96.694 Y103.306 E0.96646 ; perimeter
G1 X96.112 Y102.598 E0.97781 ; perimeter
G1 X95.680 Y101.789 E0.98916 ; perimeter
G1 X95.414 Y100.912 E1.00050 ; perimeter
G1 X95.324 Y100.000 E1.01185 ; perimeter
G1 X95.414 Y99.088 E1.02319 ; perimeter
G1 X95.680 Y98.211 E1.03454 ; perimeter
G1 X96.112 Y97.402 E1.04589 ; perimeter
G1 X96.694 Y96.694 E1.05723 ; perimeter
G1 X97.402 Y96.112 E1.06858 ; perimeter
G1 X98.211 Y95.680 E1.07993 ; perimeter
G1 X99.088 Y95.414 E1.09127 ; perimeter
G1 X99.818 Y95.342 E1.10036 ; perimeter
G1 X100.000 Y95.324 E1.10262 F600.000 ; perimeter
G1 X100.912 Y95.414 E1.11397 ; perimeter
G1 X101.789 Y95.680 E1.12531 ; perimeter
G1 X102.598 Y96.112 E1.13666 ; perimeter
G1 X103.306 Y96.694 E1.14801 ; perimeter
G1 X103.888 Y97.402 E1.15935 ; perimeter
G1 X104.320 Y98.211 E1.17070 ; perimeter
G1 X104.586 Y99.088 E1.18205 ; perimeter
G1 X104.676 Y100.000 E1.19339 ; perimeter
G1 X104.586 Y100.912 E1.20474 ; perimeter
G1 X104.320 Y101.789 E1.21609 ; perimeter
G1 X103.888 Y102.598 E1.22743 ; perimeter
G1 X103.306 Y103.306 E1.23878 ; perimeter
G1 X102.598 Y103.888 E1.25013 ; perimeter
G1 X102.450 Y103.967 E1.25220 ; perimeter
G1 F420.000 E0.75220 ; retract
G92 E0 ; reset extrusion distance
G1 X99.787 Y95.162 F6000.000 ; move inwards before travel
G1 X99.743 Y105.354 F6000.000 ; move to first perimeter point
G1 E0.50000 F420.000 ; compensate retraction
G1 X99.730 Y105.620 E0.50330 F1198.120 ; perimeter
G1 X96.755 Y105.620 E0.54013 ; perimeter
G1 X95.333 Y103.157 E0.57533 ; perimeter
G1 X95.545 Y103.011 E0.57852 ; perimeter
G1 X96.196 Y103.804 E0.59122 ; perimeter
G1 X97.011 Y104.473 E0.60428 ; perimeter
G1 X97.941 Y104.970 E0.61733 ; perimeter
G1 X98.951 Y105.276 E0.63038 ; perimeter
G1 X99.691 Y105.349 E0.63959 ; perimeter
G1 F420.000 E0.13959 ; retract
G92 E0 ; reset extrusion distance
G1 X95.197 Y102.370 F6000.000 ; move to first perimeter point
G1 E0.50000 F420.000 ; compensate retraction
G1 X94.956 Y102.504 E0.50341 F1198.120 ; perimeter
G1 X93.510 Y100.000 E0.53920 ; perimeter
G1 X94.956 Y97.496 E0.57500 ; perimeter
G1 X95.197 Y97.630 E0.57841 ; perimeter
G1 X95.030 Y97.941 E0.58278 ; perimeter
G1 X94.724 Y98.951 E0.59584 ; perimeter
G1 X94.621 Y100.000 E0.60889 ; perimeter
G1 X94.724 Y101.049 E0.62194 ; perimeter
G1 X95.030 Y102.059 E0.63500 ; perimeter
G1 X95.172 Y102.324 E0.63872 ; perimeter
G1 F420.000 E0.13872 ; retract
G92 E0 ; reset extrusion distance
G1 X95.545 Y96.989 F6000.000 ; move to first perimeter point
G1 E0.50000 F420.000 ; compensate retraction
G1 X95.333 Y96.843 E0.50319 F1198.120 ; perimeter
G1 X96.755 Y94.380 E0.53840 ; perimeter
G1 X99.730 Y94.380 E0.57522 ; perimeter
G1 X99.743 Y94.646 E0.57852 ; perimeter
