; generated by Slic3r 1.2.9 on 2016-06-04 at 16:58:11

; external perimeters extrusion width = 0.35mm
; perimeters extrusion width = 0.44mm
; infill extrusion width = 0.44mm
; solid infill extrusion width = 0.44mm
; top infill extrusion width = 0.44mm

M107 ; disable fan
G28 ; home all axes
G21 ; set units to millimeters
G90 ; use absolute coordinates
M82 ; use absolute distances for extrusion
G92 E0 ; reset extrusion distance
G1 E-1.00000 F420.00000 ; retract
G92 E0 ; reset extrusion distance
G1 Z0.250 F6000.000 ; move to next layer (0)
G1 X81.672 Y88.592 F6000.000 ; move to first skirt point
G1 E1.00000 F420.00000 ; unretract
G1 X83.631 Y87.482 E1.09005 F1800.000 ; skirt
G1 X85.750 Y87.120 E1.17604 ; skirt
G1 X114.250 Y87.120 E2.31604 ; skirt
G1 X116.466 Y87.517 E2.40609 ; skirt
G1 X118.406 Y88.658 E2.49614 F1800.000 ; skirt
G1 X119.779 Y90.312 E2.58213 ; skirt
G1 X123.529 Y96.808 E2.88213 ; skirt
G1 X124.294 Y98.925 E2.97218 ; skirt
G1 X124.276 Y101.176 E3.06223 ; skirt
G1 X123.529 Y103.192 E3.14822 ; skirt
G1 X119.779 Y109.688 E3.44822 ; skirt
G1 X118.328 Y111.408 E3.53827 ; skirt
G1 X116.369 Y112.518 E3.62832 ; skirt
G1 X114.250 Y112.880 E3.71431 ; skirt
G1 X85.750 Y112.880 E4.85431 ; skirt
G1 X83.534 Y112.483 E4.94436 ; skirt
G1 X81.594 Y111.342 E5.03441 ; skirt
G1 X80.221 Y109.688 E5.12040 ; skirt
G1 X76.471 Y103.192 E5.42040 ; skirt
G1 X75.706 Y101.075 E5.51045 ; skirt
G1 X75.724 Y98.824 E5.60050 ; skirt
G1 X76.471 Y96.808 E5.68649 ; skirt
G1 X80.221 Y90.312 E5.98649 ; skirt
G1 X81.638 Y88.632 E6.07444 ; skirt
G1 E5.07444 F420.00000 ; retract
G92 E0 ; reset extrusion distance
G1 X117.798 Y100.000 F6000.000 ; move to first perimeter point
G1 E1.00000 F420.00000 ; unretract
G1 X114.149 Y106.320 E1.22479 F1050.000 ; perimeter
G1 X106.851 Y106.320 E1.44958 ; perimeter
G1 X103.202 Y100.000 E1.67437 ; perimeter
G1 X106.851 Y93.680 E1.89916 ; perimeter
G1 X114.149 Y93.680 E2.12395 ; perimeter
G1 X117.772 Y99.955 E2.34713 ; perimeter
G1 X117.469 Y100.120 F6000.000 ; move inwards before travel
G1 X117.405 Y100.000 F6000.000 ; move to first perimeter point
G1 X113.952 Y105.980 E2.62331 F2100.000 ; perimeter
G1 X107.048 Y105.980 E2.89950 ; perimeter
G1 X103.595 Y100.000 E3.17568 ; perimeter
G1 X107.048 Y94.020 E3.45187 ; perimeter
G1 X113.952 Y94.020 E3.72805 ; perimeter
G1 X117.378 Y99.955 E4.00214 ; perimeter
G1 E3.00214 F420.00000 ; retract
G92 E0 ; reset extrusion distance
G1 X105.637 Y97.687 F6000.000 ; move to first perimeter point
G1 E1.00000 F420.00000 ; unretract
G1 X105.507 Y97.932 E1.01108 F1500.000 ; perimeter
G1 X105.199 Y98.946 E1.05346 ; perimeter
G1 X105.095 Y100.000 E1.09584 ; perimeter
G1 X105.199 Y101.054 E1.13822 ; perimeter
G1 X105.507 Y102.068 E1.18060 ; perimeter
G1 X105.637 Y102.313 E1.19168 ; perimeter
G1 X105.439 Y102.423 E1.20077 ; perimeter
G1 X104.040 Y100.000 E1.31268 ; perimeter
G1 X105.439 Y97.577 E1.42459 ; perimeter
G1 X105.591 Y97.662 E1.43157 ; perimeter
G1 E0.43157 F420.00000 ; retract
G92 E0 ; reset extrusion distance
G1 X106.047 Y103.053 F6000.000 ; move to first perimeter point
G1 E1.00000 F420.00000 ; unretract
G1 X106.678 Y103.822 E1.03980 F1500.000 ; perimeter
G1 X107.497 Y104.494 E1.08218 ; perimeter
G1 X108.432 Y104.993 E1.12456 ; perimeter
G1 X109.446 Y105.301 E1.16694 ; perimeter
G1 X110.199 Y105.375 E1.19723 ; perimeter
G1 X110.188 Y105.595 E1.20603 ; perimeter
G1 X107.270 Y105.595 E1.32277 ; perimeter
G1 X105.872 Y103.174 E1.43459 ; perimeter
G1 X106.004 Y103.083 E1.44100 ; perimeter
G1 E0.44100 F420.00000 ; retract
G92 E0 ; reset extrusion distance
G1 X110.801 Y105.375 F6000.000 ; move to first perimeter point
G1 E1.00000 F420.00000 ; unretract
G1 X111.554 Y105.301 E1.03029 F1500.000 ; perimeter
G1 X112.568 Y104.993 E1.07267 ; perimeter
G1 X113.503 Y104.494 E1.11505 ; perimeter
G1 X114.322 Y103.822 E1.15743 ; perimeter
G1 X114.953 Y103.053 E1.19723 ; perimeter
G1 X115.128 Y103.174 E1.20574 ; perimeter
G1 X113.730 Y105.595 E1.31757 ; perimeter
G1 X110.812 Y105.595 E1.43431 ; perimeter
G1 X110.803 Y105.428 E1.44100 ; perimeter
G1 E0.44100 F420.00000 ; retract
G92 E0 ; reset extrusion distance
G1 X115.363 Y102.313 F6000.000 ; move to first perimeter point
G1 E1.00000 F420.00000 ; unretract
G1 X115.493 Y102.068 E1.01108 F1500.000 ; perimeter
G1 X115.801 Y101.054 E1.05346 ; perimeter
G1 X115.905 Y100.000 E1.09584 ; perimeter
G1 X115.801 Y98.946 E1.13822 ; perimeter
G1 X115.493 Y97.932 E1.18060 ; perimeter
G1 X115.363 Y97.687 E1.19168 ; perimeter
G1 X115.561 Y97.577 E1.20077 ; perimeter
G1 X116.960 Y100.000 E1.31268 ; perimeter
G1 X115.561 Y102.423 E1.42459 ; perimeter
G1 X115.409 Y102.338 E1.43158 ; perimeter
G1 E0.43158 F420.00000 ; retract
G92 E0 ; reset extrusion distance
G1 X114.953 Y96.947 F6000.000 ; move to first perimeter point
G1 E1.00000 F420.00000 ; unretract
G1 X114.322 Y96.178 E1.03980 F1500.000 ; perimeter
G1 X113.503 Y95.506 E1.08218 ; perimeter
G1 X112.568 Y95.007 E1.12456 ; perimeter
G1 X111.549 Y94.698 E1.16715 ; perimeter
G1 X110.728 Y94.626 E1.20013 ; perimeter
G1 X110.738 Y94.405 E1.20898 ; perimeter
G1 X113.730 Y94.405 E1.32868 ; perimeter
G1 X115.128 Y96.826 E1.44050 ; perimeter
G1 X114.996 Y96.917 E1.44691 ; perimeter
G1 E0.44691 F420.00000 ; retract
G92 E0 ; reset extrusion distance
G1 X110.199 Y94.625 F6000.000 ; move to first perimeter point
G1 E1.00000 F420.00000 ; unretract
G1 X109.446 Y94.699 E1.03029 F1500.000 ; perimeter
G1 X108.432 Y95.007 E1.07267 ; perimeter
G1 X107.497 Y95.506 E1.11505 ; perimeter
G1 X106.678 Y96.178 E1.15743 ; perimeter
G1 X106.047 Y96.947 E1.19723 ; perimeter
G1 X105.872 Y96.826 E1.20574 ; perimeter
G1 X107.270 Y94.405 E1.31757 ; perimeter
G1 X110.188 Y94.405 E1.43431 ; perimeter
G1 X110.197 Y94.572 E1.44100 ; perimeter
G1 X110.270 Y95.347 F6000.000 ; move to first perimeter point
G1 X110.444 Y95.330 E1.44638 F1500.000 ; perimeter
G1 X111.411 Y95.414 E1.47628 ; perimeter
G1 X112.289 Y95.680 E1.50455 ; perimeter
G1 X113.098 Y96.112 E1.53278 ; perimeter
G1 X113.806 Y96.694 E1.56102 ; perimeter
G1 X114.388 Y97.402 E1.58925 ; perimeter
G1 X114.820 Y98.211 E1.61748 ; perimeter
G1 X115.086 Y99.088 E1.64572 ; perimeter
G1 X115.176 Y100.000 E1.67395 ; perimeter
G1 X115.086 Y100.912 E1.70219 ; perimeter
G1 X114.820 Y101.789 E1.73042 ; perimeter
G1 X114.388 Y102.598 E1.75865 ; perimeter
G1 X113.806 Y103.306 E1.78689 ; perimeter
G1 X113.098 Y103.888 E1.81512 ; perimeter
G1 X112.289 Y104.320 E1.84335 ; perimeter
G1 X111.412 Y104.586 E1.87159 ; perimeter
G1 X110.500 Y104.676 E1.89982 ; perimeter
G1 X109.588 Y104.586 E1.92806 ; perimeter
G1 X108.711 Y104.320 E1.95629 ; perimeter
G1 X107.902 Y103.888 E1.98452 ; perimeter
G1 X107.194 Y103.306 E2.01276 ; perimeter
G1 X106.612 Y102.598 E2.04099 ; perimeter
G1 X106.180 Y101.789 E2.06923 ; perimeter
G1 X105.914 Y100.912 E2.09746 ; perimeter
G1 X105.824 Y100.000 E2.12569 ; perimeter
G1 X105.914 Y99.088 E2.15393 ; perimeter
G1 X106.180 Y98.211 E2.18216 ; perimeter
G1 X106.612 Y97.402 E2.21040 ; perimeter
G1 X107.194 Y96.694 E2.23863 ; perimeter
G1 X107.902 Y96.112 E2.26686 ; perimeter
G1 X108.711 Y95.680 E2.29510 ; perimeter
G1 X109.588 Y95.414 E2.32333 ; perimeter
G1 X110.218 Y95.352 E2.34284 F1500.000 ; perimeter
G1 X110.342 Y95.188 F6000.000 ; move inwards before travel
G1 X110.237 Y95.008 F6000.000 ; move to first perimeter point
G1 X110.442 Y94.988 E2.35109 F1500.000 ; perimeter
G1 X111.476 Y95.077 E2.39260 ; perimeter
G1 X112.420 Y95.364 E2.43207 ; perimeter
G1 X113.288 Y95.828 E2.47142 ; perimeter
G1 X114.048 Y96.452 E2.51077 ; perimeter
G1 X114.672 Y97.212 E2.55012 ; perimeter
G1 X115.136 Y98.080 E2.58946 ; perimeter
G1 X115.422 Y99.021 E2.62881 ; perimeter
G1 X115.518 Y100.000 E2.66816 ; perimeter
G1 X115.422 Y100.979 E2.70751 ; perimeter
G1 X115.136 Y101.920 E2.74686 ; perimeter
G1 X114.672 Y102.788 E2.78621 ; perimeter
G1 X114.048 Y103.548 E2.82556 ; perimeter
G1 X113.288 Y104.172 E2.86491 ; perimeter
G1 X112.420 Y104.636 E2.90425 ; perimeter
G1 X111.479 Y104.922 E2.94360 ; perimeter
G1 X110.500 Y105.018 E2.98295 ; perimeter
G1 X109.521 Y104.922 E3.02230 ; perimeter
G1 X108.580 Y104.636 E3.06165 ; perimeter
G1 X107.712 Y104.172 E3.10100 ; perimeter
G1 X106.952 Y103.548 E3.14035 ; perimeter
G1 X106.328 Y102.788 E3.17969 ; perimeter
G1 X105.864 Y101.920 E3.21904 ; perimeter
G1 X105.578 Y100.979 E3.25839 ; perimeter
G1 X105.482 Y100.000 E3.29774 ; perimeter
G1 X105.578 Y99.021 E3.33709 ; perimeter
G1 X105.864 Y98.080 E3.37644 ; perimeter
G1 X106.328 Y97.212 E3.41579 ; perimeter
G1 X106.952 Y96.452 E3.45514 ; perimeter
G1 X107.712 Y95.828 E3.49448 ; perimeter
G1 X108.580 Y95.364 E3.53383 ; perimeter
G1 X109.521 Y95.078 E3.57318 ; perimeter
G1 X110.185 Y95.013 E3.59986 F1500.000 ; perimeter
G1 X109.041 Y94.609 F6000.000 ; move to first infill point
G1 X108.324 Y94.715 E3.62888 F600.000 ; infill
G1 X107.858 Y94.831 E3.64806 ; infill
G1 X107.605 Y94.841 F6000.000 ; move to first infill point
G1 X107.396 Y94.632 E3.65991 F2700.000 ; infill
G1 X107.331 Y95.114 F6000.000 ; move to first infill point
G1 X106.592 Y95.986 E3.70566 F600.000 ; infill
G1 E2.70566 F420.00000 ; retract
G92 E0 ; reset extrusion distance
G1 X105.098 Y98.575 F6000.000 ; move to first infill point
G1 E1.00000 F420.00000 ; unretract
G1 X104.960 Y98.893 E1.01388 F600.000 ; infill
G1 X104.883 Y99.132 E1.02391 ; infill
G1 X104.883 Y99.132 F6000.000 ; move to first infill point
G1 X104.605 Y100.000 E1.10194 F600.000 ; infill
G1 X104.883 Y100.868 E1.17997 ; infill
G1 X104.883 Y100.868 F6000.000 ; move to first infill point
G1 X104.960 Y101.107 E1.19001 F600.000 ; infill
G1 X105.098 Y101.425 E1.20389 ; infill
G1 E0.20389 F420.00000 ; retract
G92 E0 ; reset extrusion distance
G1 X106.592 Y104.014 F6000.000 ; move to first infill point
G1 E1.00000 F420.00000 ; unretract
G1 X107.331 Y104.886 E1.04574 F600.000 ; infill
G1 X107.437 Y105.061 F6000.000 ; move to first infill point
G1 X107.624 Y105.248 E1.05630 F2700.000 ; infill
G1 X107.858 Y105.169 F6000.000 ; move to first infill point
G1 X108.324 Y105.285 E1.07548 F600.000 ; infill
G1 X109.041 Y105.391 E1.10450 ; infill
G1 E0.10450 F420.00000 ; retract
G92 E0 ; reset extrusion distance
G1 X111.959 Y105.391 F6000.000 ; move to first infill point
G1 E1.00000 F420.00000 ; unretract
G1 X112.676 Y105.285 E1.02902 F600.000 ; infill
G1 X113.142 Y105.169 E1.04820 ; infill
G1 X113.399 Y105.061 F6000.000 ; move to first infill point
G1 X113.655 Y105.317 E1.06267 F2700.000 ; infill
G1 X113.669 Y104.886 F6000.000 ; move to first infill point
G1 X114.408 Y104.014 E1.10841 F600.000 ; infill
G1 E0.10841 F420.00000 ; retract
G92 E0 ; reset extrusion distance
G1 X115.902 Y101.425 F6000.000 ; move to first infill point
G1 E1.00000 F420.00000 ; unretract
G1 X116.040 Y101.107 E1.01388 F600.000 ; infill
G1 X116.117 Y100.868 E1.02391 ; infill
G1 X116.117 Y100.868 F6000.000 ; move to first infill point
G1 X116.395 Y100.000 E1.10194 F600.000 ; infill
G1 X116.117 Y99.132 E1.17997 ; infill
G1 X116.117 Y99.132 F6000.000 ; move to first infill point
G1 X116.040 Y98.893 E1.19001 F600.000 ; infill
G1 X115.902 Y98.575 E1.20389 ; infill
G1 E0.20389 F420.00000 ; retract
G92 E0 ; reset extrusion distance
G1 X114.408 Y95.986 F6000.000 ; move to first infill point
G1 E1.00000 F420.00000 ; unretract
G1 X113.669 Y95.114 E1.04574 F600.000 ; infill
G1 X113.655 Y94.846 F6000.000 ; move to first infill point
G1 X113.441 Y94.632 E1.05787 F2700.000 ; infill
G1 X113.142 Y94.831 F6000.000 ; move to first infill point
G1 X112.676 Y94.715 E1.07705 F600.000 ; infill
G1 X111.959 Y94.609 E1.10607 ; infill
G1 E0.10607 F420.00000 ; retract
G92 E0 ; reset extrusion distance
G1 X82.202 Y100.000 F6000.000 ; move to first perimeter point
G1 E1.00000 F420.00000 ; unretract
G1 X85.851 Y93.680 E1.22479 F1050.000 ; perimeter
G1 X93.149 Y93.680 E1.44958 ; perimeter
G1 X96.798 Y100.000 E1.67437 ; perimeter
G1 X93.149 Y106.320 E1.89916 ; perimeter
G1 X85.851 Y106.320 E2.12395 ; perimeter
G1 X82.228 Y100.045 E2.34713 ; perimeter
G1 X82.531 Y99.880 F6000.000 ; move inwards before travel
G1 X82.595 Y100.000 F6000.000 ; move to first perimeter point
G1 X86.048 Y94.020 E2.62331 F2100.000 ; perimeter
G1 X92.952 Y94.020 E2.89950 ; perimeter
G1 X96.405 Y100.000 E3.17568 ; perimeter
G1 X92.952 Y105.980 E3.45187 ; perimeter
G1 X86.048 Y105.980 E3.72805 ; perimeter
G1 X82.622 Y100.045 E4.00214 ; perimeter
G1 X83.040 Y100.000 F6000.000 ; move to first perimeter point
G1 X84.439 Y97.577 E4.11405 F1500.000 ; perimeter
G1 X84.637 Y97.687 E4.12314 ; perimeter
G1 X84.507 Y97.932 E4.13421 ; perimeter
G1 X84.199 Y98.946 E4.17660 ; perimeter
G1 X84.095 Y100.000 E4.21898 ; perimeter
G1 X84.199 Y101.054 E4.26136 ; perimeter
G1 X84.507 Y102.068 E4.30374 ; perimeter
G1 X84.637 Y102.313 E4.31482 ; perimeter
G1 X84.439 Y102.423 E4.32390 ; perimeter
G1 X83.066 Y100.045 E4.43371 ; perimeter
G1 E3.43371 F420.00000 ; retract
G92 E0 ; reset extrusion distance
G1 X85.047 Y103.053 F6000.000 ; move to first perimeter point
G1 E1.00000 F420.00000 ; unretract
G1 X85.678 Y103.822 E1.03980 F1500.000 ; perimeter
G1 X86.497 Y104.494 E1.08218 ; perimeter
G1 X87.432 Y104.993 E1.12456 ; perimeter
G1 X88.446 Y105.301 E1.16694 ; perimeter
G1 X89.199 Y105.375 E1.19723 ; perimeter
G1 X89.188 Y105.595 E1.20603 ; perimeter
G1 X86.270 Y105.595 E1.32277 ; perimeter
G1 X84.872 Y103.174 E1.43459 ; perimeter
G1 X85.004 Y103.083 E1.44100 ; perimeter
G1 E0.44100 F420.00000 ; retract
G92 E0 ; reset extrusion distance
G1 X89.801 Y105.375 F6000.000 ; move to first perimeter point
G1 E1.00000 F420.00000 ; unretract
G1 X90.554 Y105.301 E1.03029 F1500.000 ; perimeter
G1 X91.568 Y104.993 E1.07267 ; perimeter
G1 X92.503 Y104.494 E1.11505 ; perimeter
G1 X93.322 Y103.822 E1.15743 ; perimeter
G1 X93.953 Y103.053 E1.19723 ; perimeter
G1 X94.128 Y103.174 E1.20574 ; perimeter
G1 X92.730 Y105.595 E1.31757 ; perimeter
G1 X89.812 Y105.595 E1.43431 ; perimeter
G1 X89.803 Y105.428 E1.44100 ; perimeter
G1 E0.44100 F420.00000 ; retract
G92 E0 ; reset extrusion distance
G1 X94.363 Y102.313 F6000.000 ; move to first perimeter point
G1 E1.00000 F420.00000 ; unretract
G1 X94.493 Y102.068 E1.01108 F1500.000 ; perimeter
G1 X94.801 Y101.054 E1.05346 ; perimeter
G1 X94.905 Y100.000 E1.09584 ; perimeter
G1 X94.801 Y98.946 E1.13822 ; perimeter
G1 X94.493 Y97.932 E1.18060 ; perimeter
G1 X94.363 Y97.687 E1.19168 ; perimeter
G1 X94.561 Y97.577 E1.20077 ; perimeter
G1 X95.960 Y100.000 E1.31268 ; perimeter
G1 X94.561 Y102.423 E1.42459 ; perimeter
G1 X94.409 Y102.338 E1.43158 ; perimeter
G1 E0.43158 F420.00000 ; retract
G92 E0 ; reset extrusion distance
G1 X93.953 Y96.947 F6000.000 ; move to first perimeter point
G1 E1.00000 F420.00000 ; unretract
G1 X93.322 Y96.178 E1.03980 F1500.000 ; perimeter
G1 X92.503 Y95.506 E1.08218 ; perimeter
G1 X91.568 Y95.007 E1.12456 ; perimeter
G1 X90.549 Y94.698 E1.16715 ; perimeter
G1 X89.728 Y94.626 E1.20013 ; perimeter
G1 X89.738 Y94.405 E1.20898 ; perimeter
G1 X92.730 Y94.405 E1.32868 ; perimeter
G1 X94.128 Y96.826 E1.44050 ; perimeter
G1 X93.996 Y96.917 E1.44691 ; perimeter
G1 E0.44691 F420.00000 ; retract
G92 E0 ; reset extrusion distance
G1 X89.199 Y94.625 F6000.000 ; move to first perimeter point
G1 E1.00000 F420.00000 ; unretract
G1 X88.446 Y94.699 E1.03029 F1500.000 ; perimeter
G1 X87.432 Y95.007 E1.07267 ; perimeter
G1 X86.497 Y95.506 E1.11505 ; perimeter
G1 X85.678 Y96.178 E1.15743 ; perimeter
G1 X85.047 Y96.947 E1.19723 ; perimeter
G1 X84.872 Y96.826 E1.20574 ; perimeter
G1 X86.270 Y94.405 E1.31757 ; perimeter
G1 X89.188 Y94.405 E1.43431 ; perimeter
G1 X89.197 Y94.572 E1.44100 ; perimeter
G1 X89.270 Y95.347 F6000.000 ; move to first perimeter point
G1 X89.444 Y95.330 E1.44638 F1500.000 ; perimeter
G1 X90.411 Y95.414 E1.47628 ; perimeter
G1 X91.289 Y95.680 E1.50455 ; perimeter
G1 X92.098 Y96.112 E1.53278 ; perimeter
G1 X92.806 Y96.694 E1.56102 ; perimeter
G1 X93.388 Y97.402 E1.58925 ; perimeter
G1 X93.820 Y98.211 E1.61748 ; perimeter
G1 X94.086 Y99.088 E1.64572 ; perimeter
G1 X94.176 Y100.000 E1.67395 ; perimeter
G1 X94.086 Y100.912 E1.70219 ; perimeter
