; generated by Slic3r 0.9.3 on 2012-10-28 at 13:01:40

; layer_height = 0.25
; perimeters = 3
; solid_layers = 3
; fill_density = 0.1
; perimeter_speed = 70
; infill_speed = 90
; travel_speed = 100
; scale = 1
; nozzle_diameter = 0.35
; filament_diameter = 2.9
; extrusion_multiplier = 1
; single wall width = 0.39mm

M107 ; disable fan
M190 S100 ; wait for bed temperature to be reached
M104 S215 ; set temperature
G28 ; home all axes
M109 S215 ; wait for temperature to be reached
G90 ; use absolute coordinates
G21 ; set units to millimeters
G92 E0 ; reset extrusion distance
M82 ; use absolute distances for extrusion
G1 F420.000 E-0.50000 ; retract
G92 E0 ; reset extrusion distance
G1 Z0.250 F6000.000 ; move to next layer (0)
G1 X54.327 Y73.823 ; move to first skirt point
G1 F420.000 E0.50000 ; compensate retraction
G1 X54.857 Y73.803 F2100.000 E0.50773 ; skirt
G1 X145.657 Y73.823 E1.83032 ; skirt
G1 X146.177 Y73.893 E1.83796 ; skirt
G1 X146.697 Y74.003 E1.84570 ; skirt
G1 X147.197 Y74.153 E1.85331 ; skirt
G1 X147.697 Y74.343 E1.86110 ; skirt
G1 X148.167 Y74.573 E1.86872 ; skirt
G1 X148.617 Y74.843 E1.87636 ; skirt
G1 X148.837 Y74.993 E1.88024 ; skirt
G1 X149.257 Y75.313 E1.88793 ; skirt
G1 X149.647 Y75.673 E1.89566 ; skirt
G1 X150.007 Y76.063 E1.90339 ; skirt
G1 X150.327 Y76.483 E1.91109 ; skirt
G1 X150.617 Y76.923 E1.91876 ; skirt
G1 X150.867 Y77.383 E1.92639 ; skirt
G1 X151.077 Y77.873 E1.93415 ; skirt
G1 X151.247 Y78.373 E1.94184 ; skirt
G1 X151.377 Y78.883 E1.94951 ; skirt
G1 X151.467 Y79.403 E1.95720 ; skirt
G1 X151.497 Y79.663 E1.96101 ; skirt
G1 X151.497 Y120.323 E2.55326 ; skirt
G1 X151.427 Y120.843 E2.56091 ; skirt
G1 X151.317 Y121.363 E2.56865 ; skirt
G1 X151.167 Y121.863 E2.57625 ; skirt
G1 X150.977 Y122.363 E2.58404 ; skirt
G1 X150.747 Y122.833 E2.59166 ; skirt
G1 X150.477 Y123.283 E2.59931 ; skirt
G1 X150.327 Y123.503 E2.60319 ; skirt
G1 X150.007 Y123.923 E2.61088 ; skirt
G1 X149.647 Y124.313 E2.61861 ; skirt
G1 X149.257 Y124.673 E2.62634 ; skirt
G1 X148.837 Y124.993 E2.63403 ; skirt
G1 X148.397 Y125.283 E2.64171 ; skirt
G1 X147.937 Y125.533 E2.64933 ; skirt
G1 X147.447 Y125.743 E2.65710 ; skirt
G1 X146.947 Y125.913 E2.66479 ; skirt
G1 X146.437 Y126.043 E2.67246 ; skirt
G1 X145.917 Y126.133 E2.68014 ; skirt
G1 X145.657 Y126.163 E2.68396 ; skirt
G1 X145.127 Y126.183 E2.69168 ; skirt
G1 X54.327 Y126.163 E4.01427 ; skirt
G1 X53.807 Y126.093 E4.02192 ; skirt
G1 X53.287 Y125.983 E4.02966 ; skirt
G1 X52.787 Y125.833 E4.03726 ; skirt
G1 X52.287 Y125.643 E4.04505 ; skirt
G1 X51.817 Y125.413 E4.05267 ; skirt
G1 X51.367 Y125.143 E4.06032 ; skirt
G1 X51.147 Y124.993 E4.06420 ; skirt
G1 X50.727 Y124.673 E4.07189 ; skirt
G1 X50.337 Y124.313 E4.07962 ; skirt
G1 X49.977 Y123.923 E4.08735 ; skirt
G1 X49.657 Y123.503 E4.09504 ; skirt
G1 X49.367 Y123.063 E4.10272 ; skirt
G1 X49.117 Y122.603 E4.11034 ; skirt
G1 X48.907 Y122.113 E4.11811 ; skirt
G1 X48.737 Y121.613 E4.12580 ; skirt
G1 X48.607 Y121.103 E4.13347 ; skirt
G1 X48.517 Y120.583 E4.14115 ; skirt
G1 X48.487 Y120.323 E4.14497 ; skirt
G1 X48.487 Y79.663 E4.73722 ; skirt
G1 X48.557 Y79.143 E4.74486 ; skirt
G1 X48.667 Y78.623 E4.75260 ; skirt
G1 X48.817 Y78.123 E4.76021 ; skirt
G1 X49.007 Y77.623 E4.76800 ; skirt
G1 X49.237 Y77.153 E4.77562 ; skirt
G1 X49.507 Y76.703 E4.78326 ; skirt
G1 X49.657 Y76.483 E4.78714 ; skirt
G1 X49.977 Y76.063 E4.79483 ; skirt
G1 X50.337 Y75.673 E4.80257 ; skirt
G1 X50.727 Y75.313 E4.81030 ; skirt
G1 X51.147 Y74.993 E4.81799 ; skirt
G1 X51.587 Y74.703 E4.82566 ; skirt
G1 X52.047 Y74.453 E4.83329 ; skirt
G1 X52.537 Y74.243 E4.84105 ; skirt
G1 X53.037 Y74.073 E4.84875 ; skirt
G1 X53.547 Y73.943 E4.85641 ; skirt
G1 X53.936 Y73.874 E4.86217 ; skirt
G1 F420.000 E4.36217 ; retract
G92 E0 ; reset extrusion distance
G1 X58.406 Y113.535 F6000.000 ; move to first perimeter point
G1 F420.000 E0.50000 ; compensate retraction
G1 X58.406 Y113.697 F1500.000 E0.50237 ; perimeter
G1 X59.003 Y113.603 E0.51118 ; perimeter
G1 X59.003 Y113.709 E0.51273 ; perimeter
G1 X59.393 Y113.771 E0.51848 ; perimeter
G1 X59.393 Y113.771 E0.51848 ; perimeter
G1 X59.772 Y113.831 E0.52407 ; perimeter
G1 X59.772 Y113.965 E0.52601 ; perimeter
G1 X60.044 Y114.104 E0.53047 ; perimeter
G1 X60.563 Y114.622 E0.54116 ; perimeter
G1 X60.843 Y115.173 E0.55015 ; perimeter
G1 X60.843 Y115.173 E0.55015 ; perimeter
G1 X60.896 Y115.276 E0.55184 ; perimeter
G1 X60.921 Y115.436 E0.55420 ; perimeter
G1 X61.100 Y115.436 E0.55680 ; perimeter
G1 X61.009 Y116.010 E0.56527 ; perimeter
G1 X61.009 Y116.010 E0.56527 ; perimeter
G1 X60.896 Y116.724 E0.57581 ; perimeter
G1 X60.843 Y116.827 E0.57749 ; perimeter
G1 X60.843 Y116.827 E0.57749 ; perimeter
G1 X60.563 Y117.378 E0.58649 ; perimeter
G1 X60.044 Y117.896 E0.59717 ; perimeter
G1 X59.772 Y118.035 E0.60163 ; perimeter
G1 X59.772 Y118.169 E0.60358 ; perimeter
G1 X59.393 Y118.229 E0.60917 ; perimeter
G1 X59.393 Y118.229 E0.60917 ; perimeter
G1 X59.003 Y118.291 E0.61492 ; perimeter
G1 X59.003 Y118.397 E0.61647 ; perimeter
G1 X58.406 Y118.303 E0.62528 ; perimeter
G1 X58.406 Y118.465 E0.62765 ; perimeter
G1 X57.289 Y117.896 E0.64591 ; perimeter
G1 X56.770 Y117.378 E0.65659 ; perimeter
G1 X56.718 Y117.275 E0.65827 ; perimeter
G1 X56.718 Y117.275 E0.65827 ; perimeter
G1 X56.437 Y116.724 E0.66727 ; perimeter
G1 X56.323 Y116.000 E0.67795 ; perimeter
G1 X56.437 Y115.276 E0.68864 ; perimeter
G1 X56.770 Y114.622 E0.69932 ; perimeter
G1 X57.289 Y114.104 E0.71000 ; perimeter
G1 X58.054 Y113.714 E0.72251 ; perimeter
G1 X58.064 Y114.146 F6000.000 ; move to first perimeter point
G1 X58.613 Y114.059 F1500.000 E0.73061 ; perimeter
G1 X58.613 Y114.059 E0.73061 ; perimeter
G1 X58.667 Y114.050 E0.73140 ; perimeter
G1 X59.269 Y114.146 E0.74028 ; perimeter
G1 X59.269 Y114.146 E0.74028 ; perimeter
G1 X59.382 Y114.164 E0.74195 ; perimeter
G1 X59.382 Y114.203 E0.74253 ; perimeter
G1 X59.813 Y114.423 E0.74957 ; perimeter
G1 X60.244 Y114.854 E0.75845 ; perimeter
G1 X60.521 Y115.398 E0.76734 ; perimeter
G1 X60.589 Y115.825 E0.77364 ; perimeter
G1 X60.644 Y115.825 E0.77445 ; perimeter
G1 X60.616 Y116.000 E0.77703 ; perimeter
G1 X60.616 Y116.000 E0.77703 ; perimeter
G1 X60.521 Y116.602 E0.78591 ; perimeter
G1 X60.244 Y117.146 E0.79480 ; perimeter
G1 X59.813 Y117.577 E0.80368 ; perimeter
G1 X59.382 Y117.797 E0.81072 ; perimeter
G1 X59.382 Y117.836 E0.81130 ; perimeter
G1 X59.269 Y117.854 E0.81296 ; perimeter
G1 X59.269 Y117.854 E0.81297 ; perimeter
G1 X58.667 Y117.950 E0.82185 ; perimeter
G1 X58.613 Y117.941 E0.82264 ; perimeter
G1 X58.613 Y117.941 E0.82264 ; perimeter
G1 X58.064 Y117.854 E0.83073 ; perimeter
G1 X58.016 Y117.830 E0.83152 ; perimeter
G1 X58.016 Y117.830 E0.83152 ; perimeter
G1 X57.521 Y117.577 E0.83962 ; perimeter
G1 X57.089 Y117.146 E0.84850 ; perimeter
G1 X56.812 Y116.602 E0.85739 ; perimeter
G1 X56.717 Y116.000 E0.86627 ; perimeter
G1 X56.812 Y115.398 E0.87516 ; perimeter
G1 X57.089 Y114.854 E0.88404 ; perimeter
G1 X57.521 Y114.423 E0.89293 ; perimeter
G1 X57.713 Y114.325 E0.89607 ; perimeter
G1 F420.000 E0.39607 ; retract
G92 E0 ; reset extrusion distance
G1 X88.323 Y116.000 F6000.000 ; move to first perimeter point
G1 F420.000 E0.50000 ; compensate retraction
G1 X88.438 Y115.274 F1500.000 E0.51071 ; perimeter
G1 X88.438 Y115.274 E0.51071 ; perimeter
G1 X88.498 Y114.895 E0.51630 ; perimeter
G1 X88.631 Y114.895 E0.51824 ; perimeter
G1 X88.770 Y114.622 E0.52270 ; perimeter
G1 X89.289 Y114.104 E0.53339 ; perimeter
G1 X89.839 Y113.823 E0.54238 ; perimeter
G1 X89.839 Y113.823 E0.54238 ; perimeter
G1 X89.942 Y113.771 E0.54407 ; perimeter
G1 X91.003 Y113.603 E0.55971 ; perimeter
G1 X91.003 Y113.709 E0.56126 ; perimeter
G1 X91.388 Y113.770 E0.56695 ; perimeter
G1 X91.388 Y113.770 E0.56695 ; perimeter
G1 X91.772 Y113.831 E0.57260 ; perimeter
G1 X91.772 Y113.965 E0.57455 ; perimeter
G1 X92.044 Y114.104 E0.57901 ; perimeter
G1 X92.563 Y114.622 E0.58969 ; perimeter
G1 X92.896 Y115.276 E0.60037 ; perimeter
G1 X93.064 Y116.336 E0.61601 ; perimeter
G1 X92.958 Y116.336 E0.61756 ; perimeter
G1 X92.896 Y116.724 E0.62329 ; perimeter
G1 X92.563 Y117.378 E0.63397 ; perimeter
G1 X92.044 Y117.896 E0.64465 ; perimeter
G1 X91.772 Y118.035 E0.64911 ; perimeter
G1 X91.772 Y118.169 E0.65106 ; perimeter
G1 X91.388 Y118.230 E0.65671 ; perimeter
G1 X91.388 Y118.230 E0.65671 ; perimeter
G1 X91.003 Y118.291 E0.66240 ; perimeter
G1 X91.003 Y118.397 E0.66395 ; perimeter
G1 X89.942 Y118.229 E0.67959 ; perimeter
G1 X89.839 Y118.177 E0.68128 ; perimeter
G1 X89.839 Y118.177 E0.68128 ; perimeter
G1 X89.289 Y117.896 E0.69027 ; perimeter
G1 X88.770 Y117.378 E0.70096 ; perimeter
G1 X88.631 Y117.105 E0.70542 ; perimeter
G1 X88.498 Y117.105 E0.70736 ; perimeter
G1 X88.437 Y116.721 E0.71302 ; perimeter
G1 X88.437 Y116.721 E0.71302 ; perimeter
G1 X88.384 Y116.390 E0.71791 ; perimeter
G1 X88.805 Y116.554 F6000.000 ; move to first perimeter point
G1 X88.717 Y116.000 F1500.000 E0.72608 ; perimeter
G1 X88.813 Y115.397 E0.73498 ; perimeter
G1 X88.813 Y115.397 E0.73498 ; perimeter
G1 X88.830 Y115.285 E0.73663 ; perimeter
G1 X88.870 Y115.285 E0.73721 ; perimeter
G1 X89.089 Y114.854 E0.74425 ; perimeter
G1 X89.521 Y114.423 E0.75314 ; perimeter
G1 X90.064 Y114.146 E0.76202 ; perimeter
G1 X90.613 Y114.059 E0.77012 ; perimeter
G1 X90.613 Y114.059 E0.77012 ; perimeter
G1 X90.667 Y114.050 E0.77091 ; perimeter
G1 X91.270 Y114.146 E0.77980 ; perimeter
G1 X91.270 Y114.146 E0.77980 ; perimeter
G1 X91.382 Y114.164 E0.78146 ; perimeter
G1 X91.382 Y114.203 E0.78203 ; perimeter
G1 X91.813 Y114.423 E0.78907 ; perimeter
G1 X92.244 Y114.854 E0.79796 ; perimeter
G1 X92.521 Y115.398 E0.80684 ; perimeter
G1 X92.608 Y115.947 E0.81494 ; perimeter
G1 X92.608 Y115.947 E0.81494 ; perimeter
G1 X92.616 Y116.000 E0.81573 ; perimeter
G1 X92.521 Y116.602 E0.82461 ; perimeter
G1 X92.244 Y117.146 E0.83350 ; perimeter
G1 X91.813 Y117.577 E0.84238 ; perimeter
G1 X91.382 Y117.797 E0.84942 ; perimeter
G1 X91.382 Y117.836 E0.85000 ; perimeter
G1 X91.270 Y117.854 E0.85165 ; perimeter
G1 X91.270 Y117.854 E0.85165 ; perimeter
G1 X90.667 Y117.950 E0.86055 ; perimeter
G1 X90.613 Y117.941 E0.86134 ; perimeter
G1 X90.613 Y117.941 E0.86134 ; perimeter
G1 X90.064 Y117.854 E0.86943 ; perimeter
G1 X89.521 Y117.577 E0.87832 ; perimeter
G1 X89.089 Y117.146 E0.88721 ; perimeter
G1 X88.957 Y116.886 E0.89146 ; perimeter
G1 F420.000 E0.39146 ; retract
G92 E0 ; reset extrusion distance
G1 X90.667 Y86.344 F6000.000 ; move to first perimeter point
G1 F420.000 E0.50000 ; compensate retraction
G1 X89.942 Y86.229 F1500.000 E0.51068 ; perimeter
G1 X89.839 Y86.177 E0.51237 ; perimeter
G1 X89.839 Y86.177 E0.51237 ; perimeter
G1 X89.289 Y85.896 E0.52137 ; perimeter
G1 X88.770 Y85.378 E0.53205 ; perimeter
G1 X88.631 Y85.105 E0.53651 ; perimeter
G1 X88.498 Y85.105 E0.53845 ; perimeter
G1 X88.438 Y84.726 E0.54405 ; perimeter
G1 X88.438 Y84.726 E0.54405 ; perimeter
G1 X88.323 Y84.000 E0.55475 ; perimeter
G1 X88.437 Y83.278 E0.56539 ; perimeter
G1 X88.437 Y83.278 E0.56540 ; perimeter
G1 X88.498 Y82.895 E0.57105 ; perimeter
G1 X88.631 Y82.895 E0.57299 ; perimeter
G1 X88.770 Y82.622 E0.57745 ; perimeter
G1 X89.289 Y82.104 E0.58814 ; perimeter
G1 X89.839 Y81.823 E0.59713 ; perimeter
G1 X89.839 Y81.823 E0.59713 ; perimeter
G1 X89.942 Y81.771 E0.59882 ; perimeter
G1 X90.667 Y81.656 E0.60950 ; perimeter
G1 X91.391 Y81.771 E0.62018 ; perimeter
G1 X91.941 Y82.051 E0.62918 ; perimeter
G1 X91.941 Y82.051 E0.62918 ; perimeter
G1 X92.045 Y82.104 E0.63087 ; perimeter
G1 X92.563 Y82.622 E0.64155 ; perimeter
G1 X93.132 Y83.739 E0.65981 ; perimeter
G1 X92.969 Y83.739 E0.66218 ; perimeter
G1 X93.064 Y84.336 E0.67099 ; perimeter
G1 X92.958 Y84.336 E0.67254 ; perimeter
G1 X92.896 Y84.724 E0.67826 ; perimeter
G1 X92.563 Y85.378 E0.68894 ; perimeter
G1 X92.045 Y85.896 E0.69963 ; perimeter
G1 X91.391 Y86.229 E0.71031 ; perimeter
G1 X91.056 Y86.282 E0.71525 ; perimeter
G1 X91.216 Y85.863 F6000.000 ; move to first perimeter point
G1 X90.667 Y85.950 F1500.000 E0.72335 ; perimeter
G1 X90.064 Y85.854 E0.73223 ; perimeter
G1 X89.521 Y85.577 E0.74112 ; perimeter
G1 X89.089 Y85.146 E0.75000 ; perimeter
G1 X88.870 Y84.715 E0.75704 ; perimeter
G1 X88.830 Y84.715 E0.75762 ; perimeter
G1 X88.812 Y84.602 E0.75928 ; perimeter
G1 X88.812 Y84.602 E0.75928 ; perimeter
G1 X88.717 Y84.000 E0.76817 ; perimeter
G1 X88.813 Y83.397 E0.77706 ; perimeter
G1 X88.813 Y83.397 E0.77706 ; perimeter
G1 X88.830 Y83.285 E0.77872 ; perimeter
G1 X88.870 Y83.285 E0.77930 ; perimeter
G1 X89.089 Y82.854 E0.78633 ; perimeter
G1 X89.521 Y82.423 E0.79522 ; perimeter
G1 X90.064 Y82.146 E0.80410 ; perimeter
G1 X90.667 Y82.050 E0.81299 ; perimeter
G1 X91.269 Y82.146 E0.82187 ; perimeter
G1 X91.813 Y82.423 E0.83076 ; perimeter
G1 X92.244 Y82.854 E0.83964 ; perimeter
G1 X92.496 Y83.349 E0.84774 ; perimeter
G1 X92.496 Y83.349 E0.84774 ; perimeter
G1 X92.521 Y83.398 E0.84853 ; perimeter
G1 X92.608 Y83.947 E0.85663 ; perimeter
G1 X92.608 Y83.947 E0.85663 ; perimeter
G1 X92.616 Y84.000 E0.85741 ; perimeter
G1 X92.521 Y84.602 E0.86630 ; perimeter
G1 X92.244 Y85.146 E0.87518 ; perimeter
G1 X91.813 Y85.577 E0.88407 ; perimeter
G1 X91.572 Y85.700 E0.88800 ; perimeter
G1 F420.000 E0.38800 ; retract
G92 E0 ; reset extrusion distance
G1 X61.064 Y84.336 F6000.000 ; move to first perimeter point
G1 F420.000 E0.50000 ; compensate retraction
G1 X60.958 Y84.336 F1500.000 E0.50155 ; perimeter
G1 X60.896 Y84.724 E0.50728 ; perimeter
G1 X60.843 Y84.827 E0.50896 ; perimeter
G1 X60.843 Y84.827 E0.50896 ; perimeter
G1 X60.563 Y85.378 E0.51796 ; perimeter
G1 X60.154 Y85.787 E0.52638 ; perimeter
G1 X60.154 Y85.841 E0.52717 ; perimeter
G1 X59.391 Y86.229 E0.53964 ; perimeter
G1 X58.667 Y86.344 E0.55032 ; perimeter
G1 X57.942 Y86.229 E0.56101 ; perimeter
G1 X57.289 Y85.896 E0.57169 ; perimeter
G1 X56.770 Y85.378 E0.58237 ; perimeter
G1 X56.462 Y84.772 E0.59227 ; perimeter
G1 X56.445 Y84.772 E0.59251 ; perimeter
G1 X56.437 Y84.725 E0.59321 ; perimeter
G1 X56.437 Y84.725 E0.59321 ; perimeter
G1 X56.323 Y84.000 E0.60391 ; perimeter
G1 X56.437 Y83.276 E0.61459 ; perimeter
G1 X56.770 Y82.622 E0.62527 ; perimeter
G1 X57.289 Y82.104 E0.63595 ; perimeter
G1 X57.942 Y81.771 E0.64664 ; perimeter
G1 X58.667 Y81.656 E0.65732 ; perimeter
G1 X59.391 Y81.771 E0.66800 ; perimeter
G1 X60.045 Y82.104 E0.67868 ; perimeter
G1 X60.563 Y82.622 E0.68937 ; perimeter
G1 X60.896 Y83.276 E0.70005 ; perimeter
G1 X60.958 Y83.664 E0.70577 ; perimeter
G1 X61.064 Y83.664 E0.70732 ; perimeter
G1 X61.019 Y83.947 E0.71150 ; perimeter
G1 X60.616 Y84.000 F6000.000 ; move to first perimeter point
G1 X60.608 Y84.053 F1500.000 E0.71228 ; perimeter
G1 X60.608 Y84.053 E0.71228 ; perimeter
G1 X60.521 Y84.602 E0.72038 ; perimeter
G1 X60.244 Y85.146 E0.72927 ; perimeter
G1 X59.813 Y85.577 E0.73815 ; perimeter
G1 X59.764 Y85.602 E0.73894 ; perimeter
G1 X59.764 Y85.602 E0.73894 ; perimeter
G1 X59.269 Y85.854 E0.74704 ; perimeter
G1 X58.667 Y85.950 E0.75592 ; perimeter
G1 X58.064 Y85.854 E0.76481 ; perimeter
G1 X57.521 Y85.577 E0.77369 ; perimeter
G1 X57.089 Y85.146 E0.78258 ; perimeter
G1 X56.812 Y84.602 E0.79146 ; perimeter
G1 X56.778 Y84.383 E0.79470 ; perimeter
G1 X56.778 Y84.383 E0.79470 ; perimeter
G1 X56.717 Y84.000 E0.80035 ; perimeter
G1 X56.812 Y83.398 E0.80923 ; perimeter
G1 X57.089 Y82.854 E0.81812 ; perimeter
G1 X57.521 Y82.423 E0.82700 ; perimeter
G1 X58.064 Y82.146 E0.83589 ; perimeter
G1 X58.667 Y82.050 E0.84477 ; perimeter
G1 X59.269 Y82.146 E0.85366 ; perimeter
G1 X59.813 Y82.423 E0.86254 ; perimeter
G1 X60.244 Y82.854 E0.87143 ; perimeter
G1 X60.521 Y83.398 E0.88031 ; perimeter
G1 X60.555 Y83.610 E0.88345 ; perimeter
G1 F420.000 E0.38345 ; retract
G92 E0 ; reset extrusion distance
G1 X55.872 Y116.473 F6000.000 ; move to first perimeter point
G1 F420.000 E0.50000 ; compensate retraction
G1 X56.451 Y117.610 F1500.000 E0.51858 ; perimeter
G1 X57.057 Y118.216 E0.53106 ; perimeter
G1 X58.194 Y118.795 E0.54964 ; perimeter
G1 X58.139 Y119.024 E0.55307 ; perimeter
G1 X55.643 Y119.024 E0.58942 ; perimeter
G1 X55.643 Y116.687 E0.62345 ; perimeter
G1 F420.000 E0.12345 ; retract
