; generated by Slic3r 0.9.7 on 2012-12-08 at 16:20:00

; layer_height = 0.25
; perimeters = 3
; top_solid_layers = 3
; bottom_solid_layers = 3
; fill_density = 0.15
; perimeter_speed = 70
; infill_speed = 90
; travel_speed = 100
; scale = 1
; nozzle_diameter = 0.35
; filament_diameter = 2.9
; extrusion_multiplier = 1
; perimeters extrusion width = 0.39mm
; infill extrusion width = 0.39mm
; first layer extrusion width = 0.39mm

M107
G28 ; home all axes
G90 ; use absolute coordinates
G21 ; set units to millimeters
G92 E0
M82 ; use absolute distances for extrusion
G1 F420.000 E-0.50000
G92 E0
G1 Z0.250 F6000.000
G1 X70.002 Y69.665
G1 F420.000 E0.50000
G1 X70.592 Y69.095 F2100.000 E0.51195
G1 X74.032 Y66.155 E0.57786
G1 X74.572 Y65.735 E0.58783
G1 X74.972 Y65.455 E0.59494
G1 X79.222 Y62.725 E0.66852
G1 X79.502 Y62.575 E0.67314
G1 X84.242 Y60.345 E0.74945
G1 X84.982 Y60.075 E0.76092
G1 X89.292 Y58.705 E0.82679
G1 X89.862 Y58.545 E0.83542
G1 X90.442 Y58.425 E0.84404
G1 X94.892 Y57.645 E0.90985
G1 X95.522 Y57.555 E0.91912
G1 X96.072 Y57.515 E0.92715
G1 X100.602 Y57.345 E0.99318
G1 X101.752 Y57.375 E1.00994
G1 X106.252 Y57.795 E1.07577
G1 X106.842 Y57.875 E1.08445
G1 X107.162 Y57.935 E1.08919
G1 X111.832 Y59.015 E1.15901
G1 X112.482 Y59.195 E1.16883
G1 X112.972 Y59.355 E1.17634
G1 X117.202 Y60.965 E1.24226
G1 X117.832 Y61.235 E1.25225
G1 X118.252 Y61.445 E1.25909
G1 X122.232 Y63.595 E1.32498
G1 X123.232 Y64.225 E1.34219
G1 X127.122 Y67.065 E1.41235
G1 X127.792 Y67.645 E1.42526
G1 X131.062 Y70.775 E1.49119
G1 X131.582 Y71.315 E1.50211
G1 X131.862 Y71.635 E1.50831
G1 X134.682 Y75.165 E1.57412
G1 X135.042 Y75.645 E1.58286
G1 X135.362 Y76.145 E1.59150
G1 X137.832 Y80.285 E1.66172
G1 X137.982 Y80.565 E1.66635
G1 X140.002 Y85.225 E1.74033
G1 X140.242 Y85.845 E1.75001
G1 X140.402 Y86.325 E1.75738
G1 X141.622 Y90.685 E1.82333
G1 X141.772 Y91.305 E1.83262
G1 X141.862 Y91.845 E1.84060
G1 X142.522 Y96.605 E1.91059
G1 X142.552 Y96.925 E1.91528
G1 X142.572 Y97.495 E1.92358
G1 X142.582 Y102.445 E1.99569
G1 X142.522 Y103.165 E2.00621
G1 X141.952 Y107.655 E2.07214
G1 X141.842 Y108.355 E2.08246
G1 X141.722 Y108.835 E2.08966
G1 X140.542 Y113.205 E2.15560
G1 X140.342 Y113.865 E2.16564
G1 X138.432 Y118.475 E2.23833
G1 X138.212 Y118.955 E2.24602
G1 X137.902 Y119.535 E2.25560
G1 X135.622 Y123.435 E2.32140
G1 X135.242 Y124.025 E2.33162
G1 X134.972 Y124.405 E2.33841
G1 X132.192 Y127.975 E2.40432
G1 X131.642 Y128.605 E2.41650
G1 X128.172 Y132.015 E2.48737
G1 X127.812 Y132.345 E2.49448
G1 X127.272 Y132.785 E2.50462
G1 X123.642 Y135.495 E2.57061
G1 X122.662 Y136.125 E2.58758
G1 X118.702 Y138.325 E2.65356
G1 X118.092 Y138.635 E2.66353
G1 X117.642 Y138.835 E2.67070
G1 X113.422 Y140.485 E2.73670
G1 X112.922 Y140.655 E2.74440
G1 X112.312 Y140.825 E2.75362
G1 X107.912 Y141.905 E2.81961
G1 X107.412 Y142.005 E2.82704
G1 X106.762 Y142.105 E2.83662
G1 X102.262 Y142.585 E2.90254
G1 X101.772 Y142.615 E2.90969
G1 X101.082 Y142.625 E2.91974
G1 X96.562 Y142.505 E2.98560
G1 X96.132 Y142.485 E2.99187
G1 X95.382 Y142.395 E3.00287
G1 X90.912 Y141.665 E3.06885
G1 X90.222 Y141.525 E3.07910
G1 X89.772 Y141.405 E3.08589
G1 X85.442 Y140.085 E3.15182
G1 X84.802 Y139.855 E3.16173
G1 X84.352 Y139.675 E3.16879
G1 X80.232 Y137.795 E3.23475
G1 X79.712 Y137.525 E3.24329
G1 X79.202 Y137.225 E3.25191
G1 X75.372 Y134.815 E3.31782
G1 X75.002 Y134.575 E3.32424
G1 X74.422 Y134.125 E3.33494
G1 X70.952 Y131.225 E3.40081
G1 X70.632 Y130.935 E3.40710
G1 X70.102 Y130.415 E3.41791
G1 X67.042 Y127.075 E3.48389
G1 X66.762 Y126.755 E3.49009
G1 X66.302 Y126.155 E3.50110
G1 X63.722 Y122.435 E3.56704
G1 X63.402 Y121.925 E3.57581
G1 X63.112 Y121.435 E3.58411
G1 X61.052 Y117.405 E3.65003
G1 X60.882 Y117.035 E3.65596
G1 X60.592 Y116.325 E3.66713
G1 X59.082 Y112.065 E3.73297
G1 X58.922 Y111.535 E3.74103
G1 X58.772 Y110.935 E3.75004
G1 X57.842 Y106.505 E3.81597
G1 X57.732 Y105.865 E3.82543
G1 X57.672 Y105.325 E3.83335
G1 X57.352 Y100.815 E3.89920
G1 X57.332 Y100.245 E3.90751
G1 X57.342 Y99.655 E3.91611
G1 X57.622 Y95.135 E3.98207
G1 X57.692 Y94.415 E3.99261
G1 X57.772 Y93.965 E3.99927
G1 X58.652 Y89.525 E4.06520
G1 X58.812 Y88.855 E4.07523
G1 X58.952 Y88.395 E4.08224
G1 X60.552 Y83.725 E4.15414
G1 X60.862 Y83.025 E4.16529
G1 X62.882 Y78.975 E4.23121
G1 X63.212 Y78.375 E4.24119
G1 X63.472 Y77.955 E4.24838
G1 X66.022 Y74.205 E4.31444
G1 X66.412 Y73.685 E4.32391
G1 X66.742 Y73.285 E4.33146
G1 X69.962 Y69.707 E4.40158
G1 X70.002 Y69.665 E4.40242
G1 F420.000 E3.90242
G92 E0
G1 X95.839 Y95.835 F6000.000
G1 F420.000 E0.50000
G1 X97.748 Y94.559 F1500.000 E0.53345
G1 X100.001 Y94.111 E0.56690
G1 X102.253 Y94.559 E0.60035
G1 X104.163 Y95.835 E0.63380
G1 X105.439 Y97.744 E0.66726
G1 X105.887 Y99.997 E0.70071
G1 X105.439 Y102.249 E0.73416
G1 X104.163 Y104.159 E0.76761
G1 X102.253 Y105.435 E0.80106
G1 X100.001 Y105.883 E0.83451
G1 X97.748 Y105.435 E0.86796
G1 X95.839 Y104.159 E0.90142
G1 X94.563 Y102.249 E0.93487
G1 X94.115 Y99.997 E0.96832
G1 X94.563 Y97.744 E1.00177
G1 X95.807 Y95.883 E1.03438
G1 X95.839 Y95.835 E1.03522
G1 X96.116 Y96.112 F6000.000
G1 X97.899 Y94.922 F1500.000 E1.06644
G1 X100.001 Y94.503 E1.09766
G1 X102.103 Y94.922 E1.12888
G1 X103.885 Y96.112 E1.16010
G1 X105.076 Y97.895 E1.19133
G1 X105.494 Y99.997 E1.22255
G1 X105.076 Y102.099 E1.25377
G1 X103.885 Y103.881 E1.28499
G1 X102.103 Y105.072 E1.31621
G1 X100.001 Y105.490 E1.34743
G1 X97.899 Y105.072 E1.37865
G1 X96.116 Y103.881 E1.40987
G1 X94.925 Y102.099 E1.44110
G1 X94.507 Y99.997 E1.47232
G1 X94.925 Y97.895 E1.50354
G1 X96.084 Y96.160 E1.53392
G1 X96.116 Y96.112 E1.53476
G1 X96.394 Y96.390 F6000.000
G1 X98.049 Y95.284 F1500.000 E1.56375
G1 X100.001 Y94.896 E1.59274
G1 X101.953 Y95.284 E1.62173
G1 X103.608 Y96.390 E1.65072
G1 X104.714 Y98.045 E1.67971
G1 X105.102 Y99.997 E1.70871
G1 X104.714 Y101.949 E1.73770
G1 X103.608 Y103.604 E1.76669
G1 X101.953 Y104.710 E1.79568
G1 X100.001 Y105.098 E1.82467
G1 X98.049 Y104.710 E1.85366
G1 X96.394 Y103.604 E1.88265
G1 X95.288 Y101.949 E1.91164
G1 X94.900 Y99.997 E1.94063
G1 X95.288 Y98.045 E1.96963
G1 X96.362 Y96.438 E1.99778
G1 X96.394 Y96.390 E1.99862
G1 F420.000 E1.49862
G92 E0
G1 X107.305 Y110.922 F6000.000
G1 F420.000 E0.50000
G1 X109.027 Y109.549 F2100.000 E0.53207
G1 X111.076 Y108.745 E0.56414
G1 X113.272 Y108.580 E0.59621
G1 X115.419 Y109.070 E0.62829
G1 X117.325 Y110.171 E0.66036
G1 X118.823 Y111.785 E0.69243
G1 X119.778 Y113.769 E0.72450
G1 X120.107 Y115.946 E0.75658
G1 X119.778 Y118.123 E0.78865
G1 X118.823 Y120.107 E0.82072
G1 X117.375 Y121.668 E0.85172
G1 X111.552 Y126.312 E0.96022
G1 X106.350 Y119.788 E1.08176
G1 X106.446 Y119.711 E1.08356
G1 X106.065 Y119.151 E1.09342
G1 X105.416 Y117.047 E1.12549
G1 X105.416 Y114.845 E1.15757
G1 X106.065 Y112.741 E1.18964
G1 X107.273 Y110.970 E1.22087
G1 X107.305 Y110.922 E1.22171
G1 X107.590 Y111.187 F6000.000
G1 X109.221 Y109.886 F2100.000 E1.25209
G1 X111.163 Y109.124 E1.28248
G1 X113.243 Y108.968 E1.31286
G1 X115.276 Y109.432 E1.34324
G1 X117.083 Y110.475 E1.37362
G1 X118.501 Y112.004 E1.40400
G1 X119.407 Y113.884 E1.43439
G1 X119.717 Y115.946 E1.46477
G1 X119.407 Y118.009 E1.49515
G1 X118.501 Y119.888 E1.52553
G1 X117.113 Y121.385 E1.55527
G1 X111.613 Y125.771 E1.65774
G1 X106.891 Y119.849 E1.76806
G1 X106.966 Y119.790 E1.76946
G1 X106.415 Y118.982 E1.78369
G1 X105.801 Y116.989 E1.81407
G1 X105.801 Y114.903 E1.84445
G1 X106.415 Y112.910 E1.87483
G1 X107.558 Y111.234 E1.90437
G1 X107.590 Y111.187 E1.90522
G1 X107.876 Y111.451 F6000.000
G1 X109.416 Y110.223 F1050.000 E1.93391
G1 X111.249 Y109.504 E1.96260
G1 X113.214 Y109.356 E1.99129
G1 X115.134 Y109.795 E2.01998
G1 X116.840 Y110.780 E2.04868
G1 X118.180 Y112.224 E2.07737
G1 X119.035 Y113.998 E2.10606
G1 X119.328 Y115.946 E2.13475
G1 X119.035 Y117.894 E2.16345
G1 X118.180 Y119.669 E2.19214
G1 X116.850 Y121.102 E2.22061
G1 X111.674 Y125.230 E2.31705
G1 X107.432 Y119.911 E2.41615
G1 X107.485 Y119.868 E2.41714
G1 X106.766 Y118.813 E2.43574
G1 X106.185 Y116.931 E2.46443
G1 X106.185 Y114.961 E2.49312
G1 X106.766 Y113.079 E2.52182
G1 X107.843 Y111.499 E2.54967
G1 X107.876 Y111.451 E2.55051
G1 X108.222 Y111.284 F6000.000
G1 F420.000 E2.05051
G92 E0
G1 X101.564 Y115.724 F6000.000
G1 F420.000 E0.50000
G1 X102.520 Y117.708 F2100.000 E0.53207
G1 X102.848 Y119.885 E0.56414
G1 X102.520 Y122.063 E0.59622
G1 X101.564 Y124.046 E0.62829
G1 X100.067 Y125.661 E0.66036
G1 X98.160 Y126.761 E0.69243
G1 X96.013 Y127.251 E0.72450
G1 X93.891 Y127.092 E0.75551
G1 X86.629 Y125.435 E0.86400
G1 X88.486 Y117.302 E0.98551
G1 X88.606 Y117.329 E0.98731
G1 X88.806 Y116.680 E0.99720
G1 X90.047 Y114.861 E1.02928
G1 X91.768 Y113.488 E1.06135
G1 X93.818 Y112.684 E1.09342
G1 X96.013 Y112.519 E1.12549
G1 X98.160 Y113.009 E1.15756
G1 X100.067 Y114.110 E1.18964
G1 X101.525 Y115.682 E1.22087
G1 X101.564 Y115.724 E1.22171
G1 X101.243 Y115.944 F6000.000
G1 X102.148 Y117.823 F2100.000 E1.25209
G1 X102.459 Y119.885 E1.28247
G1 X102.148 Y121.948 E1.31285
G1 X101.243 Y123.827 E1.34324
G1 X99.824 Y125.356 E1.37362
G1 X98.018 Y126.399 E1.40400
G1 X95.984 Y126.863 E1.43438
G1 X93.948 Y126.711 E1.46412
G1 X87.090 Y125.145 E1.56659
G1 X88.775 Y117.763 E1.67689
G1 X88.869 Y117.784 E1.67829
G1 X89.157 Y116.849 E1.69253
G1 X90.332 Y115.126 E1.72291
G1 X91.963 Y113.825 E1.75330
G1 X93.904 Y113.063 E1.78368
G1 X95.984 Y112.907 E1.81406
G1 X98.018 Y113.372 E1.84444
G1 X99.824 Y114.415 E1.87483
G1 X101.204 Y115.901 E1.90437
G1 X101.243 Y115.944 E1.90521
G1 X100.921 Y116.163 F6000.000
G1 X101.776 Y117.938 F1050.000 E1.93390
G1 X102.070 Y119.885 E1.96259
G1 X101.776 Y121.833 E1.99128
G1 X100.921 Y123.608 E2.01998
G1 X99.582 Y125.052 E2.04867
G1 X97.876 Y126.037 E2.07736
G1 X95.955 Y126.475 E2.10605
G1 X94.006 Y126.329 E2.13453
G1 X87.551 Y124.856 E2.23097
G1 X89.065 Y118.223 E2.33006
G1 X89.131 Y118.238 E2.33105
G1 X89.507 Y117.018 E2.34965
G1 X90.617 Y115.391 E2.37835
G1 X92.157 Y114.162 E2.40704
G1 X93.991 Y113.443 E2.43573
G1 X95.955 Y113.296 E2.46442
G1 X97.876 Y113.734 E2.49312
G1 X99.582 Y114.719 E2.52181
G1 X100.882 Y116.121 E2.54966
G1 X100.921 Y116.163 E2.55050
G1 X101.007 Y116.538 F6000.000
G1 F420.000 E2.05050
G92 E0
G1 X88.680 Y111.025 F6000.000
G1 F420.000 E0.50000
G1 X87.724 Y113.009 F2100.000 E0.53207
G1 X86.226 Y114.623 E0.56414
G1 X84.320 Y115.724 E0.59622
G1 X82.173 Y116.214 E0.62829
G1 X79.977 Y116.050 E0.66036
G1 X77.928 Y115.245 E0.69243
G1 X76.206 Y113.872 E0.72451
G1 X75.007 Y112.114 E0.75551
G1 X71.776 Y105.403 E0.86400
G1 X79.292 Y101.783 E0.98551
G1 X79.345 Y101.895 E0.98731
G1 X79.977 Y101.647 E0.99720
G1 X82.173 Y101.482 E1.02928
G1 X84.320 Y101.972 E1.06135
G1 X86.226 Y103.073 E1.09342
G1 X87.724 Y104.687 E1.12549
G1 X88.680 Y106.671 E1.15756
G1 X89.008 Y108.848 E1.18964
G1 X88.688 Y110.968 E1.22087
G1 X88.680 Y111.025 E1.22171
G1 X88.308 Y110.911 F6000.000
G1 X87.403 Y112.790 F2100.000 E1.25209
G1 X85.984 Y114.319 E1.28247
G1 X84.177 Y115.362 E1.31285
G1 X82.144 Y115.826 E1.34324
G1 X80.064 Y115.670 E1.37362
G1 X78.122 Y114.908 E1.40400
G1 X76.491 Y113.608 E1.43438
G1 X75.341 Y111.921 E1.46412
G1 X72.289 Y105.583 E1.56659
G1 X79.112 Y102.297 E1.67689
G1 X79.154 Y102.383 E1.67829
G1 X80.064 Y102.026 E1.69253
G1 X82.144 Y101.870 E1.72292
G1 X84.177 Y102.334 E1.75330
G1 X85.984 Y103.377 E1.78368
G1 X87.403 Y104.906 E1.81406
G1 X88.308 Y106.786 E1.84444
G1 X88.618 Y108.848 E1.87483
G1 X88.316 Y110.854 E1.90437
G1 X88.308 Y110.911 E1.90521
G1 X87.936 Y110.796 F6000.000
G1 X87.081 Y112.571 F1050.000 E1.93390
G1 X85.741 Y114.015 E1.96259
G1 X84.035 Y115.000 E1.99129
G1 X82.115 Y115.438 E2.01998
G1 X80.150 Y115.291 E2.04867
G1 X78.317 Y114.571 E2.07736
G1 X76.777 Y113.343 E2.10606
G1 X75.676 Y111.728 E2.13453
G1 X72.803 Y105.762 E2.23097
G1 X78.932 Y102.811 E2.33006
G1 X78.962 Y102.872 E2.33106
G1 X80.150 Y102.405 E2.34965
G1 X82.115 Y102.258 E2.37835
G1 X84.035 Y102.697 E2.40704
G1 X85.741 Y103.682 E2.43573
G1 X87.081 Y105.126 E2.46442
G1 X87.936 Y106.900 E2.49312
G1 X88.229 Y108.848 E2.52181
G1 X87.944 Y110.739 E2.54966
G1 X87.936 Y110.796 E2.55050
G1 X87.696 Y111.097 F6000.000
G1 F420.000 E2.05050
G92 E0
G1 X84.320 Y98.022 F6000.000
G1 F420.000 E0.50000
G1 X82.173 Y98.512 F2100.000 E0.53207
G1 X79.977 Y98.347 E0.56415
G1 X77.928 Y97.543 E0.59622
G1 X76.206 Y96.170 E0.62829
G1 X74.966 Y94.351 E0.66036
G1 X74.317 Y92.247 E0.69243
G1 X74.317 Y90.045 E0.72450
G1 X74.944 Y88.011 E0.75551
G1 X78.176 Y81.300 E0.86400
G1 X85.691 Y84.919 E0.98550
G1 X85.638 Y85.031 E0.98730
G1 X86.226 Y85.370 E0.99720
G1 X87.724 Y86.985 E1.02927
G1 X88.680 Y88.968 E1.06134
G1 X89.008 Y91.146 E1.09342
G1 X88.680 Y93.323 E1.12549
G1 X87.724 Y95.307 E1.15756
G1 X86.226 Y96.921 E1.18963
G1 X84.370 Y97.993 E1.22086
G1 X84.320 Y98.022 E1.22170
G1 X84.177 Y97.659 F6000.000
G1 X82.144 Y98.124 F2100.000 E1.25209
G1 X80.064 Y97.968 E1.28247
G1 X78.122 Y97.206 E1.31285
G1 X76.491 Y95.905 E1.34323
G1 X75.317 Y94.182 E1.37362
G1 X74.702 Y92.189 E1.40400
G1 X74.702 Y90.103 E1.43438
G1 X75.304 Y88.152 E1.46412
G1 X78.356 Y81.814 E1.56658
G1 X85.178 Y85.099 E1.67688
G1 X85.137 Y85.186 E1.67828
G1 X85.984 Y85.675 E1.69253
G1 X87.403 Y87.204 E1.72291
G1 X88.308 Y89.083 E1.75329
G1 X88.618 Y91.146 E1.78367
G1 X88.308 Y93.208 E1.81406
G1 X87.403 Y95.087 E1.84444
G1 X85.984 Y96.616 E1.87482
G1 X84.227 Y97.631 E1.90436
G1 X84.177 Y97.659 E1.90520
G1 X84.035 Y97.297 F6000.000
G1 X82.115 Y97.735 F1050.000 E1.93389
G1 X80.150 Y97.588 E1.96259
G1 X78.317 Y96.869 E1.99128
G1 X76.777 Y95.640 E2.01997
G1 X75.667 Y94.013 E2.04866
G1 X75.087 Y92.131 E2.07736
G1 X75.087 Y90.161 E2.10605
G1 X75.663 Y88.293 E2.13452
G1 X78.535 Y82.328 E2.23096
G1 X84.665 Y85.279 E2.33005
G1 X84.635 Y85.341 E2.33105
G1 X85.741 Y85.979 E2.34965
G1 X87.081 Y87.423 E2.37834
G1 X87.936 Y89.198 E2.40703
G1 X88.229 Y91.146 E2.43572
G1 X87.936 Y93.093 E2.46442
G1 X87.081 Y94.868 E2.49311
G1 X85.741 Y96.312 E2.52180
G1 X84.085 Y97.268 E2.54965
G1 X84.035 Y97.297 E2.55049
G1 X83.650 Y97.297 F6000.000
G1 F420.000 E2.05049
G92 E0
G1 X91.768 Y86.505 F6000.000
G1 F420.000 E0.50000
G1 X90.047 Y85.133 F2100.000 E0.53207
G1 X88.806 Y83.313 E0.56414
G1 X88.750 Y83.133 E0.56690
G1 X88.157 Y81.209 E0.59622
G1 X88.157 Y79.007 E0.62829
G1 X88.806 Y76.903 E0.66036
G1 X90.047 Y75.084 E0.69243
G1 X91.768 Y73.711 E0.72451
G1 X93.749 Y72.934 E0.75551
G1 X101.011 Y71.276 E0.86400
G1 X102.868 Y79.411 E0.98554
G1 X102.747 Y79.438 E0.98734
G1 X102.848 Y80.108 E0.99721
G1 X102.520 Y82.286 E1.02928
G1 X101.564 Y84.269 E1.06135
G1 X100.067 Y85.883 E1.09342
G1 X98.160 Y86.984 E1.12550
G1 X96.013 Y87.474 E1.15757
G1 X93.818 Y87.310 E1.18964
G1 X91.822 Y86.526 E1.22087
G1 X91.768 Y86.505 E1.22171
G1 X91.963 Y86.168 F6000.000
G1 X90.332 Y84.868 F2100.000 E1.25209
G1 X89.157 Y83.144 E1.28248
G1 X88.542 Y81.151 E1.31286
G1 X88.542 Y79.065 E1.34324
G1 X89.157 Y77.072 E1.37362
G1 X90.332 Y75.349 E1.40401
G1 X91.963 Y74.048 E1.43439
G1 X93.863 Y73.302 E1.46413
G1 X100.721 Y71.737 E1.56659
G1 X102.407 Y79.121 E1.67691
G1 X102.313 Y79.142 E1.67831
G1 X102.459 Y80.108 E1.69254
G1 X102.148 Y82.171 E1.72292
G1 X101.243 Y84.050 E1.75330
G1 X99.824 Y85.579 E1.78368
G1 X98.018 Y86.622 E1.81407
G1 X95.984 Y87.086 E1.84445
G1 X93.904 Y86.930 E1.87483
G1 X92.016 Y86.189 E1.90437
G1 X91.963 Y86.168 E1.90521
G1 X92.157 Y85.831 F6000.000
G1 X90.617 Y84.603 F1050.000 E1.93391
G1 X89.507 Y82.976 E1.96260
G1 X88.927 Y81.093 E1.99129
G1 X88.927 Y79.123 E2.01998
G1 X89.507 Y77.241 E2.04868
G1 X90.617 Y75.614 E2.07737
G1 X92.157 Y74.385 E2.10606
G1 X93.977 Y73.671 E2.13454
G1 X100.432 Y72.198 E2.23097
G1 X101.946 Y78.831 E2.33007
G1 X101.879 Y78.846 E2.33107
G1 X102.070 Y80.108 E2.34966
G1 X101.776 Y82.056 E2.37835
G1 X100.921 Y83.831 E2.40705
G1 X99.582 Y85.275 E2.43574
G1 X97.876 Y86.260 E2.46443
G1 X95.955 Y86.698 E2.49312
G1 X93.991 Y86.551 E2.52182
G1 X92.211 Y85.852 E2.54967
G1 X92.157 Y85.831 E2.55051
G1 X91.917 Y85.530 F6000.000
G1 F420.000 E2.05051
G92 E0
G1 X105.416 Y85.148 F6000.000
G1 F420.000 E0.50000
G1 X105.416 Y82.947 F2100.000 E0.53207
G1 X106.065 Y80.843 E0.56414
G1 X107.305 Y79.023 E0.59622
G1 X108.879 Y77.768 E0.62553
