; generated by Slic3r 0.9.8 on 2013-03-28 at 12:56:33

; layer_height = 0.25
; perimeters = 3
; top_solid_layers = 4
; bottom_solid_layers = 3
; fill_density = 0.15
; perimeter_speed = 70
; infill_speed = 90
; travel_speed = 100
; scale = 1
; nozzle_diameter = 0.35
; filament_diameter = 2.9
; extrusion_multiplier = 1
; perimeters extrusion width = 0.39mm
; infill extrusion width = 0.39mm
; first layer extrusion width = 0.39mm

M107
G28 ; home all axes
G90 ; use absolute coordinates
G21 ; set units to millimeters
G92 E0
M82 ; use absolute distances for extrusion
G1 F420.000 E-0.50000
G92 E0
G1 Z0.250 F6000.000
G1 X111.110 Y111.745
G1 F420.000 E0.50000
G1 X110.930 Y111.925 F2100.000 E0.50371
G1 X110.330 Y112.425 E0.51508
G1 X108.680 Y113.635 E0.54489
G1 X107.980 Y114.085 E0.55701
G1 X107.480 Y114.325 E0.56509
G1 X105.600 Y115.155 E0.59502
G1 X104.870 Y115.425 E0.60636
G1 X104.360 Y115.555 E0.61403
G1 X102.360 Y115.985 E0.64382
G1 X101.830 Y116.075 E0.65165
G1 X101.290 Y116.125 E0.65955
G1 X98.700 Y116.125 E0.69728
G1 X98.160 Y116.075 E0.70518
G1 X97.630 Y115.985 E0.71301
G1 X95.620 Y115.555 E0.74295
G1 X94.860 Y115.345 E0.75443
G1 X94.370 Y115.155 E0.76209
G1 X92.500 Y114.325 E0.79189
G1 X91.770 Y113.935 E0.80395
G1 X91.310 Y113.635 E0.81194
G1 X89.660 Y112.425 E0.84175
G1 X89.070 Y111.935 E0.85292
G1 X87.320 Y110.035 E0.89055
G1 X86.810 Y109.395 E0.90247
G1 X86.520 Y108.925 E0.91051
G1 X85.500 Y107.145 E0.94039
G1 X85.260 Y106.685 E0.94795
G1 X85.050 Y106.195 E0.95572
G1 X84.260 Y103.755 E0.99307
G1 X84.140 Y103.245 E1.00070
G1 X84.060 Y102.715 E1.00851
G1 X83.840 Y100.675 E1.03840
G1 X83.810 Y100.135 E1.04628
G1 X83.840 Y99.315 E1.05823
G1 X84.060 Y97.275 E1.08812
G1 X84.190 Y96.495 E1.09963
G1 X84.330 Y95.995 E1.10720
G1 X84.960 Y94.045 E1.13705
G1 X85.050 Y93.785 E1.14105
G1 X85.260 Y93.295 E1.14882
G1 X85.510 Y92.815 E1.15670
G1 X86.530 Y91.045 E1.18646
G1 X86.820 Y90.585 E1.19438
G1 X87.150 Y90.145 E1.20239
G1 X88.710 Y88.425 E1.23621
G1 X89.260 Y87.885 E1.24744
G1 X89.660 Y87.565 E1.25490
G1 X91.310 Y86.355 E1.28471
G1 X91.540 Y86.195 E1.28879
G1 X92.010 Y85.915 E1.29676
G1 X92.500 Y85.665 E1.30477
G1 X94.370 Y84.835 E1.33457
G1 X95.110 Y84.565 E1.34604
G1 X95.620 Y84.435 E1.35371
G1 X97.630 Y84.005 E1.38365
G1 X98.430 Y83.885 E1.39543
G1 X98.700 Y83.865 E1.39938
G1 X101.290 Y83.865 E1.43710
G1 X101.830 Y83.915 E1.44500
G1 X102.360 Y84.005 E1.45283
G1 X104.360 Y84.435 E1.48263
G1 X105.120 Y84.645 E1.49411
G1 X105.610 Y84.835 E1.50177
G1 X107.480 Y85.665 E1.53157
G1 X107.970 Y85.905 E1.53952
G1 X108.650 Y86.345 E1.55132
G1 X110.310 Y87.555 E1.58124
G1 X110.730 Y87.885 E1.58902
G1 X111.110 Y88.245 E1.59664
G1 X112.660 Y89.965 E1.63037
G1 X112.840 Y90.165 E1.63429
G1 X113.160 Y90.585 E1.64198
G1 X113.450 Y91.035 E1.64978
G1 X114.480 Y92.815 E1.67973
G1 X114.840 Y93.535 E1.69146
G1 X115.730 Y96.235 E1.73287
G1 X115.850 Y96.745 E1.74050
G1 X115.930 Y97.275 E1.74830
G1 X116.150 Y99.315 E1.77819
G1 X116.180 Y99.855 E1.78607
G1 X116.150 Y100.675 E1.79802
G1 X115.930 Y102.715 E1.82791
G1 X115.800 Y103.495 E1.83943
G1 X115.660 Y103.995 E1.84699
G1 X115.030 Y105.945 E1.87684
G1 X114.840 Y106.465 E1.88490
G1 X114.470 Y107.195 E1.89682
G1 X113.440 Y108.965 E1.92665
G1 X113.150 Y109.415 E1.93445
G1 X112.840 Y109.835 E1.94206
G1 X111.149 Y111.702 E1.97875
G1 X111.110 Y111.745 E1.97959
G1 F420.000 E1.47959
G92 E0
G1 X103.033 Y102.205 F6000.000
G1 F420.000 E0.50000
G1 X101.158 Y103.566 F1500.000 E0.53374
G1 X98.840 Y103.566 E0.56751
G1 X96.966 Y102.205 E0.60125
G1 X96.249 Y100.001 E0.63500
G1 X96.965 Y97.795 E0.66878
G1 X97.345 Y97.520 E0.67562
G1 X97.312 Y97.418 E0.67718
G1 X96.083 Y97.418 E0.69508
G1 X96.083 Y92.584 E0.76549
G1 X103.917 Y92.584 E0.87960
G1 X103.917 Y97.418 E0.95000
G1 X102.686 Y97.418 E0.96793
G1 X102.653 Y97.520 E0.96949
G1 X103.032 Y97.795 E0.97632
G1 X103.749 Y99.999 E1.01008
G1 X103.050 Y102.150 E1.04302
G1 X103.033 Y102.205 E1.04386
G1 X102.705 Y101.967 F6000.000
G1 X101.033 Y103.181 F1500.000 E1.07396
G1 X98.965 Y103.181 E1.10408
G1 X97.293 Y101.967 E1.13418
G1 X96.654 Y100.001 E1.16429
G1 X97.293 Y98.033 E1.19442
G1 X98.530 Y97.135 E1.21670
G1 X98.497 Y97.033 E1.21825
G1 X96.468 Y97.033 E1.24781
G1 X96.468 Y92.969 E1.30701
G1 X103.532 Y92.969 E1.40991
G1 X103.532 Y97.033 E1.46910
G1 X101.501 Y97.033 E1.49869
G1 X101.468 Y97.135 E1.50025
G1 X102.705 Y98.033 E1.52252
G1 X103.344 Y99.999 E1.55263
G1 X102.723 Y101.912 E1.58192
G1 X102.705 Y101.967 E1.58276
G1 F420.000 E1.08276
G92 E0
G1 X103.147 Y96.648 F6000.000
G1 F420.000 E0.50000
G1 X96.853 Y96.648 F1500.000 E0.59168
G1 X96.853 Y93.354 E0.63967
G1 X103.147 Y93.354 E0.73135
G1 X103.147 Y96.590 E0.77850
G1 X103.147 Y96.648 E0.77934
G1 X103.147 Y97.033 F6000.000
G1 X102.261 Y98.186
G1 X102.378 Y98.271 F1500.000 E0.78144
G1 X102.939 Y99.999 E0.80790
G1 X102.378 Y101.729 E0.83439
G1 X100.908 Y102.796 E0.86085
G1 X99.090 Y102.796 E0.88733
G1 X97.620 Y101.729 E0.91379
G1 X97.059 Y100.001 E0.94025
G1 X97.620 Y98.271 E0.96675
G1 X99.090 Y97.204 E0.99320
G1 X100.908 Y97.204 E1.01969
G1 X102.214 Y98.153 E1.04320
G1 X102.261 Y98.186 E1.04404
G1 X102.613 Y98.030 F6000.000
G1 F420.000 E0.54404
G92 E0
G1 X97.208 Y108.586 F6000.000
G1 F420.000 E0.50000
G1 X95.484 Y107.817 F2100.000 E0.52750
G1 X93.959 Y106.709 E0.55497
G1 X92.695 Y105.305 E0.58248
G1 X91.749 Y103.666 E0.61004
G1 X91.169 Y101.877 E0.63743
G1 X90.972 Y100.001 E0.66491
G1 X91.169 Y98.123 E0.69242
G1 X91.752 Y96.326 E0.71993
G1 X92.694 Y94.695 E0.74738
G1 X93.959 Y93.291 E0.77489
G1 X95.484 Y92.181 E0.80238
G1 X97.209 Y91.414 E0.82987
G1 X99.055 Y91.022 E0.85736
G1 X100.942 Y91.022 E0.88485
G1 X102.788 Y91.414 E0.91233
G1 X104.512 Y92.181 E0.93983
G1 X106.039 Y93.291 E0.96732
G1 X107.303 Y94.694 E0.99483
G1 X108.248 Y96.334 E1.02239
G1 X108.829 Y98.123 E1.04980
G1 X109.028 Y100.001 E1.07730
G1 X108.829 Y101.876 E1.10477
G1 X108.246 Y103.672 E1.13227
G1 X107.303 Y105.306 E1.15974
G1 X106.039 Y106.709 E1.18725
G1 X104.514 Y107.819 E1.21474
G1 X102.790 Y108.586 E1.24222
G1 X100.943 Y108.978 E1.26973
G1 X99.055 Y108.978 E1.29722
G1 X97.265 Y108.598 E1.32388
G1 X97.208 Y108.586 E1.32472
G1 X97.089 Y108.954 F6000.000
G1 X95.291 Y108.152 F2100.000 E1.35340
G1 X93.700 Y106.996 E1.38204
G1 X92.382 Y105.532 E1.41074
G1 X91.396 Y103.824 E1.43947
G1 X90.790 Y101.958 E1.46804
G1 X90.585 Y100.001 E1.49670
G1 X90.790 Y98.043 E1.52538
G1 X91.399 Y96.169 E1.55407
G1 X92.381 Y94.467 E1.58270
G1 X93.700 Y93.004 E1.61139
G1 X95.291 Y91.846 E1.64005
G1 X97.117 Y91.040 E1.66913
G1 X99.015 Y90.637 E1.69739
G1 X100.983 Y90.637 E1.72606
G1 X102.907 Y91.046 E1.75471
G1 X104.706 Y91.846 E1.78338
G1 X106.298 Y93.004 E1.81206
G1 X107.617 Y94.467 E1.84075
G1 X108.602 Y96.177 E1.86949
G1 X109.208 Y98.043 E1.89807
G1 X109.415 Y100.001 E1.92675
G1 X109.208 Y101.957 E1.95541
G1 X108.599 Y103.829 E1.98408
G1 X107.616 Y105.533 E2.01273
G1 X106.298 Y106.996 E2.04142
G1 X104.707 Y108.154 E2.07008
G1 X102.909 Y108.954 E2.09874
G1 X100.983 Y109.363 E2.12743
G1 X99.015 Y109.363 E2.15609
G1 X97.145 Y108.966 E2.18393
G1 X97.089 Y108.954 E2.18477
G1 X96.950 Y109.314 F6000.000
G1 X95.097 Y108.487 F1050.000 E2.21432
G1 X93.441 Y107.284 E2.24415
G1 X92.069 Y105.759 E2.27403
G1 X91.042 Y103.981 E2.30393
G1 X90.412 Y102.038 E2.33369
G1 X90.198 Y100.001 E2.36352
G1 X90.412 Y97.962 E2.39338
G1 X91.045 Y96.012 E2.42325
G1 X92.068 Y94.240 E2.45305
G1 X93.441 Y92.716 E2.48292
G1 X95.097 Y91.511 E2.51276
G1 X96.969 Y90.678 E2.54261
G1 X98.974 Y90.252 E2.57246
G1 X101.023 Y90.252 E2.60231
G1 X103.027 Y90.678 E2.63214
G1 X104.899 Y91.511 E2.66199
G1 X105.602 Y92.021 E2.67464
G1 X106.557 Y92.716 E2.69185
G1 X107.930 Y94.240 E2.72172
G1 X108.955 Y96.019 E2.75164
G1 X109.586 Y97.962 E2.78139
G1 X109.802 Y100.001 E2.81126
G1 X109.586 Y102.038 E2.84109
G1 X108.953 Y103.986 E2.87093
G1 X107.930 Y105.760 E2.90077
G1 X106.557 Y107.284 E2.93063
G1 X104.901 Y108.489 E2.96047
G1 X103.029 Y109.322 E2.99032
G1 X101.023 Y109.748 E3.02018
G1 X98.975 Y109.748 E3.05002
G1 X97.005 Y109.330 E3.07935
G1 X96.950 Y109.314 E3.08019
G1 X96.883 Y108.935 F6000.000
G1 X96.081 Y107.730
G1 X92.312 Y103.960 F2700.000 E3.15932
G1 X91.830 Y102.925 E3.17628
G1 X97.082 Y108.177 E3.28654
G1 X97.896 Y108.435 E3.29921
G1 X91.564 Y102.104 E3.43213
G1 X91.394 Y101.379 E3.44318
G1 X98.600 Y108.585 E3.59446
G1 X99.286 Y108.716 E3.60482
G1 X91.329 Y100.759 E3.77186
G1 X91.264 Y100.140 E3.78111
G1 X99.840 Y108.716 E3.96115
G1 X100.395 Y108.716 E3.96939
G1 X91.267 Y99.588 E4.16101
G1 X91.320 Y99.086 E4.16850
G1 X100.950 Y108.716 E4.37067
G1 X101.420 Y108.632 E4.37777
G1 X91.372 Y98.584 E4.58871
G1 X91.425 Y98.082 E4.59621
G1 X101.878 Y108.535 E4.81565
G1 X102.336 Y108.438 E4.82260
G1 X91.561 Y97.663 E5.04880
G1 X91.697 Y97.244 E5.05533
G1 X96.637 Y102.185 E5.15906
G1 X96.370 Y101.363 E5.17188
G1 X91.832 Y96.825 E5.26714
G1 X91.968 Y96.407 E5.27368
G1 X96.103 Y100.541 E5.36048
G1 X96.034 Y99.918 E5.36979
G1 X92.164 Y96.048 E5.45104
G1 X92.367 Y95.696 E5.45706
G1 X96.170 Y99.499 E5.53690
G1 X96.306 Y99.080 E5.54344
G1 X92.570 Y95.345 E5.62186
G1 X92.773 Y94.993 E5.62789
G1 X96.442 Y98.662 E5.70491
G1 X96.578 Y98.243 E5.71145
G1 X96.015 Y97.680 E5.72326
G1 X95.821 Y97.486 F6000.000
G1 X93.003 Y94.668 F2700.000 E5.78241
G1 X93.266 Y94.376 E5.78824
G1 X95.821 Y96.931 E5.84187
G1 X95.821 Y96.376 E5.85011
G1 X93.529 Y94.085 E5.89822
G1 X93.792 Y93.793 E5.90405
G1 X95.821 Y95.822 E5.94664
G1 X95.821 Y95.267 E5.95488
G1 X94.055 Y93.501 E5.99196
G1 X94.367 Y93.258 E5.99782
G1 X95.821 Y94.712 E6.02835
G1 X95.821 Y94.158 E6.03658
G1 X94.688 Y93.025 E6.06037
G1 X95.009 Y92.791 E6.06626
G1 X95.821 Y93.603 E6.08331
G1 X95.821 Y93.048 E6.09154
G1 X95.330 Y92.558 E6.10185
G1 F420.000 E5.60185
G92 E0
G1 X104.179 Y92.532 F6000.000
G1 F420.000 E0.50000
G1 X107.687 Y96.040 F2700.000 E0.57363
G1 X108.167 Y97.075 E0.59057
G1 X104.179 Y93.087 E0.67429
G1 X104.179 Y93.642 E0.68252
G1 X108.434 Y97.896 E0.77184
G1 X108.604 Y98.621 E0.78290
G1 X104.179 Y94.196 E0.87580
G1 X104.179 Y94.751 E0.88404
G1 X108.670 Y99.242 E0.97832
G1 X108.736 Y99.862 E0.98758
G1 X104.179 Y95.306 E1.08323
G1 X104.179 Y95.860 E1.09147
G1 X108.733 Y100.414 E1.18706
G1 X108.679 Y100.915 E1.19455
G1 X104.179 Y96.415 E1.28903
G1 X104.179 Y96.970 E1.29726
G1 X108.626 Y101.417 E1.39062
G1 X108.573 Y101.918 E1.39811
G1 X104.179 Y97.524 E1.49036
G1 X103.780 Y97.680 F6000.000
G1 X108.437 Y102.337 F2700.000 E1.58812
G1 X108.301 Y102.756 E1.59465
G1 X103.361 Y97.815 E1.69837
G1 X103.628 Y98.637 E1.71120
G1 X108.165 Y103.174 E1.80645
G1 X108.029 Y103.593 E1.81299
G1 X103.895 Y99.459 E1.89978
G1 X103.964 Y100.082 E1.90909
G1 X107.833 Y103.952 E1.99033
G1 X107.630 Y104.303 E1.99635
G1 X103.828 Y100.501 E2.07618
G1 X103.692 Y100.920 E2.08272
G1 X107.428 Y104.655 E2.16114
G1 X107.225 Y105.007 E2.16717
G1 X103.556 Y101.338 E2.24418
G1 X103.420 Y101.757 E2.25072
G1 X106.995 Y105.332 E2.32576
G1 X106.732 Y105.624 E2.33159
G1 X103.284 Y102.176 E2.40397
G1 X103.027 Y102.473 F6000.000
G1 X106.469 Y105.915 F2700.000 E2.47624
G1 X106.206 Y106.207 E2.48207
G1 X102.705 Y102.706 E2.55557
G1 X102.384 Y102.940 E2.56146
G1 X105.943 Y106.499 E2.63618
G1 X105.631 Y106.742 E2.64205
G1 X102.063 Y103.173 E2.71697
G1 X101.741 Y103.406 E2.72286
G1 X105.310 Y106.975 E2.79778
G1 X104.989 Y107.209 E2.80368
G1 X101.420 Y103.640 E2.87860
G1 X101.054 Y103.828 F6000.000
G1 X104.668 Y107.442 F2700.000 E2.95448
G1 X104.328 Y107.657 E2.96045
G1 X100.499 Y103.828 E3.04084
G1 X99.945 Y103.828 E3.04907
G1 X103.945 Y107.828 E3.13305
G1 X103.561 Y107.999 E3.13928
G1 X99.390 Y103.828 E3.22684
G1 X98.835 Y103.828 E3.23508
G1 X103.177 Y108.170 E3.32622
G1 X102.793 Y108.341 E3.33246
G1 X97.453 Y103.001 E3.44457
G1 F420.000 E2.94457
G92 E0
G1 X94.094 Y106.297 F6000.000
G1 F420.000 E0.50000
G1 X94.341 Y106.544 F2700.000 E0.50518
G1 F420.000 E0.00518
G92 E0
G1 X105.904 Y93.702 F6000.000
G1 F420.000 E0.50000
G1 X105.657 Y93.456 F2700.000 E0.50518
G1 F420.000 E0.00518
G92 E0
G1 X98.882 Y97.122 F6000.000
G1 F420.000 E0.50000
G1 X98.735 Y96.975 F600.000 E0.50180
G1 F420.000 E0.00180
G92 E0
G1 X101.113 Y97.013 F6000.000
G1 F420.000 E0.50000
G1 X100.966 Y96.866 F600.000 E0.50181
G1 F420.000 E0.00181
G92 E0
G1 X103.690 Y92.317 F6000.000
G1 F420.000 E0.50000
G1 X103.445 Y92.072 F600.000 E0.50505
G1 X103.084 Y91.898 F6000.000
G1 X103.329 Y92.144 F2700.000 E0.51012
G1 X102.961 Y92.322 E0.51610
G1 X102.231 Y91.592 E0.53119
G1 X101.537 Y91.445 E0.54156
G1 X102.414 Y92.322 E0.55969
G1 X101.868 Y92.322 E0.56768
G1 X100.844 Y91.298 E0.58886
G1 X100.284 Y91.284 E0.59705
G1 X101.321 Y92.322 E0.61851
G1 X100.775 Y92.322 E0.62650
G1 X99.737 Y91.284 E0.64796
G1 X99.191 Y91.284 E0.65595
G1 X100.229 Y92.322 E0.67741
G1 X99.682 Y92.322 E0.68540
G1 X98.702 Y91.342 E0.70567
G1 X98.251 Y91.437 E0.71241
G1 X99.136 Y92.322 E0.73070
G1 X98.589 Y92.322 E0.73869
G1 X97.800 Y91.533 E0.75501
G1 X97.350 Y91.629 E0.76175
G1 X98.043 Y92.322 E0.77609
G1 X97.497 Y92.322 E0.78408
G1 X96.948 Y91.774 E0.79542
G1 X96.705 Y92.077 E0.80110
G1 X96.950 Y92.322 E0.80617
G1 X96.534 Y92.317 F6000.000
G1 X96.289 Y92.072 F600.000 E0.81122
G1 F420.000 E0.31122
G92 E0
G1 Z0.500 F6000.000
G1 X96.083 Y92.584
G1 F420.000 E0.50000
G1 X103.917 Y92.584 F3000.000 E0.61411
G1 X103.917 Y97.418 E0.68451
G1 X102.685 Y97.418 E0.70245
G1 X102.652 Y97.519 E0.70400
G1 X103.033 Y97.796 E0.71085
G1 X103.749 Y99.999 E0.74459
G1 X103.033 Y102.205 E0.77837
G1 X101.158 Y103.566 E0.81212
G1 X98.840 Y103.566 E0.84588
G1 X96.966 Y102.205 E0.87962
G1 X96.249 Y100.001 E0.91337
G1 X96.966 Y97.795 E0.94716
G1 X97.345 Y97.520 E0.95399
G1 X97.312 Y97.418 E0.95555
G1 X96.083 Y97.418 E0.97345
G1 X96.083 Y92.642 E1.04302
G1 X96.083 Y92.584 E1.04386
G1 X96.468 Y92.969 F6000.000
G1 X103.532 Y92.969 F3000.000 E1.14676
G1 X103.532 Y97.033 E1.20595
G1 X101.501 Y97.033 E1.23554
G1 X101.468 Y97.135 E1.23710
G1 X102.705 Y98.034 E1.25937
G1 X103.344 Y99.999 E1.28948
G1 X102.705 Y101.967 E1.31961
G1 X101.033 Y103.181 E1.34971
G1 X98.965 Y103.181 E1.37984
G1 X97.293 Y101.967 E1.40994
G1 X96.654 Y100.001 E1.44004
G1 X97.293 Y98.033 E1.47018
G1 X98.530 Y97.135 E1.49245
G1 X98.497 Y97.033 E1.49401
G1 X96.468 Y97.033 E1.52357
G1 X96.468 Y93.027 E1.58193
G1 X96.468 Y92.969 E1.58277
G1 X96.853 Y93.354 F6000.000
G1 X103.147 Y93.354 F3000.000 E1.67445
G1 X103.147 Y96.648 E1.72244
G1 X96.853 Y96.648 E1.81412
G1 X96.853 Y93.412 E1.86127
G1 X96.853 Y93.354 E1.86211
G1 X96.853 Y92.969 F6000.000
G1 F420.000 E1.36211
G92 E0
G1 X99.090 Y97.204 F6000.000
G1 F420.000 E0.50000
G1 X100.908 Y97.204 F3000.000 E0.52648
G1 X102.378 Y98.271 E0.55294
G1 X102.939 Y99.999 E0.57940
G1 X102.378 Y101.729 E0.60590
G1 X100.908 Y102.796 E0.63235
G1 X99.090 Y102.796 E0.65883
G1 X97.620 Y101.729 E0.68529
G1 X97.059 Y100.001 E0.71176
G1 X97.620 Y98.271 E0.73825
G1 X99.043 Y97.238 E0.76386
G1 X99.090 Y97.204 E0.76470
G1 X99.209 Y96.838 F6000.000
G1 F420.000 E0.26470
G92 E0
G1 X91.752 Y96.326 F6000.000
G1 F420.000 E0.50000
G1 X92.694 Y94.695 F4200.000 E0.52745
G1 X93.959 Y93.291 E0.55496
G1 X95.484 Y92.181 E0.58244
G1 X97.209 Y91.413 E0.60994
G1 X99.054 Y91.022 E0.63742
G1 X100.942 Y91.022 E0.66492
G1 X102.787 Y91.413 E0.69239
G1 X104.512 Y92.181 E0.71990
G1 X105.150 Y92.643 E0.73136
G1 X106.039 Y93.291 E0.74739
G1 X107.303 Y94.694 E0.77490
G1 X108.248 Y96.334 E0.80246
G1 X108.829 Y98.123 E0.82987
G1 X109.028 Y100.001 E0.85737
G1 X108.829 Y101.876 E0.88484
G1 X108.246 Y103.672 E0.91234
G1 X107.303 Y105.306 E0.93981
G1 X106.039 Y106.709 E0.96732
G1 X104.514 Y107.819 E0.99481
G1 X102.790 Y108.586 E1.02229
G1 X100.943 Y108.978 E1.04979
G1 X99.055 Y108.978 E1.07728
G1 X97.209 Y108.586 E1.10478
G1 X95.484 Y107.817 E1.13228
G1 X93.959 Y106.709 E1.15975
G1 X92.695 Y105.305 E1.18727
G1 X91.754 Y103.674 E1.21470
G1 X91.169 Y101.877 E1.24222
G1 X90.972 Y100.001 E1.26970
G1 X91.169 Y98.123 E1.29720
G1 X91.734 Y96.381 E1.32387
G1 X91.752 Y96.326 E1.32471
G1 X91.390 Y96.196 F6000.000
G1 X92.381 Y94.467 F4200.000 E1.35374
G1 X93.700 Y93.004 E1.38243
G1 X95.291 Y91.846 E1.41110
G1 X97.089 Y91.046 E1.43977
G1 X99.014 Y90.637 E1.46843
